;FLAVOR:Marlin
;TIME:10591
;Filament used: 23.2405m
;Layer height: 0.4
;MINX:63.728
;MINY:74.399
;MINZ:0.5
;MAXX:192.292
;MAXY:160.999
;MAXZ:39.3
;Generated with Cura_SteamEngine 4.6.1
M140 S80
M105
M190 S80
M104 S245
M105
M109 S245
M82 ;absolute extrusion mode
; Ender 3 Custom Start G-code
G92 E0 ; Reset Extruder
G28 ; Home all axes
G1 Z2.0 F3000 ; Move Z Axis up little to prevent scratching of Heat Bed
G1 X0.1 Y20 Z0.3 F5000.0 ; Move to start position
G1 X0.1 Y200.0 Z0.3 F1500.0 E15 ; Draw the first line
G1 X0.4 Y200.0 Z0.3 F5000.0 ; Move to side a little
G1 X0.4 Y20 Z0.3 F1500.0 E30 ; Draw the second line
G92 E0 ; Reset Extruder
G1 Z2.0 F3000 ; Move Z Axis up little to prevent scratching of Heat Bed
G1 X5 Y20 Z0.3 F5000.0 ; Move over to prevent blob squish
G92 E0
G92 E0
G1 F3000 E-10
;LAYER_COUNT:98
;LAYER:0
M107
G0 F12000 X176.553 Y74.445 Z0.5
;TYPE:SKIRT
G1 F3000 E0
G1 F720 X177.047 Y74.509 E0.06213
G1 X177.622 Y74.623 E0.13524
G1 X178.062 Y74.769 E0.19306
G1 X178.476 Y74.931 E0.24851
G1 X179.006 Y75.181 E0.3216
G1 X179.326 Y75.379 E0.36854
G1 X179.732 Y75.655 E0.42977
G1 X180.194 Y76.017 E0.50297
G1 X180.566 Y76.397 E0.5693
G1 X180.933 Y76.821 E0.63924
G1 X181.286 Y77.289 E0.71236
G1 X181.574 Y77.806 E0.78617
G1 X181.778 Y78.24 E0.84598
G1 X181.99 Y78.786 E0.91904
G1 X182.131 Y79.381 E0.9953
G1 X182.875 Y83.945 E1.57206
G1 X183.397 Y86.636 E1.91396
G1 X183.986 Y89.277 E2.25145
G1 X184.648 Y91.894 E2.58814
G1 X185.38 Y94.481 E2.92347
G1 X186.198 Y97.088 E3.26426
G1 X187.082 Y99.643 E3.60147
G1 X188.036 Y102.169 E3.93825
G1 X189.068 Y104.687 E4.27766
G1 X190.158 Y107.143 E4.6128
G1 X191.227 Y109.399 E4.92417
G1 X191.605 Y110.294 E5.04535
G1 X191.812 Y110.828 E5.11678
G1 X191.997 Y111.433 E5.19569
G1 X192.123 Y111.99 E5.26691
G1 X192.209 Y112.529 E5.33499
G1 X192.271 Y113.177 E5.41618
G1 X192.291 Y113.571 E5.46539
G1 X192.292 Y113.834 E5.49819
G1 X192.282 Y114.149 E5.5375
G1 X192.252 Y114.579 E5.59126
G1 X192.196 Y115.031 E5.64807
G1 X192.118 Y115.456 E5.70196
G1 X192.054 Y115.761 E5.74083
G1 X191.899 Y116.315 E5.81258
G1 X191.714 Y116.828 E5.8806
G1 X191.562 Y117.21 E5.93188
G1 X191.262 Y117.928 E6.02894
G1 X190.882 Y118.775 E6.14472
G1 X189.784 Y121.324 E6.49089
G1 X188.771 Y123.862 E6.83173
G1 X187.864 Y126.352 E7.16225
G1 X187 Y128.94 E7.50256
G1 X186.21 Y131.552 E7.84291
G1 X185.501 Y134.156 E8.17952
G1 X184.871 Y136.762 E8.51392
G1 X184.304 Y139.427 E8.85375
G1 X183.817 Y142.101 E9.19276
G1 X183.408 Y144.761 E9.52843
G1 X183.072 Y147.455 E9.86704
G1 X182.814 Y150.14 E10.20347
G1 X182.633 Y152.81 E10.53725
G1 X182.502 Y156.701 E11.02283
G1 X182.455 Y157.321 E11.10038
G1 X182.33 Y157.893 E11.17341
G1 X182.128 Y158.443 E11.24649
G1 X181.853 Y158.961 E11.31964
G1 X181.51 Y159.436 E11.39271
G1 X181.105 Y159.861 E11.46594
G1 X180.647 Y160.226 E11.53898
G1 X180.143 Y160.526 E11.61214
G1 X179.603 Y160.754 E11.68525
G1 X179.038 Y160.907 E11.75826
G1 X178.327 Y160.987 E11.84749
G1 X177.893 Y160.998 E11.90164
G1 X78.516 Y160.999 E24.29649
G1 X78.461 Y160.999 E24.30335
G1 X77.763 Y160.99 E24.39042
G1 X77.178 Y160.942 E24.46362
G1 X76.606 Y160.816 E24.53668
G1 X76.056 Y160.612 E24.60984
G1 X75.539 Y160.336 E24.68294
G1 X75.064 Y159.993 E24.75602
G1 X74.641 Y159.587 E24.82914
G1 X74.276 Y159.128 E24.90229
G1 X73.977 Y158.624 E24.97538
G1 X73.75 Y158.084 E25.04844
G1 X73.598 Y157.517 E25.12166
G1 X73.52 Y156.806 E25.21087
G1 X73.461 Y154.614 E25.48437
G1 X73.323 Y151.835 E25.83141
G1 X73.116 Y149.162 E26.16579
G1 X72.825 Y146.437 E26.5076
G1 X72.467 Y143.779 E26.84212
G1 X72.03 Y141.121 E27.17809
G1 X71.51 Y138.432 E27.51969
G1 X70.93 Y135.823 E27.85304
G1 X70.268 Y133.2 E28.19046
G1 X69.528 Y130.584 E28.52954
G1 X68.707 Y127.969 E28.87139
G1 X67.832 Y125.43 E29.20635
G1 X66.879 Y122.904 E29.54308
G1 X65.855 Y120.404 E29.88004
G1 X64.766 Y117.941 E30.21593
G1 X64.412 Y117.099 E30.32985
G1 X64.206 Y116.566 E30.40112
G1 X64.021 Y115.957 E30.48051
G1 X63.895 Y115.395 E30.55234
G1 X63.811 Y114.865 E30.61927
G1 X63.748 Y114.209 E30.70147
G1 X63.728 Y113.782 E30.75478
G1 X63.729 Y113.518 E30.78771
G1 X63.739 Y113.237 E30.82278
G1 X63.768 Y112.818 E30.87517
G1 X63.826 Y112.356 E30.93324
G1 X63.9 Y111.95 E30.98472
G1 X63.963 Y111.647 E31.02332
G1 X64.121 Y111.082 E31.09649
G1 X64.307 Y110.568 E31.16467
G1 X64.47 Y110.161 E31.21935
G1 X64.72 Y109.559 E31.30065
G1 X64.816 Y109.345 E31.32991
G1 X65.128 Y108.696 E31.41972
G1 X66.291 Y106.192 E31.76408
G1 X67.37 Y103.686 E32.10438
G1 X68.373 Y101.168 E32.44244
G1 X69.291 Y98.645 E32.7773
G1 X70.149 Y96.067 E33.11618
G1 X70.929 Y93.489 E33.45212
G1 X71.639 Y90.871 E33.79045
G1 X72.278 Y88.222 E34.13032
G1 X72.837 Y85.588 E34.46617
G1 X73.324 Y82.907 E34.80603
G1 X73.639 Y80.889 E35.06077
G1 X73.829 Y79.591 E35.22439
G1 X73.954 Y79.018 E35.29754
G1 X74.08 Y78.647 E35.34641
G1 X74.242 Y78.233 E35.40186
G1 X74.492 Y77.703 E35.47495
G1 X74.689 Y77.384 E35.52171
G1 X74.962 Y76.982 E35.58232
G1 X75.323 Y76.521 E35.65535
G1 X75.704 Y76.147 E35.72194
G1 X76.144 Y75.766 E35.79453
G1 X76.612 Y75.414 E35.86757
G1 X77.157 Y75.113 E35.94523
G1 X77.573 Y74.921 E36.00237
G1 X78.121 Y74.712 E36.07552
G1 X78.56 Y74.603 E36.13194
G1 X79.109 Y74.497 E36.20168
G1 X79.686 Y74.426 E36.27419
G1 X80.029 Y74.407 E36.31703
G1 X80.267 Y74.4 E36.34673
G1 X175.303 Y74.399 E48.20015
G1 X175.365 Y74.399 E48.20788
G1 X176.063 Y74.409 E48.29495
G1 X176.553 Y74.445 E48.35623
G1 F3000 E38.35623
;MESH:bostig-large.obj
G0 F12000 X74.202 Y112.334
G0 X75.138 Y110.715
G0 X73.288 Y110.774
G0 X72.631 Y110.862
G0 X70.878 Y111.51
;TYPE:WALL-INNER
G1 F3000 E48.35623
G1 F720 X70.337 Y112.217 E48.46726
G1 X69.997 Y113.038 E48.5781
G1 X69.88 Y113.92 E48.68907
G1 X69.997 Y114.802 E48.80004
G1 X70.337 Y115.623 E48.91087
G1 X70.878 Y116.33 E49.02191
G1 X71.585 Y116.871 E49.13294
G1 X72.406 Y117.211 E49.24378
G1 X73.288 Y117.328 E49.35475
G1 X74.17 Y117.211 E49.46572
G1 X74.991 Y116.871 E49.57655
G1 X75.698 Y116.33 E49.68759
G1 X76.239 Y115.623 E49.79862
G1 X76.579 Y114.802 E49.90946
G1 X76.696 Y113.92 E50.02043
G1 X76.579 Y113.038 E50.1314
G1 X76.239 Y112.217 E50.24223
G1 X75.698 Y111.51 E50.35327
G1 X74.991 Y110.969 E50.46431
G1 X74.17 Y110.629 E50.57514
G1 X73.288 Y110.512 E50.68611
G1 X72.406 Y110.629 E50.79708
G1 X71.585 Y110.969 E50.90792
G1 X70.878 Y111.51 E51.01895
G0 F12000 X71.306 Y111.938
;TYPE:WALL-OUTER
G1 F720 X70.861 Y112.519 E51.11023
G1 X70.581 Y113.195 E51.20149
G1 X70.485 Y113.92 E51.29271
G1 X70.581 Y114.645 E51.38392
G1 X70.861 Y115.321 E51.47518
G1 X71.306 Y115.902 E51.56646
G1 X71.887 Y116.347 E51.65774
G1 X72.563 Y116.627 E51.749
G1 X73.288 Y116.723 E51.84022
G1 X74.013 Y116.627 E51.93143
G1 X74.689 Y116.347 E52.02269
G1 X75.27 Y115.902 E52.11397
G1 X75.715 Y115.321 E52.20525
G1 X75.995 Y114.645 E52.29651
G1 X76.091 Y113.92 E52.38773
G1 X75.995 Y113.195 E52.47894
G1 X75.715 Y112.519 E52.5702
G1 X75.27 Y111.938 E52.66148
G1 X74.689 Y111.493 E52.75276
G1 X74.013 Y111.213 E52.84402
G1 X73.288 Y111.117 E52.93524
G1 X72.563 Y111.213 E53.02645
G1 X71.887 Y111.493 E53.11771
G1 X71.306 Y111.938 E53.20899
G0 F12000 X70.84 Y111.472
G1 F3000 E43.20899
G0 F12000 X72.475 Y110.883
G0 X73.288 Y110.774
G0 X74.101 Y110.883
G0 X74.859 Y111.197
G0 X75.228 Y111.479
G0 X76.862 Y112.962
G0 X75.055 Y113.443
G0 X181.268 Y113.76
G0 X179.376 Y113.76
G0 X179.951 Y113.756
G0 X180.06 Y112.947
G0 X180.374 Y112.189
G0 X180.873 Y111.537
G0 X181.526 Y111.037
G0 X182.284 Y110.724
G0 X183.097 Y110.614
G0 X183.91 Y110.724
G0 X184.668 Y111.037
G0 X185.32 Y111.537
G0 X185.725 Y112.064
G0 X186.501 Y113.724
;TYPE:WALL-INNER
G1 F3000 E53.20899
G1 F720 X186.387 Y112.878 E53.31546
G1 X186.048 Y112.056 E53.42636
G1 X185.506 Y111.351 E53.53728
G1 X184.801 Y110.809 E53.64819
G1 X183.979 Y110.47 E53.75909
G1 X183.097 Y110.352 E53.87008
G1 X182.215 Y110.47 E53.98107
G1 X181.394 Y110.809 E54.09185
G1 X180.687 Y111.351 E54.20297
G1 X180.146 Y112.056 E54.3138
G1 X179.806 Y112.878 E54.42475
G1 X179.689 Y113.76 E54.53572
G1 X179.806 Y114.642 E54.64669
G1 X180.146 Y115.463 E54.75753
G1 X180.687 Y116.17 E54.86856
G1 X181.394 Y116.711 E54.9796
G1 X182.215 Y117.051 E55.09043
G1 X183.097 Y117.168 E55.2014
G1 X183.979 Y117.051 E55.31238
G1 X184.801 Y116.711 E55.42332
G1 X185.506 Y116.17 E55.53416
G1 X185.882 Y115.68 E55.6112
G1 X186.048 Y115.463 E55.64527
G1 X186.387 Y114.642 E55.75606
G1 X186.395 Y114.576 E55.76435
G1 X186.505 Y113.76 E55.86705
G1 X186.501 Y113.724 E55.87157
G0 F12000 X185.9 Y113.76
;TYPE:WALL-OUTER
G1 F720 X185.803 Y113.035 E55.9628
G1 X185.524 Y112.359 E56.05401
G1 X185.078 Y111.779 E56.14527
G1 X184.498 Y111.333 E56.23652
G1 X183.822 Y111.054 E56.32774
G1 X183.097 Y110.957 E56.41897
G1 X182.372 Y111.054 E56.5102
G1 X181.696 Y111.333 E56.60141
G1 X181.115 Y111.779 E56.69277
G1 X180.67 Y112.359 E56.78395
G1 X180.39 Y113.035 E56.87521
G1 X180.294 Y113.76 E56.96642
G1 X180.39 Y114.485 E57.05764
G1 X180.67 Y115.161 E57.1489
G1 X181.115 Y115.742 E57.24018
G1 X181.696 Y116.187 E57.33146
G1 X182.372 Y116.467 E57.42272
G1 X183.097 Y116.563 E57.51393
G1 X183.822 Y116.467 E57.60515
G1 X184.498 Y116.187 E57.69641
G1 X185.078 Y115.742 E57.78759
G1 X185.524 Y115.161 E57.87894
G1 X185.803 Y114.485 E57.97016
G1 X185.9 Y113.76 E58.06139
G0 F12000 X186.56 Y113.76
G1 F3000 E48.06139
G0 F12000 X185.613 Y117.505
G0 X177.376 Y123.338
G0 X177.312 Y155.799
;TYPE:WALL-INNER
G1 F3000 E58.06139
G1 F720 X177.013 Y155.799 E58.09868
G1 X78.709 Y155.799 E70.3597
G1 X78.708 Y153.599 E70.63409
G1 X78.91 Y153.599 E70.65929
G1 X78.91 Y123.186 E74.45257
G1 X74.304 Y120.458 E75.12025
G1 X71.267 Y118.04 E75.60444
G1 X70.221 Y116.891 E75.79824
G1 X69.483 Y115.776 E75.96501
G1 X69.047 Y114.694 E76.11051
G1 X68.953 Y114.235 E76.16894
G1 X68.916 Y113.735 E76.23148
G1 X68.944 Y113.224 E76.29531
G1 X69.038 Y112.744 E76.35631
G1 X69.486 Y111.617 E76.50758
G1 X70.221 Y110.507 E76.67362
G1 X71.267 Y109.358 E76.86742
G1 X74.304 Y106.94 E77.35161
G1 X78.91 Y104.212 E78.0193
G1 X78.91 Y80.756 E80.94486
G1 X78.955 Y80.418 E80.98739
G1 X79.064 Y80.152 E81.02324
G1 X79.238 Y79.926 E81.05882
G1 X79.463 Y79.754 E81.09414
G1 X79.729 Y79.644 E81.13004
G1 X80.067 Y79.599 E81.17257
G1 X175.953 Y79.599 E93.132
G1 X176.291 Y79.644 E93.17453
G1 X176.557 Y79.754 E93.21043
G1 X176.782 Y79.926 E93.24576
G1 X176.956 Y80.152 E93.28133
G1 X177.065 Y80.418 E93.31718
G1 X177.11 Y80.756 E93.35971
G1 X177.11 Y104.212 E96.28528
G1 X181.716 Y106.94 E96.95296
G1 X184.753 Y109.358 E97.43715
G1 X185.799 Y110.507 E97.63095
G1 X186.537 Y111.622 E97.79772
G1 X186.973 Y112.704 E97.94322
G1 X187.067 Y113.163 E98.00165
G1 X187.104 Y113.657 E98.06344
G1 X187.098 Y113.755 E98.07569
G1 X187.097 Y113.792 E98.08028
G1 X187.076 Y114.174 E98.12799
G1 X186.982 Y114.654 E98.18896
G1 X186.905 Y114.847 E98.21418
G1 X186.577 Y115.673 E98.3184
G1 X186.534 Y115.781 E98.3326
G1 X186.383 Y116.009 E98.36622
G1 X185.799 Y116.891 E98.49815
G1 X184.753 Y118.04 E98.69195
G1 X181.716 Y120.458 E99.17614
G1 X177.11 Y123.186 E99.84382
G1 X177.11 Y153.599 E103.6371
G1 X177.311 Y153.599 E103.66217
G1 X177.312 Y155.5 E103.89927
G1 X177.312 Y155.799 E103.92341
G0 F12000 X177.912 Y156.399
;TYPE:WALL-OUTER
G1 F720 X78.109 Y156.399 E116.37139
G1 X78.108 Y152.999 E116.79546
G1 X78.31 Y152.999 E116.82065
G1 X78.31 Y123.528 E120.49644
G1 X73.963 Y120.953 E121.1266
G1 X70.854 Y118.478 E121.62224
G1 X69.749 Y117.264 E121.82699
G1 X68.95 Y116.057 E122.00753
G1 X68.469 Y114.864 E122.16797
G1 X68.358 Y114.321 E122.23709
G1 X68.315 Y113.739 E122.30988
G1 X68.347 Y113.146 E122.38395
G1 X68.459 Y112.577 E122.45628
G1 X68.952 Y111.338 E122.6226
G1 X69.749 Y110.134 E122.80269
G1 X70.854 Y108.92 E123.00744
G1 X73.963 Y106.445 E123.50308
G1 X78.31 Y103.87 E124.13325
G1 X78.31 Y80.715 E127.02127
G1 X78.37 Y80.261 E127.07838
G1 X78.54 Y79.849 E127.13397
G1 X78.81 Y79.498 E127.18921
G1 X79.16 Y79.229 E127.24426
G1 X79.572 Y79.059 E127.29985
G1 X80.026 Y78.999 E127.35697
G1 X175.994 Y78.999 E139.32663
G1 X176.448 Y79.059 E139.38375
G1 X176.86 Y79.229 E139.43934
G1 X177.21 Y79.498 E139.49439
G1 X177.48 Y79.849 E139.54963
G1 X177.65 Y80.261 E139.60522
G1 X177.71 Y80.715 E139.66233
G1 X177.71 Y103.87 E142.55035
G1 X182.057 Y106.445 E143.18052
G1 X185.166 Y108.92 E143.67616
G1 X186.271 Y110.134 E143.88091
G1 X187.07 Y111.341 E144.06145
G1 X187.551 Y112.534 E144.22188
G1 X187.662 Y113.077 E144.29101
G1 X187.705 Y113.657 E144.36355
G1 X187.673 Y114.252 E144.43787
G1 X187.561 Y114.821 E144.5102
G1 X187.068 Y116.06 E144.67652
G1 X186.271 Y117.264 E144.85661
G1 X185.166 Y118.478 E145.06136
G1 X182.057 Y120.953 E145.557
G1 X177.71 Y123.528 E146.18717
G1 X177.71 Y152.999 E149.86295
G1 X177.911 Y152.999 E149.88802
G1 X177.912 Y156.399 E150.31209
G0 F12000 X177.542 Y156.029
G0 X177.102 Y155.209
G0 X176.722 Y155.209
;TYPE:SKIN
G1 F720 X79.299 Y155.209 E162.46322
G1 X79.298 Y154.189 E162.59044
G1 X79.5 Y154.189 E162.61563
G1 X79.5 Y122.85 E166.52441
G1 X74.641 Y119.972 E167.22878
G1 X71.667 Y117.603 E167.70301
G1 X71.579 Y117.506 E167.71935
G1 X72.252 Y117.785 E167.81021
G1 X73.288 Y117.924 E167.94059
G1 X74.324 Y117.785 E168.07096
G1 X75.288 Y117.386 E168.20109
G1 X76.119 Y116.751 E168.33153
G1 X76.754 Y115.92 E168.46198
G1 X77.153 Y114.956 E168.5921
G1 X77.292 Y113.92 E168.72248
G1 X77.153 Y112.884 E168.85285
G1 X76.754 Y111.92 E168.98298
G1 X76.119 Y111.089 E169.11342
G1 X75.288 Y110.454 E169.24386
G1 X74.324 Y110.055 E169.37399
G1 X73.288 Y109.916 E169.50436
G1 X72.252 Y110.055 E169.63474
G1 X71.288 Y110.454 E169.76487
G1 X70.631 Y110.956 E169.86799
G1 X70.69 Y110.868 E169.88121
G1 X71.667 Y109.795 E170.0622
G1 X74.641 Y107.426 E170.53644
G1 X79.5 Y104.548 E171.24081
G1 X79.5 Y80.79 E174.20404
G1 X79.529 Y80.576 E174.23097
G1 X79.582 Y80.445 E174.2486
G1 X79.656 Y80.349 E174.26371
G1 X79.76 Y80.27 E174.28
G1 X79.886 Y80.218 E174.29701
G1 X80.101 Y80.189 E174.32406
G1 X175.919 Y80.189 E186.27501
G1 X176.134 Y80.218 E186.30207
G1 X176.26 Y80.27 E186.31907
G1 X176.364 Y80.349 E186.33536
G1 X176.438 Y80.445 E186.35048
G1 X176.491 Y80.576 E186.36811
G1 X176.52 Y80.79 E186.39504
G1 X176.52 Y104.548 E189.35827
G1 X181.379 Y107.426 E190.06264
G1 X184.353 Y109.795 E190.53687
G1 X184.633 Y110.102 E190.5887
G1 X184.133 Y109.896 E190.65615
G1 X183.097 Y109.756 E190.78654
G1 X182.061 Y109.896 E190.91693
G1 X181.097 Y110.294 E191.04701
G1 X180.266 Y110.93 E191.17753
G1 X179.631 Y111.759 E191.30777
G1 X179.232 Y112.724 E191.43801
G1 X179.093 Y113.76 E191.56839
G1 X179.232 Y114.796 E191.69876
G1 X179.631 Y115.76 E191.82889
G1 X180.266 Y116.591 E191.95933
G1 X181.097 Y117.226 E192.08977
G1 X182.061 Y117.625 E192.2199
G1 X183.097 Y117.764 E192.35027
G1 X184.133 Y117.625 E192.48065
G1 X184.454 Y117.492 E192.52399
G1 X184.353 Y117.603 E192.5427
G1 X181.379 Y119.972 E193.01694
G1 X176.52 Y122.85 E193.72131
G1 X176.52 Y154.189 E197.63008
G1 X176.721 Y154.189 E197.65515
G1 X176.722 Y155.209 E197.78237
G1 F3000 E187.78237
G0 F12000 X177.102 Y155.209
G0 X177.013 Y122.923
G0 X181.561 Y120.234
G0 X184.569 Y117.841
G0 X185.587 Y116.721
G0 X185.983 Y116.055
G0 X183.097 Y117.441
G0 X179.909 Y115.6
G0 X179.909 Y111.919
G0 X183.097 Y110.079
G0 X186.328 Y111.921
G0 X186.296 Y111.749
G0 X185.583 Y110.672
G0 X184.569 Y109.557
G0 X181.561 Y107.164
G0 X177.422 Y104.718
G0 X176.9 Y81.244
G0 X176.279 Y81.244
G1 F3000 E197.78237
G1 F720 X175.464 Y80.429 E197.92613
G0 F12000 X174.615 Y80.429
G1 F720 X176.279 Y82.092 E198.21955
G0 F12000 X176.279 Y82.941
G1 F720 X173.767 Y80.429 E198.66264
G0 F12000 X172.918 Y80.429
G1 F720 X176.279 Y83.79 E199.25548
G0 F12000 X176.279 Y84.638
G1 F720 X172.07 Y80.429 E199.9979
G0 F12000 X171.221 Y80.429
G1 F720 X176.279 Y85.487 E200.89007
G0 F12000 X176.279 Y86.335
G1 F720 X170.373 Y80.429 E201.93182
G0 F12000 X169.524 Y80.429
G1 F720 X176.279 Y87.184 E203.12333
G0 F12000 X176.279 Y88.032
G1 F720 X168.676 Y80.429 E204.46441
G0 F12000 X167.827 Y80.429
G1 F720 X176.279 Y88.881 E205.95524
G0 F12000 X176.279 Y89.729
G1 F720 X166.979 Y80.429 E207.59566
G0 F12000 X166.13 Y80.429
G1 F720 X176.279 Y90.578 E209.38582
G0 F12000 X176.279 Y91.426
G1 F720 X165.281 Y80.429 E211.32566
