;FLAVOR:Marlin
;TIME:10597
;Filament used: 23.2576m
;Layer height: 0.4
;MINX:43.566
;MINY:81.11
;MINZ:0.5
;MAXX:172.13
;MAXY:167.71
;MAXZ:39.3
;Generated with Cura_SteamEngine 4.6.1
M140 S80
M105
M190 S80
M104 S245
M105
M109 S245
M82 ;absolute extrusion mode
; Ender 3 Custom Start G-code
G92 E0 ; Reset Extruder
G28 ; Home all axes
G1 Z2.0 F3000 ; Move Z Axis up little to prevent scratching of Heat Bed
G1 X0.1 Y20 Z0.3 F5000.0 ; Move to start position
G1 X0.1 Y200.0 Z0.3 F1500.0 E15 ; Draw the first line
G1 X0.4 Y200.0 Z0.3 F5000.0 ; Move to side a little
G1 X0.4 Y20 Z0.3 F1500.0 E30 ; Draw the second line
G92 E0 ; Reset Extruder
G1 Z2.0 F3000 ; Move Z Axis up little to prevent scratching of Heat Bed
G1 X5 Y20 Z0.3 F5000.0 ; Move over to prevent blob squish
G92 E0
G92 E0
G1 F3000 E-10
;LAYER_COUNT:98
;LAYER:0
M107
G0 F12000 X156.388 Y81.155 Z0.5
;TYPE:SKIRT
G1 F3000 E0
G1 F720 X156.885 Y81.219 E0.0625
G1 X157.46 Y81.334 E0.13564
G1 X157.908 Y81.482 E0.19449
G1 X158.295 Y81.634 E0.24634
G1 X158.825 Y81.885 E0.31949
G1 X159.116 Y82.063 E0.36203
G1 X159.555 Y82.357 E0.42793
G1 X160.018 Y82.716 E0.50101
G1 X160.401 Y83.102 E0.56883
G1 X160.731 Y83.48 E0.63141
G1 X161.086 Y83.947 E0.70458
G1 X161.369 Y84.448 E0.77635
G1 X161.628 Y84.988 E0.85104
G1 X161.845 Y85.533 E0.92421
G1 X162.001 Y86.192 E1.00867
G1 X162.467 Y89.212 E1.3898
G1 X162.945 Y91.904 E1.73082
G1 X163.491 Y94.541 E2.06669
G1 X164.109 Y97.158 E2.40208
G1 X164.813 Y99.795 E2.7425
G1 X165.581 Y102.38 E3.07884
G1 X166.429 Y104.963 E3.41793
G1 X167.35 Y107.522 E3.75714
G1 X168.337 Y110.038 E4.09423
G1 X169.385 Y112.499 E4.42786
G1 X171.099 Y116.184 E4.93475
G1 X171.444 Y117.007 E5.04606
G1 X171.677 Y117.609 E5.12657
G1 X171.854 Y118.183 E5.20149
G1 X171.943 Y118.582 E5.25248
G1 X171.995 Y118.859 E5.28763
G1 X172.049 Y119.241 E5.33575
G1 X172.106 Y119.835 E5.41018
G1 X172.126 Y120.19 E5.45452
G1 X172.13 Y120.497 E5.49282
G1 X172.12 Y120.851 E5.53699
G1 X172.09 Y121.283 E5.591
G1 X172.043 Y121.683 E5.64123
G1 X171.97 Y122.099 E5.69391
G1 X171.893 Y122.466 E5.74068
G1 X171.745 Y122.998 E5.80956
G1 X171.558 Y123.524 E5.87918
G1 X171.4 Y123.921 E5.93248
G1 X171.1 Y124.639 E6.02953
G1 X170.72 Y125.486 E6.14532
G1 X169.622 Y128.035 E6.49149
G1 X168.609 Y130.573 E6.83232
G1 X167.702 Y133.063 E7.16285
G1 X166.838 Y135.651 E7.50316
G1 X166.048 Y138.263 E7.84351
G1 X165.339 Y140.867 E8.18012
G1 X164.709 Y143.473 E8.51452
G1 X164.142 Y146.138 E8.85435
G1 X163.655 Y148.812 E9.19335
G1 X163.246 Y151.472 E9.52902
G1 X162.91 Y154.166 E9.86764
G1 X162.652 Y156.851 E10.20407
G1 X162.471 Y159.521 E10.53785
G1 X162.34 Y163.412 E11.02343
G1 X162.293 Y164.032 E11.10098
G1 X162.168 Y164.604 E11.17401
G1 X161.966 Y165.154 E11.24709
G1 X161.691 Y165.672 E11.32024
G1 X161.348 Y166.147 E11.39331
G1 X160.943 Y166.572 E11.46654
G1 X160.485 Y166.937 E11.53958
G1 X159.981 Y167.237 E11.61274
G1 X159.441 Y167.465 E11.68585
G1 X158.876 Y167.618 E11.75885
G1 X158.165 Y167.698 E11.84809
G1 X157.731 Y167.709 E11.90224
G1 X58.354 Y167.71 E24.29709
G1 X58.299 Y167.71 E24.30395
G1 X57.601 Y167.701 E24.39101
G1 X57.016 Y167.653 E24.46422
G1 X56.444 Y167.527 E24.53728
G1 X55.894 Y167.323 E24.61044
G1 X55.377 Y167.047 E24.68354
G1 X54.902 Y166.704 E24.75661
G1 X54.479 Y166.298 E24.82974
G1 X54.114 Y165.839 E24.90289
G1 X53.815 Y165.335 E24.97598
G1 X53.588 Y164.795 E25.04904
G1 X53.436 Y164.228 E25.12225
G1 X53.358 Y163.517 E25.21147
G1 X53.299 Y161.325 E25.48496
G1 X53.161 Y158.546 E25.832
G1 X52.954 Y155.873 E26.16639
G1 X52.663 Y153.148 E26.5082
G1 X52.305 Y150.49 E26.84272
G1 X51.868 Y147.832 E27.17869
G1 X51.348 Y145.143 E27.52029
G1 X50.768 Y142.534 E27.85364
G1 X50.106 Y139.911 E28.19105
G1 X49.366 Y137.295 E28.53014
G1 X48.545 Y134.68 E28.87199
G1 X47.67 Y132.141 E29.20695
G1 X46.717 Y129.615 E29.54368
G1 X45.693 Y127.115 E29.88064
G1 X44.604 Y124.652 E30.21653
G1 X44.245 Y123.798 E30.33207
G1 X44.019 Y123.216 E30.40994
G1 X43.844 Y122.657 E30.483
G1 X43.797 Y122.46 E30.50826
G1 X43.75 Y122.234 E30.53705
G1 X43.698 Y121.949 E30.57318
G1 X43.647 Y121.583 E30.61928
G1 X43.587 Y120.95 E30.69858
G1 X43.568 Y120.574 E30.74554
G1 X43.566 Y120.289 E30.78108
G1 X43.576 Y119.962 E30.82189
G1 X43.606 Y119.529 E30.87602
G1 X43.661 Y119.079 E30.93257
G1 X43.737 Y118.66 E30.98568
G1 X43.802 Y118.348 E31.02543
G1 X43.962 Y117.78 E31.09903
G1 X44.117 Y117.353 E31.15569
G1 X44.284 Y116.931 E31.2123
G1 X44.563 Y116.259 E31.30305
G1 X44.662 Y116.037 E31.33337
G1 X44.95 Y115.441 E31.41593
G1 X46.089 Y112.994 E31.75257
G1 X47.171 Y110.488 E32.09302
G1 X48.162 Y108.002 E32.42682
G1 X49.096 Y105.449 E32.76588
G1 X49.955 Y102.88 E33.10374
G1 X50.738 Y100.3 E33.44003
G1 X51.452 Y97.681 E33.7786
G1 X52.098 Y95.019 E34.12026
G1 X52.652 Y92.405 E34.45353
G1 X53.145 Y89.717 E34.79439
G1 X53.482 Y87.571 E35.06533
G1 X53.668 Y86.295 E35.22616
G1 X53.792 Y85.722 E35.29928
G1 X53.918 Y85.35 E35.34827
G1 X54.067 Y84.969 E35.3993
G1 X54.318 Y84.439 E35.47244
G1 X54.518 Y84.114 E35.52004
G1 X54.843 Y83.637 E35.59203
G1 X55.206 Y83.176 E35.66521
G1 X55.655 Y82.745 E35.74284
G1 X56.038 Y82.428 E35.80485
G1 X56.514 Y82.086 E35.87795
G1 X56.942 Y81.854 E35.93867
G1 X57.384 Y81.645 E35.99965
G1 X57.93 Y81.431 E36.0728
G1 X58.424 Y81.307 E36.13632
G1 X58.964 Y81.205 E36.20487
G1 X59.524 Y81.137 E36.27523
G1 X59.867 Y81.118 E36.31807
G1 X60.105 Y81.111 E36.34777
G1 X155.141 Y81.11 E48.20118
G1 X155.203 Y81.11 E48.20892
G1 X155.901 Y81.12 E48.29598
G1 X156.388 Y81.155 E48.35688
G1 F3000 E38.35688
;MESH:case-bostig-small_hex.obj(2)
G0 F12000 X54.419 Y119.338
G0 X55.742 Y118.015
G0 X53.939 Y117.595
G0 X53.126 Y117.486
G0 X52.469 Y117.574
G0 X50.716 Y118.222
;TYPE:WALL-INNER
G1 F3000 E48.35688
G1 F720 X50.175 Y118.929 E48.46792
G1 X49.835 Y119.75 E48.57875
G1 X49.718 Y120.632 E48.68972
G1 X49.835 Y121.514 E48.80069
G1 X50.175 Y122.335 E48.91153
G1 X50.716 Y123.042 E49.02256
G1 X51.423 Y123.583 E49.1336
G1 X52.244 Y123.923 E49.24443
G1 X53.126 Y124.04 E49.3554
G1 X54.008 Y123.923 E49.46637
G1 X54.83 Y123.583 E49.57732
G1 X55.535 Y123.042 E49.68816
G1 X56.077 Y122.336 E49.79917
G1 X56.417 Y121.514 E49.91012
G1 X56.534 Y120.632 E50.02109
G1 X56.417 Y119.75 E50.13207
G1 X56.077 Y118.928 E50.24301
G1 X55.535 Y118.222 E50.35403
G1 X54.83 Y117.681 E50.46486
G1 X54.008 Y117.341 E50.57581
G1 X53.126 Y117.224 E50.68678
G1 X52.244 Y117.341 E50.79776
G1 X51.423 Y117.681 E50.90859
G1 X50.716 Y118.222 E51.01963
G0 F12000 X51.144 Y118.65
;TYPE:WALL-OUTER
G1 F720 X50.699 Y119.231 E51.1109
G1 X50.419 Y119.907 E51.20217
G1 X50.323 Y120.632 E51.29338
G1 X50.419 Y121.357 E51.3846
G1 X50.699 Y122.033 E51.47586
G1 X51.144 Y122.614 E51.56714
G1 X51.725 Y123.059 E51.65841
G1 X52.401 Y123.339 E51.74967
G1 X53.126 Y123.435 E51.84089
G1 X53.851 Y123.339 E51.93211
G1 X54.527 Y123.059 E52.02337
G1 X55.107 Y122.614 E52.11455
G1 X55.553 Y122.033 E52.2059
G1 X55.833 Y121.357 E52.29716
G1 X55.929 Y120.632 E52.38838
G1 X55.833 Y119.907 E52.47959
G1 X55.553 Y119.231 E52.57085
G1 X55.107 Y118.65 E52.66221
G1 X54.527 Y118.205 E52.75339
G1 X53.851 Y117.925 E52.84465
G1 X53.126 Y117.829 E52.93586
G1 X52.401 Y117.925 E53.02708
G1 X51.725 Y118.205 E53.11834
G1 X51.144 Y118.65 E53.20962
G0 F12000 X50.678 Y118.184
G1 F3000 E43.20962
G0 F12000 X52.313 Y117.595
G0 X53.126 Y117.486
G0 X53.939 Y117.595
G0 X54.697 Y117.909
G0 X55.065 Y118.191
G0 X56.7 Y119.674
G0 X54.893 Y120.155
G0 X161.167 Y119.995
G0 X159.341 Y119.509
G0 X160.524 Y118.062
;TYPE:WALL-INNER
G1 F3000 E53.20962
G1 F720 X159.983 Y118.769 E53.32065
G1 X159.643 Y119.59 E53.43149
G1 X159.526 Y120.472 E53.54246
G1 X159.643 Y121.354 E53.65343
G1 X159.983 Y122.175 E53.76426
G1 X160.524 Y122.882 E53.8753
G1 X161.231 Y123.423 E53.98634
G1 X162.052 Y123.763 E54.09717
G1 X162.934 Y123.88 E54.20814
G1 X163.816 Y123.763 E54.31911
G1 X164.637 Y123.423 E54.42995
G1 X165.344 Y122.882 E54.54098
G1 X165.718 Y122.393 E54.61777
G1 X165.885 Y122.175 E54.65202
G1 X166.225 Y121.354 E54.76285
G1 X166.234 Y121.282 E54.7719
G1 X166.342 Y120.472 E54.87382
G1 X166.338 Y120.441 E54.87772
G1 X166.225 Y119.59 E54.98479
G1 X165.885 Y118.769 E55.09563
G1 X165.344 Y118.062 E55.20666
G1 X164.637 Y117.521 E55.3177
G1 X163.816 Y117.181 E55.42853
G1 X162.934 Y117.064 E55.5395
G1 X162.052 Y117.181 E55.65048
G1 X161.231 Y117.521 E55.76131
G1 X160.524 Y118.062 E55.87234
G0 F12000 X160.952 Y118.49
;TYPE:WALL-OUTER
G1 F720 X160.507 Y119.071 E55.96362
G1 X160.227 Y119.747 E56.05488
G1 X160.131 Y120.472 E56.1461
G1 X160.227 Y121.197 E56.23731
G1 X160.507 Y121.873 E56.32858
G1 X160.952 Y122.454 E56.41985
G1 X161.533 Y122.899 E56.51113
G1 X162.209 Y123.179 E56.60239
G1 X162.934 Y123.275 E56.69361
G1 X163.659 Y123.179 E56.78482
G1 X164.335 Y122.899 E56.87609
G1 X164.916 Y122.454 E56.96736
G1 X165.361 Y121.873 E57.05864
G1 X165.641 Y121.197 E57.1499
G1 X165.737 Y120.472 E57.24112
G1 X165.641 Y119.747 E57.33233
G1 X165.361 Y119.071 E57.4236
G1 X164.916 Y118.49 E57.51487
G1 X164.335 Y118.045 E57.60615
G1 X163.659 Y117.765 E57.69741
G1 X162.934 Y117.669 E57.78863
G1 X162.209 Y117.765 E57.87984
G1 X161.533 Y118.045 E57.97111
G1 X160.952 Y118.49 E58.06238
G0 F12000 X160.486 Y118.024
G1 F3000 E48.06238
G0 F12000 X159.897 Y119.659
G0 X159.788 Y120.472
G0 X160.125 Y122.828
G0 X162.934 Y124.153
G0 X165.807 Y122.784
G0 X165.421 Y123.436
G0 X164.406 Y124.552
G0 X159.694 Y128.578
G0 X157.214 Y130.049
G0 X157.15 Y162.51
;TYPE:WALL-INNER
G1 F3000 E58.06238
G1 F720 X156.851 Y162.51 E58.09968
G1 X58.547 Y162.51 E70.36069
G1 X58.546 Y160.31 E70.63509
G1 X58.748 Y160.31 E70.66028
G1 X58.748 Y129.897 E74.45356
G1 X54.142 Y127.169 E75.12125
G1 X51.105 Y124.751 E75.60543
G1 X50.059 Y123.602 E75.79923
G1 X49.322 Y122.488 E75.96583
G1 X48.883 Y121.402 E76.11193
G1 X48.792 Y120.95 E76.16944
G1 X48.754 Y120.445 E76.2326
G1 X48.782 Y119.931 E76.29681
G1 X48.875 Y119.457 E76.35706
G1 X49.324 Y118.328 E76.5086
G1 X50.059 Y117.218 E76.67464
G1 X51.105 Y116.069 E76.86844
G1 X54.142 Y113.651 E77.35263
G1 X58.748 Y110.923 E78.02032
G1 X58.748 Y87.466 E80.946
G1 X58.793 Y87.127 E80.98865
G1 X58.901 Y86.864 E81.02412
G1 X59.076 Y86.636 E81.05996
G1 X59.298 Y86.466 E81.09484
G1 X59.567 Y86.355 E81.13113
G1 X59.905 Y86.31 E81.17366
G1 X155.791 Y86.31 E93.13309
G1 X156.131 Y86.355 E93.17587
G1 X156.393 Y86.463 E93.21122
G1 X156.62 Y86.638 E93.24697
G1 X156.794 Y86.865 E93.28264
G1 X156.902 Y87.127 E93.31798
G1 X156.948 Y87.47 E93.36115
G1 X156.948 Y110.923 E96.28634
G1 X161.553 Y113.651 E96.95391
G1 X164.59 Y116.069 E97.4381
G1 X165.637 Y117.218 E97.63198
G1 X166.373 Y118.329 E97.7982
G1 X166.812 Y119.421 E97.945
G1 X166.903 Y119.87 E98.00214
G1 X166.942 Y120.374 E98.06519
G1 X166.936 Y120.473 E98.07756
G1 X166.935 Y120.505 E98.08153
G1 X166.913 Y120.889 E98.1295
G1 X166.821 Y121.359 E98.1892
G1 X166.742 Y121.559 E98.21528
G1 X166.413 Y122.384 E98.31916
G1 X166.369 Y122.495 E98.33373
G1 X166.218 Y122.724 E98.3674
G1 X165.637 Y123.602 E98.49872
G1 X164.59 Y124.751 E98.6926
G1 X161.553 Y127.169 E99.17679
G1 X156.948 Y129.897 E99.84437
G1 X156.948 Y160.31 E103.63764
G1 X157.149 Y160.31 E103.66271
G1 X157.15 Y162.211 E103.89982
G1 X157.15 Y162.51 E103.92395
G0 F12000 X157.75 Y163.11
;TYPE:WALL-OUTER
G1 F720 X57.947 Y163.11 E116.37193
G1 X57.946 Y159.71 E116.796
G1 X58.148 Y159.71 E116.82119
G1 X58.148 Y130.239 E120.49698
G1 X53.801 Y127.664 E121.12714
G1 X50.692 Y125.189 E121.62279
G1 X49.587 Y123.975 E121.82753
G1 X48.788 Y122.768 E122.00807
G1 X48.306 Y121.574 E122.16867
G1 X48.197 Y121.034 E122.23738
G1 X48.153 Y120.45 E122.31043
G1 X48.185 Y119.855 E122.38475
G1 X48.296 Y119.289 E122.45669
G1 X48.79 Y118.049 E122.62317
G1 X49.587 Y116.845 E122.80326
G1 X50.692 Y115.631 E123.00801
G1 X53.801 Y113.156 E123.50365
G1 X58.148 Y110.581 E124.13381
G1 X58.148 Y87.426 E127.02183
G1 X58.208 Y86.971 E127.07907
G1 X58.376 Y86.563 E127.13411
G1 X58.648 Y86.208 E127.18989
G1 X58.998 Y85.94 E127.24487
G1 X59.41 Y85.77 E127.30046
G1 X59.864 Y85.71 E127.35758
G1 X155.832 Y85.71 E139.32723
G1 X156.285 Y85.77 E139.38423
G1 X156.696 Y85.94 E139.4397
G1 X157.048 Y86.21 E139.49503
G1 X157.319 Y86.563 E139.55054
G1 X157.487 Y86.971 E139.60557
G1 X157.548 Y87.428 E139.66308
G1 X157.548 Y110.581 E142.55085
G1 X161.894 Y113.156 E143.18091
G1 X165.003 Y115.631 E143.67655
G1 X166.109 Y116.845 E143.88138
G1 X166.908 Y118.052 E144.06192
G1 X167.389 Y119.246 E144.22247
G1 X167.498 Y119.786 E144.29118
G1 X167.543 Y120.369 E144.36411
G1 X167.51 Y120.965 E144.43856
G1 X167.399 Y121.531 E144.5105
G1 X166.906 Y122.771 E144.67694
G1 X166.109 Y123.975 E144.85703
G1 X165.003 Y125.189 E145.06186
G1 X161.894 Y127.664 E145.5575
G1 X157.548 Y130.239 E146.18756
G1 X157.548 Y159.71 E149.86335
G1 X157.749 Y159.71 E149.88842
G1 X157.75 Y163.11 E150.31248
G0 F12000 X157.38 Y162.74
G0 X156.94 Y161.92
G0 X156.56 Y161.92
;TYPE:SKIN
G1 F720 X59.137 Y161.92 E162.46362
G1 X59.136 Y160.9 E162.59084
G1 X59.338 Y160.9 E162.61603
G1 X59.338 Y129.561 E166.5248
G1 X54.479 Y126.683 E167.22917
G1 X51.505 Y124.314 E167.70341
G1 X51.418 Y124.219 E167.71947
G1 X52.09 Y124.497 E167.81018
G1 X53.126 Y124.636 E167.94055
G1 X54.162 Y124.497 E168.07093
G1 X55.127 Y124.098 E168.20117
G1 X55.956 Y123.463 E168.33141
G1 X56.592 Y122.633 E168.46183
G1 X56.991 Y121.668 E168.59208
G1 X57.13 Y120.632 E168.72245
G1 X56.991 Y119.596 E168.85282
G1 X56.592 Y118.631 E168.98307
G1 X55.956 Y117.801 E169.11349
G1 X55.127 Y117.166 E169.24373
G1 X54.162 Y116.767 E169.37397
G1 X53.126 Y116.628 E169.50435
G1 X52.09 Y116.767 E169.63472
G1 X51.126 Y117.166 E169.76485
G1 X50.468 Y117.669 E169.86815
G1 X50.528 Y117.579 E169.88164
G1 X51.505 Y116.506 E170.06264
G1 X54.479 Y114.137 E170.53687
G1 X59.338 Y111.259 E171.24124
G1 X59.338 Y87.505 E174.20397
G1 X59.367 Y87.282 E174.23202
G1 X59.418 Y87.158 E174.24874
G1 X59.497 Y87.056 E174.26483
G1 X59.594 Y86.982 E174.28005
G1 X59.723 Y86.929 E174.29745
G1 X59.938 Y86.9 E174.3245
G1 X155.76 Y86.9 E186.27595
G1 X155.975 Y86.929 E186.30301
G1 X156.094 Y86.978 E186.31906
G1 X156.199 Y87.058 E186.33553
G1 X156.28 Y87.163 E186.35207
G1 X156.328 Y87.281 E186.36796
G1 X156.358 Y87.505 E186.39614
G1 X156.358 Y111.259 E189.35887
G1 X161.216 Y114.137 E190.06314
G1 X164.19 Y116.506 E190.53737
G1 X164.472 Y116.815 E190.58955
G1 X163.97 Y116.607 E190.65732
G1 X162.934 Y116.468 E190.78769
G1 X161.898 Y116.607 E190.91807
G1 X160.934 Y117.006 E191.0482
G1 X160.103 Y117.641 E191.17864
G1 X159.468 Y118.472 E191.30908
G1 X159.069 Y119.436 E191.43921
G1 X158.93 Y120.472 E191.56958
G1 X159.069 Y121.508 E191.69996
G1 X159.468 Y122.472 E191.83008
G1 X160.103 Y123.303 E191.96053
G1 X160.934 Y123.938 E192.09097
G1 X161.898 Y124.337 E192.2211
G1 X162.934 Y124.476 E192.35147
G1 X163.97 Y124.337 E192.48184
G1 X164.29 Y124.205 E192.52502
G1 X164.19 Y124.314 E192.54347
G1 X161.216 Y126.683 E193.0177
G1 X156.358 Y129.561 E193.72196
G1 X156.358 Y160.9 E197.63074
G1 X156.559 Y160.9 E197.65581
G1 X156.56 Y161.92 E197.78303
G1 F3000 E187.78303
G0 F12000 X156.94 Y161.92
G0 X156.84 Y129.639
G0 X161.398 Y126.945
G0 X164.406 Y124.552
G0 X165.421 Y123.436
G0 X165.807 Y122.784
G0 X162.934 Y124.153
G0 X159.746 Y122.312
G0 X159.746 Y118.632
G0 X162.934 Y116.791
G0 X166.169 Y118.637
G0 X166.13 Y118.452
G0 X165.424 Y117.386
G0 X164.406 Y116.268
G0 X161.398 Y113.875
G0 X157.246 Y111.419
G0 X156.712 Y87.284
G0 X156.095 Y87.365
G1 F3000 E197.78303
G1 F720 X155.89 Y87.16 E197.81919
G0 F12000 X155.022 Y87.14
G1 F720 X156.117 Y88.234 E198.01224
G0 F12000 X156.117 Y89.083
G1 F720 X154.174 Y87.14 E198.35497
G0 F12000 X153.325 Y87.14
G1 F720 X156.117 Y89.931 E198.84736
G0 F12000 X156.117 Y90.78
G1 F720 X152.476 Y87.14 E199.4895
G0 F12000 X151.628 Y87.14
G1 F720 X156.117 Y91.629 E200.28131
G0 F12000 X156.117 Y92.477
G1 F720 X150.779 Y87.14 E201.22278
G0 F12000 X149.931 Y87.14
G1 F720 X156.117 Y93.326 E202.31392
G0 F12000 X156.117 Y94.174
G1 F720 X149.082 Y87.14 E203.55472
G0 F12000 X148.234 Y87.14
G1 F720 X156.117 Y95.023 E204.94519
G0 F12000 X156.117 Y95.871
G1 F720 X147.385 Y87.14 E206.48533
G0 F12000 X146.537 Y87.14
G1 F720 X156.117 Y96.72 E208.17513
G0 F12000 X156.117 Y97.568
