;FLAVOR:Marlin
;TIME:2940
;Filament used: 7.07427m
;Layer height: 0.4
;MINX:63.2
;MINY:74.2
;MINZ:0.5
;MAXX:171.8
;MAXY:160.8
;MAXZ:4.9
;Generated with Cura_SteamEngine 4.6.1
M140 S80
M105
M190 S80
M104 S245
M105
M109 S245
M82 ;absolute extrusion mode
; Ender 3 Custom Start G-code
G92 E0 ; Reset Extruder
G28 ; Home all axes
G1 Z2.0 F3000 ; Move Z Axis up little to prevent scratching of Heat Bed
G1 X0.1 Y20 Z0.3 F5000.0 ; Move to start position
G1 X0.1 Y200.0 Z0.3 F1500.0 E15 ; Draw the first line
G1 X0.4 Y200.0 Z0.3 F5000.0 ; Move to side a little
G1 X0.4 Y20 Z0.3 F1500.0 E30 ; Draw the second line
G92 E0 ; Reset Extruder
G1 Z2.0 F3000 ; Move Z Axis up little to prevent scratching of Heat Bed
G1 X5 Y20 Z0.3 F5000.0 ; Move over to prevent blob squish
G92 E0
G92 E0
G1 F3000 E-10
;LAYER_COUNT:12
;LAYER:0
M107
G0 F12000 X166.043 Y74.246 Z0.5
;TYPE:SKIRT
G1 F3000 E0
G1 F720 X166.537 Y74.31 E0.06213
G1 X167.112 Y74.424 E0.13524
G1 X167.552 Y74.57 E0.19306
G1 X167.966 Y74.732 E0.24851
G1 X168.496 Y74.982 E0.3216
G1 X168.838 Y75.194 E0.37179
G1 X169.265 Y75.488 E0.43645
G1 X169.724 Y75.853 E0.50959
G1 X170.08 Y76.219 E0.57328
G1 X170.398 Y76.587 E0.63394
G1 X170.75 Y77.055 E0.70698
G1 X171.003 Y77.501 E0.77093
G1 X171.239 Y77.981 E0.83764
G1 X171.461 Y78.523 E0.9107
G1 X171.607 Y79.089 E0.9836
G1 X171.707 Y79.625 E1.05161
G1 X171.773 Y80.176 E1.12082
G1 X171.792 Y80.519 E1.16367
G1 X171.799 Y80.757 E1.19337
G1 X171.8 Y153.793 E10.30282
G1 X171.8 Y153.855 E10.31055
G1 X171.79 Y154.552 E10.3975
G1 X171.755 Y155.035 E10.4579
G1 X171.692 Y155.528 E10.51989
G1 X171.579 Y156.103 E10.59297
G1 X171.431 Y156.552 E10.65194
G1 X171.268 Y156.968 E10.70767
G1 X171.017 Y157.498 E10.78081
G1 X170.806 Y157.838 E10.83072
G1 X170.512 Y158.265 E10.89538
G1 X170.147 Y158.724 E10.96852
G1 X169.781 Y159.08 E11.0322
G1 X169.413 Y159.398 E11.09287
G1 X168.945 Y159.75 E11.16591
G1 X168.499 Y160.003 E11.22986
G1 X168.025 Y160.236 E11.29574
G1 X167.482 Y160.458 E11.3689
G1 X166.931 Y160.601 E11.43991
G1 X166.389 Y160.704 E11.50872
G1 X165.824 Y160.773 E11.57971
G1 X165.481 Y160.792 E11.62256
G1 X165.243 Y160.799 E11.65225
G1 X70.207 Y160.8 E23.50567
G1 X70.145 Y160.8 E23.5134
G1 X69.448 Y160.79 E23.60034
G1 X68.959 Y160.755 E23.66149
G1 X68.464 Y160.691 E23.72374
G1 X67.889 Y160.576 E23.79688
G1 X67.448 Y160.43 E23.85482
G1 X67.034 Y160.268 E23.91027
G1 X66.504 Y160.018 E23.98336
G1 X66.162 Y159.806 E24.03354
G1 X65.735 Y159.512 E24.09821
G1 X65.276 Y159.147 E24.17135
G1 X64.912 Y158.772 E24.23653
G1 X64.583 Y158.389 E24.29951
G1 X64.232 Y157.919 E24.37267
G1 X63.974 Y157.46 E24.43834
G1 X63.749 Y156.995 E24.50277
G1 X63.531 Y156.451 E24.57587
G1 X63.393 Y155.911 E24.64539
G1 X63.293 Y155.375 E24.71339
G1 X63.226 Y154.813 E24.78398
G1 X63.207 Y154.454 E24.82882
G1 X63.201 Y154.227 E24.85715
G1 X63.2 Y81.207 E33.9646
G1 X63.2 Y81.145 E33.97234
G1 X63.21 Y80.447 E34.0594
G1 X63.245 Y79.963 E34.11993
G1 X63.308 Y79.471 E34.18179
G1 X63.422 Y78.896 E34.25491
G1 X63.571 Y78.444 E34.31427
G1 X63.738 Y78.019 E34.37122
G1 X63.989 Y77.49 E34.44425
G1 X64.207 Y77.141 E34.49557
G1 X64.497 Y76.723 E34.55903
G1 X64.863 Y76.265 E34.63215
G1 X65.219 Y75.92 E34.69398
G1 X65.587 Y75.602 E34.75465
G1 X66.055 Y75.25 E34.82768
G1 X66.501 Y74.997 E34.89164
G1 X66.981 Y74.761 E34.95835
G1 X67.523 Y74.539 E35.0314
G1 X68.089 Y74.393 E35.10431
G1 X68.625 Y74.293 E35.17232
G1 X69.176 Y74.227 E35.24153
G1 X69.519 Y74.208 E35.28438
G1 X69.757 Y74.201 E35.31408
G1 X164.793 Y74.2 E47.16749
G1 X164.855 Y74.2 E47.17522
G1 X165.553 Y74.21 E47.26229
G1 X166.043 Y74.246 E47.32357
G1 F3000 E37.32357
;MESH:lid.obj
G0 F12000 X75.066 Y84.385
G0 X76.685 Y83.45
G0 X74.659 Y82.543
G0 X74 Y82.454
G0 X73.467 Y82.526
G0 X72.014 Y83.014
;TYPE:WALL-INNER
G1 F3000 E47.32357
G1 F720 X71.569 Y83.597 E47.41505
G1 X71.289 Y84.273 E47.50631
G1 X71.192 Y85 E47.59779
G1 X71.289 Y85.727 E47.68926
G1 X71.569 Y86.403 E47.78053
G1 X72.014 Y86.986 E47.872
G1 X72.597 Y87.431 E47.96348
G1 X73.273 Y87.711 E48.05474
G1 X74 Y87.808 E48.14622
G1 X74.727 Y87.711 E48.2377
G1 X75.403 Y87.431 E48.32896
G1 X75.986 Y86.986 E48.42044
G1 X76.431 Y86.403 E48.51191
G1 X76.711 Y85.727 E48.60317
G1 X76.808 Y85 E48.69465
G1 X76.711 Y84.273 E48.78613
G1 X76.431 Y83.597 E48.87739
G1 X75.986 Y83.014 E48.96887
G1 X75.403 Y82.569 E49.06035
G1 X74.727 Y82.289 E49.15161
G1 X74 Y82.192 E49.24309
G1 X73.273 Y82.289 E49.33457
G1 X72.597 Y82.569 E49.42583
G1 X72.014 Y83.014 E49.5173
G0 F12000 X72.442 Y83.442
;TYPE:WALL-OUTER
G1 F720 X72.093 Y83.899 E49.58902
G1 X71.873 Y84.43 E49.66071
G1 X71.797 Y85 E49.73243
G1 X71.873 Y85.57 E49.80416
G1 X72.093 Y86.101 E49.87585
G1 X72.442 Y86.558 E49.94757
G1 X72.899 Y86.907 E50.01929
G1 X73.43 Y87.127 E50.09097
G1 X74 Y87.203 E50.1627
G1 X74.57 Y87.127 E50.23442
G1 X75.101 Y86.907 E50.30611
G1 X75.558 Y86.558 E50.37783
G1 X75.907 Y86.101 E50.44955
G1 X76.127 Y85.57 E50.52124
G1 X76.203 Y85 E50.59296
G1 X76.127 Y84.43 E50.66468
G1 X75.907 Y83.899 E50.73637
G1 X75.558 Y83.442 E50.80809
G1 X75.101 Y83.093 E50.87981
G1 X74.57 Y82.873 E50.9515
G1 X74 Y82.797 E51.02322
G1 X73.43 Y82.873 E51.09494
G1 X72.899 Y83.093 E51.16663
G1 X72.442 Y83.442 E51.23835
G0 F12000 X71.976 Y82.976
G1 F3000 E41.23835
G0 F12000 X71.543 Y84.341
G0 X71.454 Y85
G0 X71.534 Y85.593
G0 X72.45 Y87.685
G0 X73.385 Y86.066
G0 X74 Y148.771
G0 X74 Y146.899
G0 X72.014 Y148.014
;TYPE:WALL-INNER
G1 F3000 E51.23835
G1 F720 X71.569 Y148.597 E51.32983
G1 X71.289 Y149.273 E51.42109
G1 X71.192 Y150 E51.51257
G1 X71.289 Y150.727 E51.60405
G1 X71.569 Y151.403 E51.69531
G1 X72.014 Y151.986 E51.78679
G1 X72.597 Y152.431 E51.87826
G1 X73.273 Y152.711 E51.96952
G1 X74 Y152.808 E52.061
G1 X74.727 Y152.711 E52.15248
G1 X75.403 Y152.431 E52.24374
G1 X75.986 Y151.986 E52.33522
G1 X76.431 Y151.403 E52.4267
G1 X76.711 Y150.727 E52.51796
G1 X76.808 Y150 E52.60944
G1 X76.711 Y149.273 E52.70092
G1 X76.431 Y148.597 E52.79218
G1 X75.986 Y148.014 E52.88365
G1 X75.403 Y147.569 E52.97513
G1 X74.727 Y147.289 E53.06639
G1 X74 Y147.192 E53.15787
G1 X73.273 Y147.289 E53.24935
G1 X72.597 Y147.569 E53.34061
G1 X72.014 Y148.014 E53.43209
G0 F12000 X72.442 Y148.442
;TYPE:WALL-OUTER
G1 F720 X72.093 Y148.899 E53.50381
G1 X71.873 Y149.43 E53.5755
G1 X71.797 Y150 E53.64722
G1 X71.873 Y150.57 E53.71894
G1 X72.093 Y151.101 E53.79063
G1 X72.442 Y151.558 E53.86235
G1 X72.899 Y151.907 E53.93407
G1 X73.43 Y152.127 E54.00576
G1 X74 Y152.203 E54.07748
G1 X74.57 Y152.127 E54.1492
G1 X75.101 Y151.907 E54.22089
G1 X75.558 Y151.558 E54.29261
G1 X75.907 Y151.101 E54.36433
G1 X76.127 Y150.57 E54.43602
G1 X76.203 Y150 E54.50774
G1 X76.127 Y149.43 E54.57947
G1 X75.907 Y148.899 E54.65115
G1 X75.558 Y148.442 E54.72287
G1 X75.101 Y148.093 E54.79459
G1 X74.57 Y147.873 E54.86628
G1 X74 Y147.797 E54.93801
G1 X73.43 Y147.873 E55.00973
G1 X72.899 Y148.093 E55.08142
G1 X72.442 Y148.442 E55.15314
G0 F12000 X71.976 Y147.976
G1 F3000 E45.15314
G0 F12000 X73.341 Y147.543
G0 X74 Y147.454
G0 X74.659 Y147.543
G0 X75.209 Y147.771
G0 X76.994 Y149.197
G0 X75.187 Y149.678
G0 X159.813 Y149.678
G0 X158.006 Y149.197
G0 X159.014 Y148.014
;TYPE:WALL-INNER
G1 F3000 E55.15314
G1 F720 X158.569 Y148.597 E55.24461
G1 X158.289 Y149.273 E55.33587
G1 X158.192 Y150 E55.42735
G1 X158.289 Y150.727 E55.51883
G1 X158.569 Y151.403 E55.61009
G1 X159.014 Y151.986 E55.70157
G1 X159.597 Y152.431 E55.79305
G1 X160.273 Y152.711 E55.88431
G1 X161 Y152.808 E55.97579
G1 X161.727 Y152.711 E56.06727
G1 X162.403 Y152.431 E56.15853
G1 X162.986 Y151.986 E56.25
G1 X163.431 Y151.403 E56.34148
G1 X163.711 Y150.727 E56.43274
G1 X163.808 Y150 E56.52422
G1 X163.711 Y149.273 E56.6157
G1 X163.431 Y148.597 E56.70696
G1 X162.986 Y148.014 E56.79844
G1 X162.403 Y147.569 E56.88991
G1 X161.727 Y147.289 E56.98118
G1 X161 Y147.192 E57.07265
G1 X160.273 Y147.289 E57.16413
G1 X159.597 Y147.569 E57.25539
G1 X159.014 Y148.014 E57.34687
G0 F12000 X159.442 Y148.442
;TYPE:WALL-OUTER
G1 F720 X159.093 Y148.899 E57.41859
G1 X158.873 Y149.43 E57.49028
G1 X158.797 Y150 E57.562
G1 X158.873 Y150.57 E57.63372
G1 X159.093 Y151.101 E57.70541
G1 X159.442 Y151.558 E57.77713
G1 X159.899 Y151.907 E57.84885
G1 X160.43 Y152.127 E57.92054
G1 X161 Y152.203 E57.99226
G1 X161.57 Y152.127 E58.06399
G1 X162.101 Y151.907 E58.13568
G1 X162.558 Y151.558 E58.2074
G1 X162.907 Y151.101 E58.27912
G1 X163.127 Y150.57 E58.3508
G1 X163.203 Y150 E58.42253
G1 X163.127 Y149.43 E58.49425
G1 X162.907 Y148.899 E58.56594
G1 X162.558 Y148.442 E58.63766
G1 X162.101 Y148.093 E58.70938
G1 X161.57 Y147.873 E58.78107
G1 X161 Y147.797 E58.85279
G1 X160.43 Y147.873 E58.92451
G1 X159.899 Y148.093 E58.9962
G1 X159.442 Y148.442 E59.06792
G0 F12000 X158.976 Y147.976
G1 F3000 E49.06792
G0 F12000 X160.197 Y147.006
G0 X160.678 Y148.813
G0 X160.678 Y86.187
G0 X160.197 Y87.994
G0 X158.797 Y86.271
G0 X158.543 Y85.659
G0 X158.454 Y85
G0 X158.526 Y84.467
G0 X159.014 Y83.014
;TYPE:WALL-INNER
G1 F3000 E59.06792
G1 F720 X158.569 Y83.597 E59.1594
G1 X158.289 Y84.273 E59.25066
G1 X158.192 Y85 E59.34214
G1 X158.289 Y85.727 E59.43362
G1 X158.569 Y86.403 E59.52488
G1 X159.014 Y86.986 E59.61635
G1 X159.597 Y87.431 E59.70783
G1 X160.273 Y87.711 E59.79909
G1 X161 Y87.808 E59.89057
G1 X161.727 Y87.711 E59.98205
G1 X162.403 Y87.431 E60.07331
G1 X162.986 Y86.986 E60.16479
G1 X163.431 Y86.403 E60.25626
G1 X163.711 Y85.727 E60.34752
G1 X163.808 Y85 E60.439
G1 X163.711 Y84.273 E60.53048
G1 X163.431 Y83.597 E60.62174
G1 X162.986 Y83.014 E60.71322
G1 X162.403 Y82.569 E60.8047
G1 X161.727 Y82.289 E60.89596
G1 X161 Y82.192 E60.98744
G1 X160.273 Y82.289 E61.07892
G1 X159.597 Y82.569 E61.17018
G1 X159.014 Y83.014 E61.26165
G0 F12000 X159.442 Y83.442
;TYPE:WALL-OUTER
G1 F720 X159.093 Y83.899 E61.33337
G1 X158.873 Y84.43 E61.40506
G1 X158.797 Y85 E61.47679
G1 X158.873 Y85.57 E61.54851
G1 X159.093 Y86.101 E61.6202
G1 X159.442 Y86.558 E61.69192
G1 X159.899 Y86.907 E61.76364
G1 X160.43 Y87.127 E61.83533
G1 X161 Y87.203 E61.90705
G1 X161.57 Y87.127 E61.97877
G1 X162.101 Y86.907 E62.05046
G1 X162.558 Y86.558 E62.12218
G1 X162.907 Y86.101 E62.1939
G1 X163.127 Y85.57 E62.26559
G1 X163.203 Y85 E62.33731
G1 X163.127 Y84.43 E62.40903
G1 X162.907 Y83.899 E62.48072
G1 X162.558 Y83.442 E62.55244
G1 X162.101 Y83.093 E62.62416
G1 X161.57 Y82.873 E62.69585
G1 X161 Y82.797 E62.76757
G1 X160.43 Y82.873 E62.83929
G1 X159.899 Y83.093 E62.91098
G1 X159.442 Y83.442 E62.9827
G0 F12000 X158.976 Y82.976
G1 F3000 E52.9827
G0 F12000 X160.341 Y82.543
G0 X162.55 Y82.315
G0 X162.55 Y79.71
G0 X166.048 Y79.555
;TYPE:WALL-INNER
G1 F3000 E62.9827
G1 F720 X166.272 Y79.728 E63.018
G1 X166.445 Y79.952 E63.0533
G1 X166.555 Y80.219 E63.08932
G1 X166.6 Y80.557 E63.13185
G1 X166.6 Y154.443 E72.34732
G1 X166.555 Y154.781 E72.38985
G1 X166.445 Y155.048 E72.42587
G1 X166.272 Y155.272 E72.46117
G1 X166.048 Y155.445 E72.49647
G1 X165.781 Y155.555 E72.53249
G1 X165.443 Y155.6 E72.57501
G1 X69.557 Y155.6 E84.53444
G1 X69.219 Y155.555 E84.57697
G1 X68.952 Y155.445 E84.61299
G1 X68.728 Y155.272 E84.64829
G1 X68.555 Y155.048 E84.68359
G1 X68.445 Y154.781 E84.71961
G1 X68.4 Y154.443 E84.76214
G1 X68.4 Y80.557 E93.97761
G1 X68.445 Y80.219 E94.02014
G1 X68.555 Y79.952 E94.05615
G1 X68.728 Y79.728 E94.09145
G1 X68.952 Y79.555 E94.12676
G1 X69.219 Y79.445 E94.16277
G1 X69.557 Y79.4 E94.2053
G1 X165.443 Y79.4 E106.16473
G1 X165.781 Y79.445 E106.20726
G1 X166.048 Y79.555 E106.24328
G0 F12000 X166.348 Y79.029
;TYPE:WALL-OUTER
G1 F720 X166.7 Y79.3 E106.29869
G1 X166.971 Y79.652 E106.35409
G1 X167.14 Y80.062 E106.4094
G1 X167.2 Y80.516 E106.46652
G1 X167.2 Y154.484 E115.69222
G1 X167.14 Y154.938 E115.74934
G1 X166.971 Y155.348 E115.80465
G1 X166.7 Y155.7 E115.86006
G1 X166.348 Y155.971 E115.91546
G1 X165.938 Y156.14 E115.97077
G1 X165.484 Y156.2 E116.02789
G1 X69.516 Y156.2 E127.99755
G1 X69.062 Y156.14 E128.05467
G1 X68.652 Y155.971 E128.10998
G1 X68.3 Y155.7 E128.16539
G1 X68.029 Y155.348 E128.22079
G1 X67.86 Y154.938 E128.2761
G1 X67.8 Y154.484 E128.33322
G1 X67.8 Y80.516 E137.55892
G1 X67.86 Y80.062 E137.61604
G1 X68.029 Y79.652 E137.67135
G1 X68.3 Y79.3 E137.72676
G1 X68.652 Y79.029 E137.78216
G1 X69.062 Y78.86 E137.83747
G1 X69.516 Y78.8 E137.89459
G1 X165.484 Y78.8 E149.86425
G1 X165.938 Y78.86 E149.92137
G1 X166.348 Y79.029 E149.97668
G0 F12000 X166.019 Y79.6
G0 X165.753 Y80.071
;TYPE:SKIN
G1 F720 X165.852 Y80.148 E149.99232
G1 X165.929 Y80.247 E150.00796
G1 X165.981 Y80.375 E150.0252
G1 X166.01 Y80.59 E150.05226
G1 X166.01 Y154.41 E159.25949
G1 X165.981 Y154.625 E159.28655
G1 X165.929 Y154.753 E159.30378
G1 X165.852 Y154.852 E159.31943
G1 X165.753 Y154.929 E159.33507
G1 X165.625 Y154.981 E159.3523
G1 X165.41 Y155.01 E159.37936
G1 X69.59 Y155.01 E171.33056
G1 X69.375 Y154.981 E171.35762
G1 X69.247 Y154.929 E171.37485
G1 X69.148 Y154.852 E171.39049
G1 X69.071 Y154.753 E171.40613
G1 X69.019 Y154.625 E171.42337
G1 X68.99 Y154.41 E171.45043
G1 X68.99 Y80.59 E180.65766
G1 X69.019 Y80.375 E180.68472
G1 X69.071 Y80.247 E180.70195
G1 X69.148 Y80.148 E180.7176
G1 X69.247 Y80.071 E180.73324
G1 X69.375 Y80.019 E180.75047
G1 X69.59 Y79.99 E180.77753
G1 X165.41 Y79.99 E192.72873
G1 X165.625 Y80.019 E192.75579
G1 X165.753 Y80.071 E192.77302
G1 F3000 E182.77302
G0 F12000 X165.986 Y79.772
G0 X163.135 Y79.71
G0 X162.127 Y82.14
G0 X163.135 Y82.863
G0 X163.407 Y82.593
G1 F3000 E192.77302
G1 F720 X162.7 Y82.054 E192.8839
G1 X161.882 Y81.715 E192.99434
G1 X161 Y81.596 E193.10535
G1 X160.118 Y81.715 E193.21635
G1 X159.3 Y82.054 E193.32679
G1 X158.593 Y82.593 E193.43768
G1 X158.054 Y83.3 E193.54856
G1 X157.715 Y84.118 E193.659
G1 X157.596 Y85 E193.77001
G1 X157.715 Y85.882 E193.88101
G1 X158.054 Y86.7 E193.99145
G1 X158.593 Y87.407 E194.10233
G1 X159.3 Y87.946 E194.21322
G1 X160.118 Y88.285 E194.32366
G1 X161 Y88.404 E194.43466
G1 X161.882 Y88.285 E194.54567
G1 X162.7 Y87.946 E194.65611
G1 X163.407 Y87.407 E194.76699
G1 X163.946 Y86.7 E194.87788
G1 X164.285 Y85.882 E194.98832
G1 X164.404 Y85 E195.09932
G1 X164.285 Y84.118 E195.21033
G1 X163.946 Y83.3 E195.32077
G1 X163.407 Y82.593 E195.43165
G1 F3000 E185.43165
G0 F12000 X163.135 Y82.863
G0 X163.546 Y85
G0 X163.457 Y85.659
G0 X163.229 Y86.209
G0 X161.803 Y87.994
G0 X161.322 Y86.187
G0 X161 Y148.771
G0 X161 Y146.899
G0 X160.999 Y146.98
G0 X161 Y146.596
G1 F3000 E195.43165
G1 F720 X160.118 Y146.715 E195.54265
G1 X159.3 Y147.054 E195.65309
G1 X158.593 Y147.593 E195.76398
G1 X158.054 Y148.3 E195.87486
G1 X157.715 Y149.118 E195.9853
G1 X157.596 Y150 E196.09631
G1 X157.715 Y150.882 E196.20731
G1 X158.054 Y151.7 E196.31775
G1 X158.593 Y152.407 E196.42864
G1 X159.3 Y152.946 E196.53952
G1 X160.118 Y153.285 E196.64996
G1 X161 Y153.404 E196.76097
G1 X161.882 Y153.285 E196.87197
G1 X162.7 Y152.946 E196.98241
G1 X163.407 Y152.407 E197.09329
G1 X163.946 Y151.7 E197.20418
G1 X164.285 Y150.882 E197.31462
G1 X164.404 Y150 E197.42562
G1 X164.285 Y149.118 E197.53663
G1 X163.946 Y148.3 E197.64707
G1 X163.407 Y147.593 E197.75795
G1 X162.7 Y147.054 E197.86884
G1 X161.882 Y146.715 E197.97928
G1 X161 Y146.596 E198.09028
G1 F3000 E188.09028
G0 F12000 X160.999 Y146.98
G0 X158.807 Y147.807
G0 X160.13 Y149.13
G0 X75.187 Y149.678
G0 X76.994 Y149.197
G0 X76.135 Y147.863
G0 X76.407 Y147.593
G1 F3000 E198.09028
G1 F720 X75.7 Y147.054 E198.20117
G1 X74.882 Y146.715 E198.31161
G1 X74 Y146.596 E198.42261
G1 X73.118 Y146.715 E198.53361
G1 X72.3 Y147.054 E198.64405
G1 X71.593 Y147.593 E198.75494
G1 X71.054 Y148.3 E198.86582
G1 X70.715 Y149.118 E198.97626
G1 X70.596 Y150 E199.08727
G1 X70.715 Y150.882 E199.19827
G1 X71.054 Y151.7 E199.30871
G1 X71.593 Y152.407 E199.4196
G1 X72.3 Y152.946 E199.53048
G1 X73.118 Y153.285 E199.64092
G1 X74 Y153.404 E199.75193
G1 X74.882 Y153.285 E199.86293
G1 X75.7 Y152.946 E199.97337
G1 X76.407 Y152.407 E200.08425
G1 X76.946 Y151.7 E200.19514
G1 X77.285 Y150.882 E200.30558
G1 X77.404 Y150 E200.41658
G1 X77.285 Y149.118 E200.52759
G1 X76.946 Y148.3 E200.63803
G1 X76.407 Y147.593 E200.74891
G1 F3000 E190.74891
G0 F12000 X76.135 Y147.863
G0 X75.55 Y147.315
G0 X74.615 Y148.934
G0 X75.066 Y85.615
G0 X76.685 Y86.55
G0 X77.02 Y84.999
G0 X77.404 Y85
