;FLAVOR:Marlin
;TIME:12175
;Filament used: 28.0991m
;Layer height: 0.4
;MINX:15.423
;MINY:34.416
;MINZ:0.5
;MAXX:226.378
;MAXY:203.953
;MAXZ:4.9
;Generated with Cura_SteamEngine 4.6.1
M140 S80
M105
M190 S80
M104 S245
M105
M109 S245
M82 ;absolute extrusion mode
; Ender 3 Custom Start G-code
G92 E0 ; Reset Extruder
G28 ; Home all axes
G1 Z2.0 F3000 ; Move Z Axis up little to prevent scratching of Heat Bed
G1 X0.1 Y20 Z0.3 F5000.0 ; Move to start position
G1 X0.1 Y200.0 Z0.3 F1500.0 E15 ; Draw the first line
G1 X0.4 Y200.0 Z0.3 F5000.0 ; Move to side a little
G1 X0.4 Y20 Z0.3 F1500.0 E30 ; Draw the second line
G92 E0 ; Reset Extruder
G1 Z2.0 F3000 ; Move Z Axis up little to prevent scratching of Heat Bed
G1 X5 Y20 Z0.3 F5000.0 ; Move over to prevent blob squish
G92 E0
G92 E0
G1 F3000 E-10
;LAYER_COUNT:12
;LAYER:0
M107
G0 F12000 X116.735 Y34.427 Z0.5
;TYPE:SKIRT
G1 F3000 E0
G1 F720 X117.175 Y34.456 E0.055
G1 X118.911 Y34.66 E0.27301
G1 X121.598 Y34.905 E0.60954
G1 X124.294 Y35.076 E0.94647
G1 X126.978 Y35.169 E1.28144
G1 X129.011 Y35.19 E1.53502
G1 X220.411 Y35.191 E12.93493
G1 X220.474 Y35.191 E12.94279
G1 X221.086 Y35.2 E13.01913
G1 X221.587 Y35.237 E13.08179
G1 X221.897 Y35.278 E13.12079
G1 X222.508 Y35.405 E13.19862
G1 X222.67 Y35.451 E13.21963
G1 X223.221 Y35.649 E13.29265
G1 X223.741 Y35.92 E13.36579
G1 X223.989 Y36.084 E13.40287
G1 X224.18 Y36.22 E13.43212
G1 X224.633 Y36.592 E13.50523
G1 X224.937 Y36.909 E13.56001
G1 X225.175 Y37.184 E13.60537
G1 X225.528 Y37.652 E13.67849
G1 X225.813 Y38.164 E13.75157
G1 X225.988 Y38.594 E13.80948
G1 X226.12 Y38.976 E13.85988
G1 X226.273 Y39.541 E13.93289
G1 X226.354 Y40.238 E14.02041
G1 X226.378 Y41.048 E14.12148
G1 X226.376 Y47.108 E14.87732
G1 X226.375 Y113.742 E23.18828
G1 X226.375 Y113.803 E23.19589
G1 X226.365 Y114.504 E23.28333
G1 X226.354 Y114.752 E23.31429
G1 X226.334 Y115.029 E23.34893
G1 X226.129 Y117.437 E23.65036
G1 X225.978 Y120.122 E23.98577
G1 X225.903 Y122.812 E24.32142
G1 X225.898 Y131.357 E25.38719
G1 X225.897 Y197.957 E33.69391
G1 X225.897 Y198.016 E33.70127
G1 X225.887 Y198.744 E33.79208
G1 X225.839 Y199.328 E33.86517
G1 X225.73 Y199.837 E33.93009
G1 X225.646 Y200.139 E33.96919
G1 X225.52 Y200.529 E34.02031
G1 X225.293 Y201.069 E34.09337
G1 X224.995 Y201.573 E34.1664
G1 X224.709 Y201.943 E34.22472
G1 X224.453 Y202.24 E34.27363
G1 X224.041 Y202.657 E34.34674
G1 X223.437 Y203.103 E34.44039
G1 X223.211 Y203.241 E34.47342
G1 X222.691 Y203.512 E34.54655
G1 X222.139 Y203.709 E34.61965
G1 X221.851 Y203.78 E34.65665
G1 X221.507 Y203.852 E34.70049
G1 X220.69 Y203.943 E34.80302
G1 X219.952 Y203.953 E34.89507
G1 X125.347 Y203.952 E46.69473
G1 X125.288 Y203.952 E46.70209
G1 X124.433 Y203.938 E46.80874
G1 X123.983 Y203.919 E46.86492
G1 X121.275 Y203.842 E47.20281
G1 X118.543 Y203.842 E47.54356
G1 X117.496 Y203.871 E47.6742
G1 X116.047 Y203.889 E47.85494
G1 X21.442 Y203.888 E59.6546
G1 X21.379 Y203.888 E59.66246
G1 X20.694 Y203.878 E59.7479
G1 X20.11 Y203.829 E59.821
G1 X19.599 Y203.719 E59.88619
G1 X19.013 Y203.552 E59.96219
G1 X18.466 Y203.343 E60.03523
G1 X17.952 Y203.062 E60.10829
G1 X17.295 Y202.545 E60.21256
G1 X16.959 Y202.223 E60.27061
G1 X16.564 Y201.789 E60.3438
G1 X16.232 Y201.306 E60.4169
G1 X15.969 Y200.782 E60.49003
G1 X15.821 Y200.373 E60.54428
G1 X15.687 Y199.934 E60.60153
G1 X15.555 Y199.363 E60.67463
G1 X15.501 Y198.763 E60.74976
G1 X15.481 Y197.706 E60.88162
G1 X15.477 Y192.05 E61.58707
G1 X15.478 Y125.337 E69.90788
G1 X15.478 Y125.276 E69.91549
G1 X15.492 Y124.447 E70.0189
G1 X15.524 Y123.699 E70.11228
G1 X15.601 Y121.003 E70.44868
G1 X15.601 Y118.307 E70.78494
G1 X15.479 Y114.584 E71.24954
G1 X15.451 Y114.004 E71.32197
G1 X15.427 Y112.749 E71.47853
G1 X15.423 Y107.093 E72.18397
G1 X15.424 Y40.364 E80.50678
G1 X15.424 Y40.301 E80.51464
G1 X15.434 Y39.622 E80.59934
G1 X15.483 Y39.038 E80.67243
G1 X15.591 Y38.532 E80.73697
G1 X15.677 Y38.223 E80.77697
G1 X15.884 Y37.644 E80.85366
G1 X15.965 Y37.46 E80.87874
G1 X16.238 Y36.94 E80.95199
G1 X16.65 Y36.377 E81.03901
G1 X16.876 Y36.116 E81.08207
G1 X17.289 Y35.7 E81.15518
G1 X17.562 Y35.48 E81.19891
G1 X17.71 Y35.37 E81.22191
G1 X18.203 Y35.053 E81.29501
G1 X18.735 Y34.806 E81.36817
G1 X19.151 Y34.671 E81.42272
G1 X19.354 Y34.616 E81.44895
G1 X19.688 Y34.539 E81.4917
G1 X19.902 Y34.499 E81.51886
G1 X20.628 Y34.426 E81.60986
G1 X21.369 Y34.416 E81.70229
G1 X115.974 Y34.417 E93.50195
G1 X116.735 Y34.427 E93.59688
G1 F3000 E83.59688
;MESH:lid.obj(1)
G0 F12000 X114.629 Y42.756
G0 X116.135 Y41.64
G0 X116.077 Y42.902
G0 X116.184 Y43.106
G0 X116.323 Y44.178
G0 X116.469 Y46.333
G0 X116.435 Y107.238
G0 X113.32 Y104.916
;TYPE:WALL-INNER
G1 F3000 E93.59688
G1 F720 X112.187 Y104.769 E93.73937
G1 X112.004 Y104.789 E93.76233
G1 X111.047 Y104.915 E93.88273
G1 X110.873 Y104.984 E93.90607
G1 X109.984 Y105.354 E94.02617
G1 X109.835 Y105.466 E94.04942
G1 X109.074 Y106.052 E94.16922
G1 X108.957 Y106.196 E94.19236
G1 X108.368 Y106.967 E94.31337
G1 X108.294 Y107.136 E94.33639
G1 X107.924 Y108.034 E94.45752
G1 X107.776 Y109.168 E94.60016
G1 X107.796 Y109.351 E94.62312
G1 X107.923 Y110.307 E94.74341
G1 X107.992 Y110.48 E94.76664
G1 X108.361 Y111.37 E94.88681
G1 X108.473 Y111.52 E94.91015
G1 X109.059 Y112.28 E95.02985
G1 X109.203 Y112.397 E95.05299
G1 X109.974 Y112.986 E95.17401
G1 X110.143 Y113.06 E95.19702
G1 X110.348 Y113.145 E95.2247
G1 X111.041 Y113.431 E95.3182
G1 X112.175 Y113.579 E95.46084
G1 X112.358 Y113.559 E95.4838
G1 X113.314 Y113.432 E95.60409
G1 X113.488 Y113.363 E95.62743
G1 X114.02 Y113.142 E95.69929
G1 X114.378 Y112.993 E95.74765
G1 X114.527 Y112.881 E95.7709
G1 X115.286 Y112.296 E95.89042
G1 X115.403 Y112.153 E95.91347
G1 X115.993 Y111.381 E96.03465
G1 X116.067 Y111.212 E96.05767
G1 X116.151 Y111.008 E96.08518
G1 X116.438 Y110.313 E96.17897
G1 X116.586 Y109.18 E96.32148
G1 X116.566 Y108.997 E96.34444
G1 X116.439 Y108.04 E96.46485
G1 X116.37 Y107.866 E96.4882
G1 X116.149 Y107.335 E96.55993
G1 X116 Y106.977 E96.6083
G1 X115.888 Y106.828 E96.63155
G1 X115.303 Y106.068 E96.75117
G1 X115.16 Y105.951 E96.77421
G1 X114.388 Y105.361 E96.8954
G1 X114.219 Y105.287 E96.91841
G1 X113.32 Y104.916 E97.03971
G0 F12000 X113.164 Y105.501
;TYPE:WALL-OUTER
G1 F720 X112.182 Y105.373 E97.16323
G1 X112.077 Y105.385 E97.17641
G1 X111.2 Y105.5 E97.28673
G1 X111.1 Y105.54 E97.30016
G1 X110.283 Y105.88 E97.41054
G1 X110.197 Y105.944 E97.42391
G1 X109.496 Y106.484 E97.53427
G1 X109.429 Y106.567 E97.54758
G1 X108.889 Y107.273 E97.65844
G1 X108.847 Y107.37 E97.67162
G1 X108.509 Y108.19 E97.78225
G1 X108.38 Y109.173 E97.9059
G1 X108.392 Y109.278 E97.91908
G1 X108.508 Y110.154 E98.0293
G1 X108.548 Y110.254 E98.04273
G1 X108.887 Y111.072 E98.15317
G1 X108.951 Y111.158 E98.16654
G1 X109.491 Y111.858 E98.27681
G1 X109.574 Y111.925 E98.29011
G1 X110.28 Y112.465 E98.40097
G1 X110.377 Y112.507 E98.41416
G1 X111.197 Y112.846 E98.52483
G1 X112.18 Y112.975 E98.64848
G1 X112.285 Y112.963 E98.66167
G1 X113.161 Y112.847 E98.77188
G1 X113.261 Y112.807 E98.78531
G1 X114.079 Y112.467 E98.8958
G1 X114.165 Y112.403 E98.90917
G1 X114.865 Y111.863 E99.01944
G1 X114.932 Y111.781 E99.03265
G1 X115.472 Y111.075 E99.14351
G1 X115.514 Y110.978 E99.15669
G1 X115.853 Y110.157 E99.26748
G1 X115.982 Y109.175 E99.39101
G1 X115.97 Y109.07 E99.40419
G1 X115.854 Y108.193 E99.51453
G1 X115.814 Y108.093 E99.52796
G1 X115.474 Y107.276 E99.63833
G1 X115.41 Y107.19 E99.6517
G1 X114.87 Y106.489 E99.76207
G1 X114.788 Y106.422 E99.77528
G1 X114.082 Y105.882 E99.88614
G1 X113.985 Y105.84 E99.89932
G1 X113.164 Y105.501 E100.01011
G0 F12000 X113.334 Y104.864
G1 F3000 E90.01011
G0 F12000 X116.435 Y107.238
G0 X116.436 Y46.108
G0 X116.307 Y44.029
G0 X116.129 Y42.965
G0 X115.68 Y41.985
G0 X115.067 Y41.239
G0 X113.32 Y39.916
;TYPE:WALL-INNER
G1 F3000 E100.01011
G1 F720 X112.187 Y39.769 E100.15261
G1 X112.004 Y39.789 E100.17557
G1 X111.047 Y39.915 E100.29596
G1 X110.873 Y39.984 E100.31931
G1 X110.339 Y40.206 E100.39143
G1 X109.984 Y40.354 E100.43941
G1 X109.835 Y40.466 E100.46266
G1 X109.074 Y41.052 E100.58245
G1 X108.957 Y41.196 E100.60559
G1 X108.368 Y41.967 E100.72661
G1 X108.294 Y42.136 E100.74962
G1 X107.924 Y43.034 E100.87076
G1 X107.776 Y44.168 E101.01339
G1 X107.796 Y44.351 E101.03635
G1 X107.923 Y45.307 E101.15664
G1 X107.992 Y45.48 E101.17987
G1 X108.361 Y46.37 E101.30004
G1 X108.473 Y46.52 E101.32339
G1 X109.059 Y47.28 E101.44308
G1 X109.203 Y47.397 E101.46623
G1 X109.974 Y47.986 E101.58724
G1 X110.143 Y48.06 E101.61025
G1 X111.041 Y48.431 E101.73144
G1 X112.175 Y48.579 E101.87407
G1 X112.358 Y48.559 E101.89703
G1 X113.314 Y48.432 E102.01732
G1 X113.488 Y48.363 E102.04067
G1 X114.378 Y47.993 E102.16088
G1 X114.527 Y47.881 E102.18413
G1 X115.286 Y47.296 E102.30365
G1 X115.403 Y47.153 E102.3267
G1 X115.993 Y46.381 E102.44789
G1 X116.067 Y46.212 E102.4709
G1 X116.152 Y46.007 E102.49858
G1 X116.438 Y45.313 E102.5922
G1 X116.586 Y44.18 E102.73471
G1 X116.566 Y43.997 E102.75767
G1 X116.439 Y43.04 E102.87808
G1 X116.37 Y42.866 E102.90143
G1 X116.151 Y42.34 E102.97249
G1 X116 Y41.977 E103.02153
G1 X115.888 Y41.828 E103.04478
G1 X115.303 Y41.068 E103.1644
G1 X115.16 Y40.951 E103.18744
G1 X114.388 Y40.361 E103.30863
G1 X114.219 Y40.287 E103.33164
G1 X114.017 Y40.203 E103.35893
G1 X113.32 Y39.916 E103.45294
G0 F12000 X113.164 Y40.501
;TYPE:WALL-OUTER
G1 F720 X112.182 Y40.373 E103.57646
G1 X112.077 Y40.385 E103.58964
G1 X111.2 Y40.5 E103.69996
G1 X111.1 Y40.54 E103.7134
G1 X110.283 Y40.88 E103.82377
G1 X110.197 Y40.944 E103.83714
G1 X109.496 Y41.484 E103.94751
G1 X109.429 Y41.567 E103.96081
G1 X108.889 Y42.273 E104.07167
G1 X108.847 Y42.37 E104.08485
G1 X108.509 Y43.19 E104.19548
G1 X108.38 Y44.173 E104.31913
G1 X108.392 Y44.278 E104.33232
G1 X108.508 Y45.154 E104.44253
G1 X108.548 Y45.254 E104.45596
G1 X108.887 Y46.072 E104.5664
G1 X108.951 Y46.158 E104.57977
G1 X109.491 Y46.858 E104.69004
G1 X109.574 Y46.925 E104.70334
G1 X110.28 Y47.465 E104.81421
G1 X110.377 Y47.507 E104.82739
G1 X111.197 Y47.846 E104.93806
G1 X112.18 Y47.975 E105.06172
G1 X112.285 Y47.963 E105.0749
G1 X113.161 Y47.847 E105.18511
G1 X113.261 Y47.807 E105.19854
G1 X114.079 Y47.467 E105.30903
G1 X114.165 Y47.403 E105.3224
G1 X114.865 Y46.863 E105.43267
G1 X114.932 Y46.781 E105.44588
G1 X115.472 Y46.075 E105.55674
G1 X115.514 Y45.978 E105.56992
G1 X115.853 Y45.157 E105.68071
G1 X115.982 Y44.175 E105.80424
G1 X115.97 Y44.07 E105.81742
G1 X115.854 Y43.193 E105.92776
G1 X115.814 Y43.093 E105.94119
G1 X115.474 Y42.276 E106.05156
G1 X115.41 Y42.19 E106.06494
G1 X114.87 Y41.489 E106.1753
G1 X114.788 Y41.422 E106.18851
G1 X114.082 Y40.882 E106.29937
G1 X113.985 Y40.84 E106.31255
G1 X113.164 Y40.501 E106.42334
G0 F12000 X113.334 Y39.864
G1 F3000 E96.42334
G0 F12000 X26.32 Y39.916
;TYPE:WALL-INNER
G1 F3000 E106.42334
G1 F720 X25.187 Y39.769 E106.56584
G1 X25.004 Y39.789 E106.5888
G1 X24.047 Y39.915 E106.70919
G1 X23.873 Y39.984 E106.73254
G1 X23.339 Y40.206 E106.80467
G1 X22.984 Y40.354 E106.85264
G1 X22.835 Y40.466 E106.87589
G1 X22.074 Y41.052 E106.99568
G1 X21.957 Y41.196 E107.01882
G1 X21.368 Y41.967 E107.13984
G1 X21.294 Y42.136 E107.16285
G1 X21.21 Y42.338 E107.19013
G1 X20.924 Y43.034 E107.28399
G1 X20.776 Y44.168 E107.42663
G1 X20.796 Y44.351 E107.44959
G1 X20.923 Y45.307 E107.56987
G1 X20.992 Y45.48 E107.5931
G1 X21.213 Y46.013 E107.66507
G1 X21.361 Y46.37 E107.71327
G1 X21.473 Y46.52 E107.73662
G1 X22.059 Y47.28 E107.85632
G1 X22.203 Y47.397 E107.87946
G1 X22.974 Y47.986 E108.00047
G1 X23.143 Y48.06 E108.02348
G1 X24.041 Y48.431 E108.14467
G1 X25.175 Y48.579 E108.28731
G1 X25.358 Y48.559 E108.31027
G1 X26.314 Y48.432 E108.43055
G1 X26.488 Y48.363 E108.4539
G1 X27.378 Y47.993 E108.57411
G1 X27.527 Y47.881 E108.59736
G1 X28.286 Y47.296 E108.71689
G1 X28.403 Y47.153 E108.73993
G1 X28.993 Y46.381 E108.86112
G1 X29.067 Y46.212 E108.88413
G1 X29.438 Y45.313 E109.00543
G1 X29.586 Y44.18 E109.14794
G1 X29.566 Y43.997 E109.17091
G1 X29.439 Y43.04 E109.29131
G1 X29.37 Y42.866 E109.31466
G1 X29 Y41.977 E109.43476
G1 X28.888 Y41.828 E109.45801
G1 X28.303 Y41.068 E109.57763
G1 X28.16 Y40.951 E109.60068
G1 X27.388 Y40.361 E109.72186
G1 X27.219 Y40.287 E109.74488
G1 X27.017 Y40.203 E109.77216
G1 X26.32 Y39.916 E109.86618
G0 F12000 X26.164 Y40.501
;TYPE:WALL-OUTER
G1 F720 X25.182 Y40.373 E109.98969
G1 X25.077 Y40.385 E110.00287
G1 X24.2 Y40.5 E110.1132
G1 X24.1 Y40.54 E110.12663
G1 X23.283 Y40.88 E110.237
G1 X23.197 Y40.944 E110.25037
G1 X22.496 Y41.484 E110.36074
G1 X22.429 Y41.567 E110.37404
G1 X21.889 Y42.273 E110.4849
G1 X21.847 Y42.37 E110.49809
G1 X21.509 Y43.19 E110.60871
G1 X21.38 Y44.173 E110.73237
G1 X21.392 Y44.278 E110.74555
G1 X21.508 Y45.154 E110.85576
G1 X21.548 Y45.254 E110.86919
G1 X21.887 Y46.072 E110.97963
G1 X21.951 Y46.158 E110.993
G1 X22.491 Y46.858 E111.10327
G1 X22.574 Y46.925 E111.11658
G1 X23.28 Y47.465 E111.22744
G1 X23.377 Y47.507 E111.24062
G1 X24.197 Y47.846 E111.35129
G1 X25.18 Y47.975 E111.47495
G1 X25.285 Y47.963 E111.48813
G1 X26.161 Y47.847 E111.59834
G1 X26.261 Y47.807 E111.61178
G1 X27.079 Y47.467 E111.72226
G1 X27.165 Y47.403 E111.73563
G1 X27.865 Y46.863 E111.8459
G1 X27.932 Y46.781 E111.85911
G1 X28.472 Y46.075 E111.96997
G1 X28.514 Y45.978 E111.98315
G1 X28.853 Y45.157 E112.09394
G1 X28.982 Y44.175 E112.21747
G1 X28.97 Y44.07 E112.23065
G1 X28.854 Y43.193 E112.34099
G1 X28.814 Y43.093 E112.35442
G1 X28.474 Y42.276 E112.4648
G1 X28.41 Y42.19 E112.47817
G1 X27.87 Y41.489 E112.58853
G1 X27.788 Y41.422 E112.60174
G1 X27.082 Y40.882 E112.7126
G1 X26.985 Y40.84 E112.72579
G1 X26.164 Y40.501 E112.83657
G0 F12000 X26.334 Y39.864
G1 F3000 E102.83657
G0 F12000 X28.115 Y41.252
G0 X28.771 Y42.108
G0 X29.184 Y43.106
G0 X29.323 Y44.178
G0 X29.183 Y45.245
G0 X28.767 Y46.248
G0 X28.103 Y47.107
G0 X26.331 Y48.701
G0 X22.035 Y47.61
G0 X20.927 Y46.111
G0 X20.926 Y107.238
G0 X23.397 Y105.143
G0 X26.32 Y104.916
;TYPE:WALL-INNER
G1 F3000 E112.83657
G1 F720 X25.187 Y104.769 E112.97907
G1 X25.004 Y104.789 E113.00203
G1 X24.047 Y104.915 E113.12242
G1 X23.873 Y104.984 E113.14577
G1 X22.984 Y105.354 E113.26587
G1 X22.835 Y105.466 E113.28912
G1 X22.074 Y106.052 E113.40891
G1 X21.957 Y106.196 E113.43206
G1 X21.368 Y106.967 E113.55307
G1 X21.294 Y107.136 E113.57608
G1 X21.21 Y107.338 E113.60337
G1 X20.924 Y108.034 E113.69722
G1 X20.776 Y109.168 E113.83986
G1 X20.796 Y109.351 E113.86282
G1 X20.923 Y110.307 E113.9831
G1 X20.992 Y110.48 E114.00633
G1 X21.218 Y111.025 E114.07992
G1 X21.361 Y111.37 E114.1265
G1 X21.473 Y111.52 E114.14985
G1 X22.059 Y112.28 E114.26955
G1 X22.203 Y112.397 E114.29269
G1 X22.974 Y112.986 E114.4137
G1 X23.143 Y113.06 E114.43671
G1 X23.347 Y113.145 E114.46428
G1 X24.041 Y113.431 E114.5579
G1 X25.175 Y113.579 E114.70054
G1 X25.358 Y113.559 E114.7235
G1 X26.314 Y113.432 E114.84378
G1 X26.488 Y113.363 E114.86713
G1 X27.02 Y113.142 E114.93898
G1 X27.378 Y112.993 E114.98735
G1 X27.527 Y112.881 E115.0106
G1 X28.286 Y112.296 E115.13012
G1 X28.403 Y112.153 E115.15316
G1 X28.993 Y111.381 E115.27435
G1 X29.067 Y111.212 E115.29736
G1 X29.438 Y110.313 E115.41866
G1 X29.586 Y109.18 E115.56118
G1 X29.566 Y108.997 E115.58414
G1 X29.439 Y108.04 E115.70455
G1 X29.37 Y107.866 E115.72789
G1 X29 Y106.977 E115.84799
G1 X28.888 Y106.828 E115.87124
G1 X28.303 Y106.068 E115.99086
G1 X28.16 Y105.951 E116.01391
G1 X27.388 Y105.361 E116.1351
G1 X27.219 Y105.287 E116.15811
G1 X26.32 Y104.916 E116.27941
G0 F12000 X26.164 Y105.501
;TYPE:WALL-OUTER
G1 F720 X25.182 Y105.373 E116.40293
G1 X25.077 Y105.385 E116.41611
G1 X24.2 Y105.5 E116.52643
G1 X24.1 Y105.54 E116.53986
G1 X23.283 Y105.88 E116.65023
G1 X23.197 Y105.944 E116.6636
G1 X22.496 Y106.484 E116.77397
G1 X22.429 Y106.567 E116.78727
G1 X21.889 Y107.273 E116.89814
G1 X21.847 Y107.37 E116.91132
G1 X21.509 Y108.19 E117.02194
G1 X21.38 Y109.173 E117.1456
G1 X21.392 Y109.278 E117.15878
G1 X21.508 Y110.154 E117.26899
G1 X21.548 Y110.254 E117.28243
G1 X21.887 Y111.072 E117.39287
G1 X21.951 Y111.158 E117.40624
G1 X22.491 Y111.858 E117.5165
G1 X22.574 Y111.925 E117.52981
G1 X23.28 Y112.465 E117.64067
G1 X23.377 Y112.507 E117.65385
G1 X24.197 Y112.846 E117.76452
