;FLAVOR:Marlin
;TIME:11881
;Filament used: 28.2009m
;Layer height: 0.4
;MINX:14.381
;MINY:33.374
;MINZ:0.5
;MAXX:227.418
;MAXY:204.995
;MAXZ:4.9
;Generated with Cura_SteamEngine 4.6.1
M140 S80
M105
M190 S80
M104 S245
M105
M109 S245
M82 ;absolute extrusion mode
; Ender 3 Custom Start G-code
G92 E0 ; Reset Extruder
G28 ; Home all axes
G1 Z2.0 F3000 ; Move Z Axis up little to prevent scratching of Heat Bed
G1 X0.1 Y20 Z0.3 F5000.0 ; Move to start position
G1 X0.1 Y200.0 Z0.3 F1500.0 E15 ; Draw the first line
G1 X0.4 Y200.0 Z0.3 F5000.0 ; Move to side a little
G1 X0.4 Y20 Z0.3 F1500.0 E30 ; Draw the second line
G92 E0 ; Reset Extruder
G1 Z2.0 F3000 ; Move Z Axis up little to prevent scratching of Heat Bed
G1 X5 Y20 Z0.3 F5000.0 ; Move over to prevent blob squish
G92 E0
G92 E0
G1 F3000 E-10
;LAYER_COUNT:12
;LAYER:0
M107
G0 F12000 X117.13 Y33.408 Z0.5
;TYPE:SKIRT
G1 F3000 E0
G1 F720 X120.116 Y33.728 E0.37456
G1 X122.796 Y33.942 E0.70989
G1 X125.48 Y34.08 E1.0451
G1 X129.098 Y34.148 E1.49643
G1 X220.473 Y34.148 E12.89323
G1 X221.171 Y34.158 E12.98029
G1 X221.658 Y34.193 E13.04119
G1 X222.155 Y34.257 E13.10369
G1 X222.73 Y34.372 E13.17683
G1 X223.178 Y34.52 E13.23568
G1 X223.565 Y34.672 E13.28754
G1 X224.095 Y34.923 E13.36068
G1 X224.386 Y35.101 E13.40322
G1 X224.825 Y35.395 E13.46912
G1 X225.288 Y35.754 E13.5422
G1 X225.671 Y36.14 E13.61002
G1 X226.001 Y36.518 E13.6726
G1 X226.356 Y36.985 E13.74577
G1 X226.621 Y37.449 E13.81242
G1 X226.857 Y37.929 E13.87913
G1 X227.079 Y38.471 E13.95218
G1 X227.225 Y39.037 E14.02509
G1 X227.325 Y39.573 E14.09309
G1 X227.391 Y40.124 E14.16231
G1 X227.41 Y40.467 E14.20515
G1 X227.417 Y40.705 E14.23485
G1 X227.418 Y113.741 E23.3443
G1 X227.418 Y113.803 E23.35204
G1 X227.408 Y114.5 E23.43898
G1 X227.398 Y114.735 E23.46832
G1 X227.377 Y115.02 E23.50396
G1 X227.177 Y117.373 E23.7985
G1 X227.021 Y120.099 E24.13906
G1 X226.945 Y122.79 E24.47483
G1 X226.939 Y125.106 E24.76369
G1 X226.94 Y197.988 E33.85393
G1 X226.94 Y198.05 E33.86167
G1 X226.93 Y198.744 E33.94824
G1 X226.896 Y199.221 E34.00788
G1 X226.833 Y199.72 E34.07061
G1 X226.72 Y200.295 E34.1437
G1 X226.57 Y200.751 E34.20358
G1 X226.421 Y201.131 E34.25448
G1 X226.171 Y201.661 E34.32757
G1 X225.998 Y201.943 E34.36884
G1 X225.7 Y202.391 E34.43595
G1 X225.343 Y202.855 E34.50897
G1 X224.948 Y203.248 E34.57846
G1 X224.57 Y203.578 E34.64105
G1 X224.103 Y203.933 E34.71421
G1 X223.602 Y204.216 E34.78598
G1 X223.062 Y204.475 E34.86068
G1 X222.517 Y204.692 E34.93385
G1 X221.914 Y204.839 E35.01126
G1 X221.503 Y204.908 E35.06324
G1 X221.075 Y204.958 E35.11698
G1 X220.682 Y204.984 E35.16611
G1 X220.438 Y204.993 E35.19656
G1 X220.222 Y204.995 E35.2235
G1 X125.287 Y204.995 E47.06432
G1 X124.449 Y204.981 E47.16885
G1 X123.952 Y204.96 E47.2309
G1 X121.238 Y204.882 E47.56954
G1 X118.522 Y204.882 E47.9083
G1 X116.442 Y204.93 E48.16779
G1 X21.442 Y204.931 E60.01672
G1 X21.38 Y204.931 E60.02445
G1 X20.683 Y204.921 E60.11139
G1 X20.194 Y204.886 E60.17254
G1 X19.699 Y204.822 E60.23479
G1 X19.124 Y204.707 E60.30793
G1 X18.683 Y204.561 E60.36587
G1 X18.269 Y204.399 E60.42132
G1 X17.739 Y204.149 E60.49441
G1 X17.397 Y203.937 E60.5446
G1 X16.97 Y203.643 E60.60926
G1 X16.511 Y203.278 E60.6824
G1 X16.147 Y202.903 E60.74758
G1 X15.818 Y202.52 E60.81056
G1 X15.467 Y202.05 E60.88372
G1 X15.209 Y201.591 E60.94939
G1 X14.984 Y201.126 E61.01382
G1 X14.766 Y200.582 E61.08692
G1 X14.628 Y200.042 E61.15644
G1 X14.528 Y199.506 E61.22444
G1 X14.461 Y198.944 E61.29504
G1 X14.442 Y198.585 E61.33987
G1 X14.436 Y198.358 E61.3682
G1 X14.435 Y125.338 E70.47565
G1 X14.435 Y125.277 E70.48326
G1 X14.449 Y124.446 E70.58692
G1 X14.481 Y123.696 E70.68055
G1 X14.558 Y120.999 E71.01707
G1 X14.558 Y118.272 E71.3572
G1 X14.482 Y115.568 E71.69459
G1 X14.391 Y113.756 E71.92088
G1 X14.381 Y113.209 E71.98912
G1 X14.381 Y40.319 E81.08036
G1 X14.391 Y39.621 E81.16743
G1 X14.426 Y39.137 E81.22795
G1 X14.489 Y38.645 E81.28982
G1 X14.603 Y38.07 E81.36293
G1 X14.752 Y37.618 E81.42229
G1 X14.919 Y37.193 E81.47924
G1 X15.17 Y36.664 E81.55227
G1 X15.373 Y36.337 E81.60028
G1 X15.642 Y35.944 E81.65968
G1 X16.005 Y35.484 E81.73276
G1 X16.375 Y35.122 E81.79733
G1 X16.815 Y34.741 E81.86992
G1 X17.283 Y34.389 E81.94296
G1 X17.828 Y34.088 E82.02061
G1 X18.244 Y33.896 E82.07776
G1 X18.792 Y33.687 E82.15091
G1 X19.231 Y33.578 E82.20733
G1 X19.78 Y33.472 E82.27707
G1 X20.357 Y33.401 E82.34958
G1 X20.7 Y33.382 E82.39242
G1 X20.938 Y33.375 E82.42212
G1 X115.974 Y33.374 E94.27553
G1 X116.036 Y33.374 E94.28327
G1 X116.734 Y33.384 E94.37033
G1 X117.13 Y33.408 E94.41982
G1 F3000 E84.41982
;MESH:lid.obj(1)
G0 F12000 X111.567 Y108.107
G0 X110.631 Y106.488
G0 X109.373 Y109.174
;TYPE:WALL-INNER
G1 F3000 E94.41982
G1 F720 X109.47 Y109.9 E94.51117
G1 X109.749 Y110.577 E94.6025
G1 X110.195 Y111.159 E94.69395
G1 X110.778 Y111.605 E94.78551
G1 X111.454 Y111.885 E94.87677
G1 X112.181 Y111.982 E94.96825
G1 X112.908 Y111.885 E95.05973
G1 X113.585 Y111.605 E95.1511
G1 X114.166 Y111.159 E95.24246
G1 X114.612 Y110.577 E95.33391
G1 X114.892 Y109.9 E95.42529
G1 X114.989 Y109.174 E95.51664
G1 X114.892 Y108.447 E95.60812
G1 X114.612 Y107.771 E95.69938
G1 X114.166 Y107.188 E95.79093
G1 X113.585 Y106.742 E95.88229
G1 X112.908 Y106.461 E95.97371
G1 X112.181 Y106.366 E96.06516
G1 X111.454 Y106.461 E96.1566
G1 X110.778 Y106.742 E96.24791
G1 X110.195 Y107.188 E96.33947
G1 X109.749 Y107.771 E96.43102
G1 X109.47 Y108.447 E96.52223
G1 X109.373 Y109.174 E96.61371
G0 F12000 X109.978 Y109.174
;TYPE:WALL-OUTER
G1 F720 X110.054 Y109.743 E96.68531
G1 X110.273 Y110.275 E96.75707
G1 X110.623 Y110.731 E96.82876
G1 X111.08 Y111.081 E96.90056
G1 X111.611 Y111.301 E96.97225
G1 X112.181 Y111.377 E97.04397
G1 X112.751 Y111.301 E97.11569
G1 X113.282 Y111.081 E97.18738
G1 X113.738 Y110.731 E97.25908
G1 X114.088 Y110.275 E97.33077
G1 X114.308 Y109.743 E97.40258
G1 X114.384 Y109.174 E97.47418
G1 X114.308 Y108.604 E97.5459
G1 X114.088 Y108.073 E97.61759
G1 X113.738 Y107.616 E97.68938
G1 X113.282 Y107.266 E97.76108
G1 X112.751 Y107.046 E97.83277
G1 X112.181 Y106.971 E97.90448
G1 X111.611 Y107.046 E97.97618
G1 X111.08 Y107.266 E98.04787
G1 X110.623 Y107.616 E98.11967
G1 X110.273 Y108.073 E98.19146
G1 X110.054 Y108.604 E98.2631
G1 X109.978 Y109.174 E98.33483
G0 F12000 X109.318 Y109.174
G1 F3000 E88.33483
G0 F12000 X110.631 Y106.488
G0 X111.567 Y108.107
G0 X111.566 Y45.24
G0 X110.631 Y46.859
G0 X109.373 Y44.174
;TYPE:WALL-INNER
G1 F3000 E98.33483
G1 F720 X109.47 Y44.9 E98.42618
G1 X109.749 Y45.577 E98.51751
G1 X110.195 Y46.159 E98.60896
G1 X110.778 Y46.605 E98.70052
G1 X111.454 Y46.885 E98.79178
G1 X112.181 Y46.982 E98.88326
G1 X112.908 Y46.885 E98.97473
G1 X113.585 Y46.605 E99.06611
G1 X114.166 Y46.159 E99.15747
G1 X114.612 Y45.577 E99.24892
G1 X114.892 Y44.9 E99.3403
G1 X114.989 Y44.174 E99.43165
G1 X114.892 Y43.447 E99.52313
G1 X114.612 Y42.771 E99.61439
G1 X114.166 Y42.188 E99.70594
G1 X113.585 Y41.742 E99.7973
G1 X112.908 Y41.461 E99.88872
G1 X112.181 Y41.366 E99.98017
G1 X111.454 Y41.461 E100.07161
G1 X110.778 Y41.742 E100.16292
G1 X110.195 Y42.188 E100.25448
G1 X109.749 Y42.771 E100.34603
G1 X109.47 Y43.447 E100.43724
G1 X109.373 Y44.174 E100.52872
G0 F12000 X109.978 Y44.174
;TYPE:WALL-OUTER
G1 F720 X110.054 Y44.743 E100.60032
G1 X110.273 Y45.275 E100.67208
G1 X110.623 Y45.731 E100.74377
G1 X111.08 Y46.081 E100.81557
G1 X111.611 Y46.301 E100.88726
G1 X112.181 Y46.377 E100.95898
G1 X112.751 Y46.301 E101.0307
G1 X113.282 Y46.081 E101.10239
G1 X113.738 Y45.731 E101.17409
G1 X114.088 Y45.275 E101.24578
G1 X114.308 Y44.743 E101.31759
G1 X114.384 Y44.174 E101.38919
G1 X114.308 Y43.604 E101.46091
G1 X114.088 Y43.073 E101.5326
G1 X113.738 Y42.616 E101.60439
G1 X113.282 Y42.266 E101.67609
G1 X112.751 Y42.046 E101.74778
G1 X112.181 Y41.971 E101.81949
G1 X111.611 Y42.046 E101.89119
G1 X111.08 Y42.266 E101.96288
G1 X110.623 Y42.616 E102.03468
G1 X110.273 Y43.073 E102.10647
G1 X110.054 Y43.604 E102.17811
G1 X109.978 Y44.174 E102.24984
G0 F12000 X109.318 Y44.174
G1 F3000 E92.24984
G0 F12000 X109.08 Y44.174
G0 X110.952 Y44.174
G0 X26.41 Y44.174
G0 X28.282 Y44.174
G0 X26.98 Y45.973
G0 X26.452 Y46.377
G0 X25.84 Y46.631
G0 X25.181 Y46.72
G0 X24.522 Y46.631
G0 X23.91 Y46.377
G0 X23.381 Y45.973
G0 X23.055 Y45.546
G0 X22.373 Y44.174
;TYPE:WALL-INNER
G1 F3000 E102.24984
G1 F720 X22.47 Y44.9 E102.34119
G1 X22.749 Y45.577 E102.43252
G1 X23.195 Y46.159 E102.52397
G1 X23.778 Y46.605 E102.61553
G1 X24.454 Y46.885 E102.70679
G1 X25.181 Y46.982 E102.79827
G1 X25.908 Y46.885 E102.88974
G1 X26.585 Y46.605 E102.98112
G1 X27.166 Y46.159 E103.07248
G1 X27.612 Y45.577 E103.16393
G1 X27.892 Y44.9 E103.2553
G1 X27.989 Y44.174 E103.34666
G1 X27.892 Y43.447 E103.43814
G1 X27.612 Y42.771 E103.5294
G1 X27.166 Y42.188 E103.62095
G1 X26.585 Y41.742 E103.71231
G1 X25.908 Y41.461 E103.80373
G1 X25.181 Y41.366 E103.89518
G1 X24.454 Y41.461 E103.98662
G1 X23.778 Y41.742 E104.07793
G1 X23.195 Y42.188 E104.16949
G1 X22.749 Y42.771 E104.26104
G1 X22.47 Y43.447 E104.35225
G1 X22.373 Y44.174 E104.44373
G0 F12000 X22.978 Y44.174
;TYPE:WALL-OUTER
G1 F720 X23.054 Y44.743 E104.51533
G1 X23.273 Y45.275 E104.58709
G1 X23.623 Y45.731 E104.65878
G1 X24.08 Y46.081 E104.73058
G1 X24.611 Y46.301 E104.80227
G1 X25.181 Y46.377 E104.87399
G1 X25.751 Y46.301 E104.94571
G1 X26.282 Y46.081 E105.0174
G1 X26.738 Y45.731 E105.0891
G1 X27.088 Y45.275 E105.16079
G1 X27.308 Y44.743 E105.2326
G1 X27.384 Y44.174 E105.3042
G1 X27.308 Y43.604 E105.37592
G1 X27.088 Y43.073 E105.44761
G1 X26.738 Y42.616 E105.5194
G1 X26.282 Y42.266 E105.5911
G1 X25.751 Y42.046 E105.66279
G1 X25.181 Y41.971 E105.73449
G1 X24.611 Y42.046 E105.8062
G1 X24.08 Y42.266 E105.87789
G1 X23.623 Y42.616 E105.94969
G1 X23.273 Y43.073 E106.02148
G1 X23.054 Y43.604 E106.09312
G1 X22.978 Y44.174 E106.16484
G0 F12000 X22.318 Y44.174
G1 F3000 E96.16484
G0 F12000 X22.988 Y46.366
G0 X24.312 Y45.045
G0 X24.311 Y108.304
G0 X22.988 Y106.981
G0 X22.373 Y109.174
;TYPE:WALL-INNER
G1 F3000 E106.16484
G1 F720 X22.47 Y109.9 E106.2562
G1 X22.749 Y110.577 E106.34753
G1 X23.195 Y111.159 E106.43898
G1 X23.778 Y111.605 E106.53053
G1 X24.454 Y111.885 E106.6218
G1 X25.181 Y111.982 E106.71327
G1 X25.908 Y111.885 E106.80475
G1 X26.585 Y111.605 E106.89613
G1 X27.166 Y111.159 E106.98748
G1 X27.612 Y110.577 E107.07894
G1 X27.892 Y109.9 E107.17031
G1 X27.989 Y109.174 E107.26167
G1 X27.892 Y108.447 E107.35315
G1 X27.612 Y107.771 E107.44441
G1 X27.166 Y107.188 E107.53596
G1 X26.585 Y106.742 E107.62732
G1 X25.908 Y106.461 E107.71874
G1 X25.181 Y106.366 E107.81019
G1 X24.454 Y106.461 E107.90163
G1 X23.778 Y106.742 E107.99294
G1 X23.195 Y107.188 E108.0845
G1 X22.749 Y107.771 E108.17605
G1 X22.47 Y108.447 E108.26726
G1 X22.373 Y109.174 E108.35874
G0 F12000 X22.978 Y109.174
;TYPE:WALL-OUTER
G1 F720 X23.054 Y109.743 E108.43034
G1 X23.273 Y110.275 E108.5021
G1 X23.623 Y110.731 E108.57379
G1 X24.08 Y111.081 E108.64559
G1 X24.611 Y111.301 E108.71728
G1 X25.181 Y111.377 E108.789
G1 X25.751 Y111.301 E108.86072
G1 X26.282 Y111.081 E108.93241
G1 X26.738 Y110.731 E109.00411
G1 X27.088 Y110.275 E109.0758
G1 X27.308 Y109.743 E109.14761
G1 X27.384 Y109.174 E109.21921
G1 X27.308 Y108.604 E109.29093
G1 X27.088 Y108.073 E109.36262
G1 X26.738 Y107.616 E109.43441
G1 X26.282 Y107.266 E109.50611
G1 X25.751 Y107.046 E109.5778
G1 X25.181 Y106.971 E109.6495
G1 X24.611 Y107.046 E109.72121
G1 X24.08 Y107.266 E109.7929
G1 X23.623 Y107.616 E109.8647
G1 X23.273 Y108.073 E109.93649
G1 X23.054 Y108.604 E110.00813
G1 X22.978 Y109.174 E110.07985
G0 F12000 X22.318 Y109.174
G1 F3000 E100.07985
G0 F12000 X22.988 Y111.366
G0 X22.988 Y114.464
G0 X20.133 Y114.619
;TYPE:WALL-INNER
G1 F3000 E110.07985
G1 F720 X19.91 Y114.447 E110.11498
G1 X19.734 Y114.219 E110.1509
G1 X19.626 Y113.957 E110.18625
G1 X19.581 Y113.617 E110.22903
G1 X19.581 Y39.731 E119.4445
G1 X19.626 Y39.393 E119.48702
G1 X19.735 Y39.127 E119.52288
G1 X19.909 Y38.901 E119.55845
G1 X20.134 Y38.729 E119.59378
G1 X20.4 Y38.619 E119.62968
G1 X20.738 Y38.574 E119.67221
G1 X116.624 Y38.574 E131.63164
G1 X116.963 Y38.619 E131.67429
G1 X117.229 Y38.729 E131.71019
G1 X117.452 Y38.9 E131.74524
G1 X117.627 Y39.127 E131.78099
G1 X117.736 Y39.393 E131.81685
G1 X117.781 Y39.731 E131.85938
G1 X117.781 Y113.617 E141.07484
G1 X117.736 Y113.957 E141.11762
G1 X117.628 Y114.219 E141.15297
G1 X117.453 Y114.446 E141.18872
G1 X117.226 Y114.621 E141.22447
G1 X116.964 Y114.729 E141.25981
G1 X116.624 Y114.774 E141.30259
G1 X20.738 Y114.774 E153.26202
G1 X20.4 Y114.729 E153.30455
G1 X20.133 Y114.619 E153.34056
G0 F12000 X19.833 Y115.145
;TYPE:WALL-OUTER
G1 F720 X19.481 Y114.874 E153.39597
G1 X19.211 Y114.522 E153.4513
G1 X19.041 Y114.111 E153.50678
G1 X18.981 Y113.658 E153.56377
G1 X18.981 Y39.69 E162.78947
G1 X19.041 Y39.236 E162.84659
G1 X19.211 Y38.824 E162.90217
G1 X19.481 Y38.473 E162.95741
G1 X19.831 Y38.204 E163.01247
G1 X20.243 Y38.034 E163.06805
G1 X20.697 Y37.974 E163.12517
G1 X116.665 Y37.974 E175.09483
G1 X117.118 Y38.034 E175.15182
G1 X117.531 Y38.205 E175.20758
G1 X117.881 Y38.473 E175.26256
G1 X118.151 Y38.824 E175.31779
G1 X118.321 Y39.236 E175.37338
G1 X118.381 Y39.69 E175.4305
G1 X118.381 Y113.658 E184.65619
G1 X118.321 Y114.111 E184.71319
G1 X118.151 Y114.522 E184.76866
G1 X117.881 Y114.874 E184.82399
G1 X117.529 Y115.144 E184.87933
G1 X117.118 Y115.314 E184.9348
G1 X116.665 Y115.374 E184.99179
G1 X20.697 Y115.374 E196.96145
G1 X20.243 Y115.314 E197.01857
G1 X19.833 Y115.145 E197.07388
G0 F12000 X20.162 Y114.574
G0 X20.434 Y114.105
;TYPE:SKIN
G1 F720 X20.326 Y114.022 E197.09087
G1 X20.25 Y113.924 E197.10634
G1 X20.2 Y113.801 E197.1229
G1 X20.171 Y113.586 E197.14996
G1 X20.171 Y39.765 E206.35732
G1 X20.2 Y39.551 E206.38425
G1 X20.253 Y39.42 E206.40188
G1 X20.327 Y39.324 E206.417
G1 X20.431 Y39.245 E206.43329
G1 X20.557 Y39.193 E206.45029
G1 X20.772 Y39.164 E206.47735
G1 X116.591 Y39.164 E218.42842
G1 X116.806 Y39.193 E218.45548
G1 X116.933 Y39.245 E218.47259
G1 X117.03 Y39.319 E218.48781
G1 X117.111 Y39.425 E218.50445
G1 X117.162 Y39.55 E218.52129
G1 X117.191 Y39.765 E218.54835
G1 X117.191 Y113.586 E227.75571
G1 X117.162 Y113.801 E227.78277
G1 X117.113 Y113.92 E227.79882
G1 X117.032 Y114.025 E227.81536
G1 X116.927 Y114.106 E227.8319
G1 X116.808 Y114.155 E227.84795
G1 X116.593 Y114.184 E227.87501
G1 X20.771 Y114.184 E239.82646
G1 X20.556 Y114.155 E239.85352
G1 X20.434 Y114.105 E239.86996
G1 F3000 E229.86996
G0 F12000 X20.288 Y114.455
G0 X20.754 Y114.503
G0 X23.046 Y114.464
G0 X24.054 Y112.034
G0 X23.046 Y111.31
G0 X22.774 Y111.58
G1 F3000 E239.86996
G1 F720 X23.481 Y112.12 E239.98092
G1 X24.299 Y112.459 E240.09136
G1 X25.181 Y112.578 E240.20237
G1 X26.062 Y112.459 E240.31325
G1 X26.882 Y112.12 E240.42392
G1 X27.587 Y111.58 E240.53468
G1 X28.127 Y110.874 E240.64554
G1 X28.466 Y110.055 E240.7561
G1 X28.585 Y109.174 E240.86698
G1 X28.466 Y108.292 E240.97798
G1 X28.127 Y107.474 E241.08842
G1 X27.587 Y106.767 E241.19938
G1 X26.882 Y106.227 E241.31014
G1 X26.062 Y105.886 E241.42091
G1 X25.181 Y105.77 E241.53174
G1 X24.3 Y105.886 E241.64257
G1 X23.481 Y106.227 E241.75322
G1 X22.774 Y106.767 E241.86418
G1 X22.233 Y107.474 E241.97522
G1 X21.896 Y108.293 E242.08568
G1 X21.777 Y109.174 E242.19656
G1 X21.896 Y110.054 E242.30732
G1 X22.233 Y110.874 E242.41789
G1 X22.774 Y111.58 E242.52883
G1 F3000 E232.52883
G0 F12000 X23.046 Y111.31
G0 X22.635 Y109.174
G0 X22.724 Y108.516
G0 X22.951 Y107.965
G0 X24.378 Y106.178
G0 X24.859 Y107.986
G0 X25.181 Y45.403
G0 X25.181 Y47.275
G0 X25.182 Y47.194
G0 X25.181 Y47.578
G1 F3000 E242.52883
G1 F720 X26.062 Y47.459 E242.63971
G1 X26.882 Y47.12 E242.75038
G1 X27.587 Y46.58 E242.86114
G1 X28.127 Y45.874 E242.972
G1 X28.466 Y45.055 E243.08256
G1 X28.585 Y44.174 E243.19344
G1 X28.466 Y43.292 E243.30444
G1 X28.127 Y42.474 E243.41488
G1 X27.587 Y41.767 E243.52584
G1 X26.882 Y41.227 E243.63661
G1 X26.062 Y40.886 E243.74737
G1 X25.181 Y40.77 E243.8582
G1 X24.3 Y40.886 E243.96903
G1 X23.481 Y41.227 E244.07969
G1 X22.774 Y41.767 E244.19065
G1 X22.233 Y42.474 E244.30168
G1 X21.896 Y43.293 E244.41214
G1 X21.777 Y44.174 E244.52302
G1 X21.896 Y45.054 E244.63378
