;FLAVOR:Marlin
;TIME:3013
;Filament used: 7.04806m
;Layer height: 0.4
;MINX:64.985
;MINY:96.959
;MINZ:0.5
;MAXX:171.503
;MAXY:181.475
;MAXZ:4.9
;Generated with Cura_SteamEngine 4.6.1
M140 S80
M105
M190 S80
M104 S245
M105
M109 S245
M82 ;absolute extrusion mode
; Ender 3 Custom Start G-code
G92 E0 ; Reset Extruder
G28 ; Home all axes
G1 Z2.0 F3000 ; Move Z Axis up little to prevent scratching of Heat Bed
G1 X0.1 Y20 Z0.3 F5000.0 ; Move to start position
G1 X0.1 Y200.0 Z0.3 F1500.0 E15 ; Draw the first line
G1 X0.4 Y200.0 Z0.3 F5000.0 ; Move to side a little
G1 X0.4 Y20 Z0.3 F1500.0 E30 ; Draw the second line
G92 E0 ; Reset Extruder
G1 Z2.0 F3000 ; Move Z Axis up little to prevent scratching of Heat Bed
G1 X5 Y20 Z0.3 F5000.0 ; Move over to prevent blob squish
G92 E0
G92 E0
G1 F3000 E-10
;LAYER_COUNT:12
;LAYER:0
M107
G0 F12000 X166.211 Y96.969 Z0.5
;TYPE:SKIRT
G1 F3000 E0
G1 F720 X166.705 Y97.005 E0.06178
G1 X167.019 Y97.046 E0.10127
G1 X167.647 Y97.176 E0.18126
G1 X167.804 Y97.221 E0.20163
G1 X168.355 Y97.421 E0.27474
G1 X168.874 Y97.694 E0.34789
G1 X169.118 Y97.856 E0.38442
G1 X169.314 Y97.996 E0.41446
G1 X169.767 Y98.368 E0.48757
G1 X170.071 Y98.687 E0.54253
G1 X170.309 Y98.963 E0.58798
G1 X170.661 Y99.432 E0.66112
G1 X170.946 Y99.944 E0.73421
G1 X171.126 Y100.392 E0.79443
G1 X171.253 Y100.767 E0.84381
G1 X171.403 Y101.333 E0.91684
G1 X171.478 Y102.001 E1.00068
G1 X171.503 Y102.828 E1.10388
G1 X171.501 Y108.877 E1.85834
G1 X171.5 Y175.48 E10.16543
G1 X171.5 Y175.539 E10.17279
G1 X171.49 Y176.266 E10.26348
G1 X171.442 Y176.85 E10.33656
G1 X171.332 Y177.363 E10.402
G1 X171.246 Y177.671 E10.44189
G1 X171.044 Y178.237 E10.51684
G1 X170.964 Y178.42 E10.54175
G1 X170.693 Y178.94 E10.61489
G1 X170.274 Y179.514 E10.70353
G1 X170.047 Y179.776 E10.74676
G1 X169.634 Y180.192 E10.81988
G1 X169.362 Y180.411 E10.86343
G1 X169.214 Y180.521 E10.88643
G1 X168.721 Y180.838 E10.95953
G1 X168.189 Y181.085 E11.03269
G1 X167.773 Y181.22 E11.08724
G1 X167.57 Y181.275 E11.11347
G1 X167.236 Y181.352 E11.15622
G1 X167.022 Y181.392 E11.18338
G1 X166.296 Y181.465 E11.27439
G1 X165.555 Y181.475 E11.36682
G1 X70.95 Y181.474 E23.16647
G1 X70.887 Y181.474 E23.17433
G1 X70.202 Y181.464 E23.25978
G1 X69.618 Y181.415 E23.33287
G1 X69.107 Y181.305 E23.39807
G1 X68.529 Y181.141 E23.473
G1 X67.981 Y180.932 E23.54616
G1 X67.467 Y180.651 E23.61922
G1 X66.808 Y180.134 E23.72369
G1 X66.484 Y179.824 E23.77962
G1 X66.089 Y179.391 E23.85272
G1 X65.757 Y178.908 E23.92582
G1 X65.493 Y178.384 E23.999
G1 X65.368 Y178.047 E24.04383
G1 X65.22 Y177.592 E24.10351
G1 X65.077 Y177.024 E24.17657
G1 X65.01 Y176.348 E24.26129
G1 X64.989 Y175.269 E24.3959
G1 X64.985 Y169.636 E25.09848
G1 X64.986 Y102.898 E33.42241
G1 X64.986 Y102.834 E33.43039
G1 X64.996 Y102.163 E33.51409
G1 X65.045 Y101.579 E33.58719
G1 X65.156 Y101.065 E33.65277
G1 X65.25 Y100.73 E33.69617
G1 X65.387 Y100.322 E33.74985
G1 X65.438 Y100.192 E33.76727
G1 X65.689 Y99.662 E33.84041
G1 X66.148 Y98.997 E33.94119
G1 X66.284 Y98.835 E33.96757
G1 X66.498 Y98.599 E34.00731
G1 X66.652 Y98.441 E34.03483
G1 X67.089 Y98.05 E34.10796
G1 X67.724 Y97.639 E34.20231
G1 X67.923 Y97.534 E34.23037
G1 X68.459 Y97.296 E34.30352
G1 X69.055 Y97.127 E34.38078
G1 X69.382 Y97.059 E34.42244
G1 X70.193 Y96.969 E34.52422
G1 X70.931 Y96.959 E34.61627
G1 X165.536 Y96.96 E46.41593
G1 X166.211 Y96.969 E46.50012
G1 F3000 E36.50012
;MESH:lid.obj(1)
G0 F12000 X164.192 Y105.299
G0 X165.698 Y104.183
G0 X165.703 Y105.604
G0 X165.886 Y106.72
G0 X166.003 Y108.466
G0 X166.001 Y172.857
;TYPE:WALL-INNER
G1 F3000 E46.50012
G1 F720 X166.148 Y171.723 E46.64275
G1 X166.128 Y171.54 E46.66571
G1 X166.002 Y170.583 E46.7861
G1 X165.933 Y170.409 E46.80945
G1 X165.711 Y169.875 E46.88158
G1 X165.563 Y169.52 E46.92955
G1 X165.451 Y169.371 E46.9528
G1 X164.865 Y168.61 E47.07259
G1 X164.721 Y168.493 E47.09573
G1 X163.954 Y167.907 E47.21612
G1 X163.785 Y167.832 E47.23918
G1 X162.883 Y167.46 E47.36088
G1 X161.749 Y167.312 E47.50352
G1 X161.566 Y167.332 E47.52648
G1 X160.61 Y167.459 E47.64676
G1 X160.436 Y167.528 E47.67011
G1 X159.552 Y167.896 E47.78954
G1 X159.401 Y168.005 E47.81277
G1 X158.636 Y168.595 E47.93326
G1 X158.52 Y168.739 E47.95633
G1 X157.931 Y169.51 E48.07734
G1 X157.857 Y169.679 E48.10035
G1 X157.486 Y170.577 E48.22154
G1 X157.338 Y171.711 E48.36417
G1 X157.358 Y171.894 E48.38713
G1 X157.485 Y172.851 E48.50754
G1 X157.554 Y173.025 E48.53089
G1 X157.924 Y173.914 E48.65099
G1 X158.036 Y174.063 E48.67424
G1 X158.622 Y174.824 E48.79404
G1 X158.766 Y174.941 E48.81718
G1 X159.532 Y175.527 E48.93747
G1 X159.701 Y175.602 E48.96053
G1 X159.909 Y175.688 E48.9886
G1 X160.604 Y175.974 E49.08234
G1 X161.737 Y176.122 E49.22485
G1 X161.92 Y176.102 E49.24781
G1 X162.877 Y175.975 E49.36822
G1 X163.051 Y175.906 E49.39157
G1 X163.581 Y175.685 E49.46319
G1 X163.936 Y175.537 E49.51116
G1 X164.085 Y175.428 E49.53419
G1 X164.85 Y174.839 E49.65461
G1 X164.967 Y174.695 E49.67775
G1 X165.556 Y173.924 E49.79876
G1 X165.63 Y173.755 E49.82177
G1 X165.713 Y173.554 E49.8489
G1 X166.001 Y172.857 E49.94296
G0 F12000 X165.416 Y172.701
;TYPE:WALL-OUTER
G1 F720 X165.544 Y171.718 E50.0666
G1 X165.532 Y171.613 E50.07978
G1 X165.417 Y170.736 E50.1901
G1 X165.377 Y170.636 E50.20353
G1 X165.037 Y169.819 E50.31391
G1 X164.973 Y169.733 E50.32728
G1 X164.433 Y169.032 E50.43764
G1 X164.35 Y168.965 E50.45095
G1 X163.646 Y168.427 E50.56146
G1 X163.549 Y168.384 E50.57469
G1 X162.727 Y168.045 E50.68559
G1 X161.744 Y167.916 E50.80925
G1 X161.639 Y167.928 E50.82243
G1 X160.763 Y168.044 E50.93265
G1 X160.663 Y168.084 E50.94608
G1 X159.847 Y168.423 E51.05629
G1 X159.76 Y168.486 E51.06969
G1 X159.059 Y169.027 E51.18013
G1 X158.992 Y169.11 E51.19343
G1 X158.452 Y169.816 E51.30429
G1 X158.41 Y169.913 E51.31748
G1 X158.071 Y170.733 E51.42815
G1 X157.942 Y171.716 E51.5518
G1 X157.954 Y171.821 E51.56498
G1 X158.07 Y172.698 E51.67532
G1 X158.11 Y172.798 E51.68876
G1 X158.45 Y173.615 E51.79913
G1 X158.514 Y173.701 E51.8125
G1 X159.054 Y174.402 E51.92286
G1 X159.137 Y174.469 E51.93617
G1 X159.84 Y175.007 E52.04658
G1 X159.937 Y175.05 E52.05981
G1 X160.76 Y175.389 E52.17083
G1 X161.742 Y175.518 E52.29436
G1 X161.847 Y175.506 E52.30755
G1 X162.724 Y175.39 E52.41788
G1 X162.824 Y175.35 E52.43132
G1 X163.639 Y175.011 E52.54141
G1 X163.725 Y174.948 E52.55471
G1 X164.428 Y174.407 E52.66535
G1 X164.495 Y174.324 E52.67865
G1 X165.035 Y173.618 E52.78951
G1 X165.077 Y173.521 E52.8027
G1 X165.416 Y172.701 E52.91337
G0 F12000 X166.053 Y172.871
G1 F3000 E42.91337
G0 F12000 X166.001 Y107.857
;TYPE:WALL-INNER
G1 F3000 E52.91337
G1 F720 X166.148 Y106.723 E53.05599
G1 X166.128 Y106.54 E53.07895
G1 X166.002 Y105.583 E53.19934
G1 X165.933 Y105.409 E53.22269
G1 X165.713 Y104.88 E53.29415
G1 X165.563 Y104.52 E53.34279
G1 X165.451 Y104.371 E53.36604
G1 X164.865 Y103.61 E53.48583
G1 X164.721 Y103.493 E53.50897
G1 X163.954 Y102.907 E53.62936
G1 X163.785 Y102.832 E53.65243
G1 X163.578 Y102.746 E53.68038
G1 X162.883 Y102.46 E53.77412
G1 X161.749 Y102.312 E53.91676
G1 X161.566 Y102.332 E53.93972
G1 X160.61 Y102.459 E54.06
G1 X160.436 Y102.528 E54.08335
G1 X159.905 Y102.749 E54.15509
G1 X159.552 Y102.896 E54.20278
G1 X159.401 Y103.005 E54.22601
G1 X158.636 Y103.595 E54.3465
G1 X158.52 Y103.739 E54.36957
G1 X157.931 Y104.51 E54.49058
G1 X157.857 Y104.679 E54.51359
G1 X157.486 Y105.577 E54.63478
G1 X157.338 Y106.711 E54.77742
G1 X157.358 Y106.894 E54.80038
G1 X157.485 Y107.851 E54.92078
G1 X157.554 Y108.025 E54.94413
G1 X157.924 Y108.914 E55.06423
G1 X158.036 Y109.063 E55.08748
G1 X158.622 Y109.824 E55.20728
G1 X158.766 Y109.941 E55.23042
G1 X159.532 Y110.527 E55.35071
G1 X159.701 Y110.602 E55.37377
G1 X160.604 Y110.974 E55.49558
G1 X161.737 Y111.122 E55.63809
G1 X161.92 Y111.102 E55.66106
G1 X162.877 Y110.975 E55.78146
G1 X163.051 Y110.906 E55.80481
G1 X163.936 Y110.537 E55.9244
G1 X164.085 Y110.428 E55.94743
G1 X164.85 Y109.839 E56.06785
G1 X164.967 Y109.695 E56.09099
G1 X165.556 Y108.924 E56.212
G1 X165.63 Y108.755 E56.23501
G1 X165.714 Y108.552 E56.26242
G1 X166.001 Y107.857 E56.3562
G0 F12000 X165.416 Y107.701
;TYPE:WALL-OUTER
G1 F720 X165.544 Y106.718 E56.47984
G1 X165.532 Y106.613 E56.49302
G1 X165.417 Y105.736 E56.60334
G1 X165.377 Y105.636 E56.61678
G1 X165.037 Y104.819 E56.72715
G1 X164.973 Y104.733 E56.74052
G1 X164.433 Y104.032 E56.85089
G1 X164.35 Y103.965 E56.86419
G1 X163.646 Y103.427 E56.9747
G1 X163.549 Y103.384 E56.98793
G1 X162.727 Y103.045 E57.09884
G1 X161.744 Y102.916 E57.22249
G1 X161.639 Y102.928 E57.23567
G1 X160.763 Y103.044 E57.34589
G1 X160.663 Y103.084 E57.35932
G1 X159.847 Y103.423 E57.46953
G1 X159.76 Y103.486 E57.48293
G1 X159.059 Y104.027 E57.59337
G1 X158.992 Y104.11 E57.60667
G1 X158.452 Y104.816 E57.71753
G1 X158.41 Y104.913 E57.73072
G1 X158.071 Y105.733 E57.84139
G1 X157.942 Y106.716 E57.96504
G1 X157.954 Y106.821 E57.97823
G1 X158.07 Y107.698 E58.08856
G1 X158.11 Y107.798 E58.102
G1 X158.45 Y108.615 E58.21237
G1 X158.514 Y108.701 E58.22574
G1 X159.054 Y109.402 E58.33611
G1 X159.137 Y109.469 E58.34941
G1 X159.84 Y110.007 E58.45982
G1 X159.937 Y110.05 E58.47306
G1 X160.76 Y110.389 E58.58407
G1 X161.742 Y110.518 E58.70761
G1 X161.847 Y110.506 E58.72079
G1 X162.724 Y110.39 E58.83112
G1 X162.824 Y110.35 E58.84456
G1 X163.639 Y110.011 E58.95465
G1 X163.725 Y109.948 E58.96795
G1 X164.428 Y109.407 E59.07859
G1 X164.495 Y109.324 E59.09189
G1 X165.035 Y108.618 E59.20275
G1 X165.077 Y108.521 E59.21594
G1 X165.416 Y107.701 E59.32661
G0 F12000 X166.053 Y107.871
G1 F3000 E49.32661
G0 F12000 X164.666 Y109.651
G0 X163.806 Y110.308
G0 X162.811 Y110.72
G0 X161.739 Y110.859
G0 X160.672 Y110.719
G0 X159.666 Y110.301
G0 X158.81 Y109.64
G0 X157.215 Y107.869
G0 X158.307 Y103.572
G0 X159.809 Y102.463
G0 X76.679 Y102.462
G0 X78.774 Y104.933
G0 X79.001 Y107.857
;TYPE:WALL-INNER
G1 F3000 E59.32661
G1 F720 X79.148 Y106.723 E59.46923
G1 X79.128 Y106.54 E59.49219
G1 X79.002 Y105.583 E59.61258
G1 X78.933 Y105.409 E59.63593
G1 X78.563 Y104.52 E59.75603
G1 X78.451 Y104.371 E59.77928
G1 X77.865 Y103.61 E59.89907
G1 X77.721 Y103.493 E59.92222
G1 X76.954 Y102.907 E60.04261
G1 X76.785 Y102.832 E60.06567
G1 X76.578 Y102.746 E60.09362
G1 X75.883 Y102.46 E60.18736
G1 X74.749 Y102.312 E60.33
G1 X74.566 Y102.332 E60.35296
G1 X73.61 Y102.459 E60.47325
G1 X73.436 Y102.528 E60.49659
G1 X72.905 Y102.749 E60.56833
G1 X72.552 Y102.896 E60.61602
G1 X72.401 Y103.005 E60.63925
G1 X71.636 Y103.595 E60.75974
G1 X71.52 Y103.739 E60.78281
G1 X70.931 Y104.51 E60.90382
G1 X70.857 Y104.679 E60.92683
G1 X70.772 Y104.883 E60.9544
G1 X70.486 Y105.577 E61.04802
G1 X70.338 Y106.711 E61.19066
G1 X70.358 Y106.894 E61.21362
G1 X70.485 Y107.851 E61.33403
G1 X70.554 Y108.025 E61.35737
G1 X70.775 Y108.556 E61.42911
G1 X70.924 Y108.914 E61.47747
G1 X71.036 Y109.063 E61.50072
G1 X71.622 Y109.824 E61.62052
G1 X71.766 Y109.941 E61.64366
G1 X72.532 Y110.527 E61.76395
G1 X72.701 Y110.602 E61.78701
G1 X73.604 Y110.974 E61.90882
G1 X74.737 Y111.122 E62.05134
G1 X74.92 Y111.102 E62.0743
G1 X75.877 Y110.975 E62.19471
G1 X76.051 Y110.906 E62.21805
G1 X76.936 Y110.537 E62.33764
G1 X77.085 Y110.428 E62.36067
G1 X77.85 Y109.839 E62.48109
G1 X77.967 Y109.695 E62.50423
G1 X78.556 Y108.924 E62.62524
G1 X78.63 Y108.755 E62.64826
G1 X79.001 Y107.857 E62.76944
G0 F12000 X78.416 Y107.701
;TYPE:WALL-OUTER
G1 F720 X78.544 Y106.718 E62.89308
G1 X78.532 Y106.613 E62.90626
G1 X78.417 Y105.736 E63.01658
G1 X78.377 Y105.636 E63.03002
G1 X78.037 Y104.819 E63.14039
G1 X77.973 Y104.733 E63.15376
G1 X77.433 Y104.032 E63.26413
G1 X77.35 Y103.965 E63.27743
G1 X76.646 Y103.427 E63.38794
G1 X76.549 Y103.384 E63.40118
G1 X75.727 Y103.045 E63.51208
G1 X74.744 Y102.916 E63.63573
G1 X74.639 Y102.928 E63.64891
G1 X73.763 Y103.044 E63.75913
G1 X73.663 Y103.084 E63.77256
G1 X72.847 Y103.423 E63.88277
G1 X72.76 Y103.486 E63.89617
G1 X72.059 Y104.027 E64.00661
G1 X71.992 Y104.11 E64.01991
G1 X71.452 Y104.816 E64.13078
G1 X71.41 Y104.913 E64.14396
G1 X71.071 Y105.733 E64.25463
G1 X70.942 Y106.716 E64.37829
G1 X70.954 Y106.821 E64.39147
G1 X71.07 Y107.698 E64.5018
G1 X71.11 Y107.798 E64.51524
G1 X71.45 Y108.615 E64.62561
G1 X71.514 Y108.701 E64.63898
G1 X72.054 Y109.402 E64.74935
G1 X72.137 Y109.469 E64.76265
G1 X72.84 Y110.007 E64.87306
G1 X72.937 Y110.05 E64.8863
G1 X73.76 Y110.389 E64.99731
G1 X74.742 Y110.518 E65.12085
G1 X74.847 Y110.506 E65.13403
G1 X75.724 Y110.39 E65.24436
G1 X75.824 Y110.35 E65.2578
G1 X76.639 Y110.011 E65.36789
G1 X76.725 Y109.948 E65.38119
G1 X77.428 Y109.407 E65.49183
G1 X77.495 Y109.324 E65.50513
G1 X78.035 Y108.618 E65.61599
G1 X78.077 Y108.521 E65.62918
G1 X78.416 Y107.701 E65.73985
G0 F12000 X79.053 Y107.871
G1 F3000 E55.73985
G0 F12000 X77.07 Y110.775
G0 X73.534 Y111.238
G0 X70.489 Y108.653
G0 X70.488 Y169.783
G0 X73.541 Y167.195
G0 X77.093 Y167.672
G0 X78.64 Y169.404
G0 X79.001 Y172.857
;TYPE:WALL-INNER
G1 F3000 E65.73985
G1 F720 X79.148 Y171.723 E65.88247
G1 X79.128 Y171.54 E65.90543
G1 X79.002 Y170.583 E66.02582
G1 X78.933 Y170.409 E66.04917
G1 X78.563 Y169.52 E66.16927
G1 X78.451 Y169.371 E66.19252
G1 X77.865 Y168.61 E66.31232
G1 X77.721 Y168.493 E66.33546
G1 X76.954 Y167.907 E66.45585
G1 X76.785 Y167.832 E66.47891
G1 X75.883 Y167.46 E66.6006
G1 X74.749 Y167.312 E66.74324
G1 X74.566 Y167.332 E66.7662
G1 X73.61 Y167.459 E66.88649
G1 X73.436 Y167.528 E66.90983
G1 X72.552 Y167.896 E67.02926
G1 X72.401 Y168.005 E67.05249
G1 X71.636 Y168.595 E67.17299
G1 X71.52 Y168.739 E67.19605
G1 X70.931 Y169.51 E67.31706
G1 X70.857 Y169.679 E67.34007
G1 X70.772 Y169.883 E67.36764
G1 X70.486 Y170.577 E67.46126
G1 X70.338 Y171.711 E67.6039
G1 X70.358 Y171.894 E67.62686
G1 X70.485 Y172.851 E67.74727
G1 X70.554 Y173.025 E67.77061
G1 X70.78 Y173.568 E67.84397
G1 X70.924 Y173.914 E67.89071
G1 X71.036 Y174.063 E67.91396
G1 X71.622 Y174.824 E68.03376
G1 X71.766 Y174.941 E68.0569
G1 X72.532 Y175.527 E68.17719
G1 X72.701 Y175.602 E68.20025
G1 X72.908 Y175.687 E68.22816
G1 X73.604 Y175.974 E68.32206
G1 X74.737 Y176.122 E68.46458
G1 X74.92 Y176.102 E68.48754
G1 X75.877 Y175.975 E68.60795
G1 X76.051 Y175.906 E68.63129
G1 X76.581 Y175.685 E68.70291
G1 X76.936 Y175.537 E68.75089
G1 X77.085 Y175.428 E68.77391
G1 X77.85 Y174.839 E68.89433
G1 X77.967 Y174.695 E68.91747
G1 X78.556 Y173.924 E69.03849
G1 X78.63 Y173.755 E69.0615
G1 X79.001 Y172.857 E69.18268
G0 F12000 X78.416 Y172.701
;TYPE:WALL-OUTER
G1 F720 X78.544 Y171.718 E69.30632
G1 X78.532 Y171.613 E69.3195
G1 X78.417 Y170.736 E69.42982
G1 X78.377 Y170.636 E69.44326
G1 X78.037 Y169.819 E69.55363
G1 X77.973 Y169.733 E69.567
G1 X77.433 Y169.032 E69.67737
G1 X77.35 Y168.965 E69.69067
G1 X76.646 Y168.427 E69.80118
G1 X76.549 Y168.384 E69.81442
G1 X75.727 Y168.045 E69.92532
G1 X74.744 Y167.916 E70.04897
G1 X74.639 Y167.928 E70.06216
G1 X73.763 Y168.044 E70.17237
G1 X73.663 Y168.084 E70.1858
G1 X72.847 Y168.423 E70.29601
G1 X72.76 Y168.486 E70.30941
G1 X72.059 Y169.027 E70.41985
G1 X71.992 Y169.11 E70.43316
G1 X71.452 Y169.816 E70.54402
G1 X71.41 Y169.913 E70.5572
G1 X71.071 Y170.733 E70.66787
G1 X70.942 Y171.716 E70.79153
G1 X70.954 Y171.821 E70.80471
G1 X71.07 Y172.698 E70.91505
G1 X71.11 Y172.798 E70.92848
G1 X71.45 Y173.615 E71.03885
G1 X71.514 Y173.701 E71.05222
G1 X72.054 Y174.402 E71.16259
G1 X72.137 Y174.469 E71.17589
G1 X72.84 Y175.007 E71.2863
G1 X72.937 Y175.05 E71.29954
G1 X73.76 Y175.389 E71.41056
G1 X74.742 Y175.518 E71.53409
G1 X74.847 Y175.506 E71.54727
G1 X75.724 Y175.39 E71.65761
G1 X75.824 Y175.35 E71.67104
G1 X76.639 Y175.011 E71.78113
G1 X76.725 Y174.948 E71.79443
G1 X77.428 Y174.407 E71.90507
G1 X77.495 Y174.324 E71.91837
G1 X78.035 Y173.618 E72.02924
G1 X78.077 Y173.521 E72.04242
G1 X78.416 Y172.701 E72.15309
G0 F12000 X79.053 Y172.871
G1 F3000 E62.15309
G0 F12000 X77.666 Y174.651
G0 X76.806 Y175.308
G0 X75.811 Y175.72
G0 X75.508 Y175.759
G0 X70.228 Y176.231
;TYPE:WALL-INNER
G1 F3000 E72.15309
G1 F720 X70.19 Y176.106 E72.16938
G1 X70.19 Y173.614 E72.4802
G1 X70.19 Y173.026 E72.53943
G1 X70.189 Y172.852 E72.55481
G1 X70.188 Y171.895 E72.60109
G1 X70.187 Y171.712 E72.6072
G1 X70.186 Y170.578 E72.66165
