;FLAVOR:Marlin
;TIME:10559
;Filament used: 23.2604m
;Layer height: 0.4
;MINX:52.721
;MINY:79.796
;MINZ:0.5
;MAXX:181.285
;MAXY:166.396
;MAXZ:39.3
;Generated with Cura_SteamEngine 4.6.1
M140 S80
M105
M190 S80
M104 S245
M105
M109 S245
M82 ;absolute extrusion mode
; Ender 3 Custom Start G-code
G92 E0 ; Reset Extruder
G28 ; Home all axes
G1 Z2.0 F3000 ; Move Z Axis up little to prevent scratching of Heat Bed
G1 X0.1 Y20 Z0.3 F5000.0 ; Move to start position
G1 X0.1 Y200.0 Z0.3 F1500.0 E15 ; Draw the first line
G1 X0.4 Y200.0 Z0.3 F5000.0 ; Move to side a little
G1 X0.4 Y20 Z0.3 F1500.0 E30 ; Draw the second line
G92 E0 ; Reset Extruder
G1 Z2.0 F3000 ; Move Z Axis up little to prevent scratching of Heat Bed
G1 X5 Y20 Z0.3 F5000.0 ; Move over to prevent blob squish
G92 E0
G92 E0
G1 F3000 E-10
;LAYER_COUNT:98
;LAYER:0
M107
G0 F12000 X165.543 Y79.841 Z0.5
;TYPE:SKIRT
G1 F3000 E0
G1 F720 X166.04 Y79.905 E0.0625
G1 X166.615 Y80.02 E0.13564
G1 X167.063 Y80.168 E0.19449
G1 X167.45 Y80.32 E0.24634
G1 X167.98 Y80.571 E0.31949
G1 X168.267 Y80.747 E0.36148
G1 X168.707 Y81.041 E0.42748
G1 X169.171 Y81.399 E0.50058
G1 X169.582 Y81.817 E0.57369
G1 X169.937 Y82.231 E0.64171
G1 X170.288 Y82.701 E0.71488
G1 X170.566 Y83.204 E0.78656
G1 X170.779 Y83.658 E0.84911
G1 X170.991 Y84.204 E0.92216
G1 X171.131 Y84.8 E0.99852
G1 X171.408 Y86.518 E1.21556
G1 X171.657 Y88.112 E1.41679
G1 X172.143 Y90.807 E1.75834
G1 X172.703 Y93.481 E2.0991
G1 X173.325 Y96.082 E2.43265
G1 X174.025 Y98.682 E2.76849
G1 X174.814 Y101.314 E3.1112
G1 X175.655 Y103.854 E3.44492
G1 X176.589 Y106.428 E3.78644
G1 X177.577 Y108.929 E4.12184
G1 X178.644 Y111.419 E4.45972
G1 X180.254 Y114.87 E4.93468
G1 X180.599 Y115.693 E5.04599
G1 X180.832 Y116.295 E5.1265
G1 X181.009 Y116.869 E5.20142
G1 X181.098 Y117.268 E5.2524
G1 X181.15 Y117.545 E5.28756
G1 X181.204 Y117.927 E5.33568
G1 X181.261 Y118.521 E5.4101
G1 X181.281 Y118.876 E5.45445
G1 X181.285 Y119.183 E5.49275
G1 X181.275 Y119.537 E5.53692
G1 X181.245 Y119.969 E5.59093
G1 X181.198 Y120.369 E5.64116
G1 X181.125 Y120.785 E5.69384
G1 X181.048 Y121.152 E5.74061
G1 X180.9 Y121.684 E5.80948
G1 X180.713 Y122.21 E5.87911
G1 X180.555 Y122.607 E5.93241
G1 X180.255 Y123.325 E6.02946
G1 X179.875 Y124.172 E6.14525
G1 X178.777 Y126.721 E6.49141
G1 X177.764 Y129.259 E6.83225
G1 X176.857 Y131.749 E7.16278
G1 X175.993 Y134.337 E7.50308
G1 X175.203 Y136.949 E7.84344
G1 X174.494 Y139.553 E8.18005
G1 X173.864 Y142.159 E8.51445
G1 X173.297 Y144.824 E8.85428
G1 X172.81 Y147.498 E9.19328
G1 X172.401 Y150.158 E9.52895
G1 X172.065 Y152.852 E9.86756
G1 X171.807 Y155.537 E10.204
G1 X171.626 Y158.207 E10.53778
G1 X171.495 Y162.098 E11.02336
G1 X171.448 Y162.718 E11.10091
G1 X171.323 Y163.29 E11.17394
G1 X171.121 Y163.84 E11.24702
G1 X170.846 Y164.358 E11.32016
G1 X170.503 Y164.833 E11.39324
G1 X170.098 Y165.258 E11.46646
G1 X169.64 Y165.623 E11.53951
G1 X169.136 Y165.923 E11.61266
G1 X168.596 Y166.151 E11.68577
G1 X168.031 Y166.304 E11.75878
G1 X167.32 Y166.384 E11.84802
G1 X166.886 Y166.395 E11.90217
G1 X67.509 Y166.396 E24.29702
G1 X67.454 Y166.396 E24.30388
G1 X66.756 Y166.387 E24.39094
G1 X66.171 Y166.339 E24.46415
G1 X65.599 Y166.213 E24.5372
G1 X65.049 Y166.009 E24.61037
G1 X64.532 Y165.733 E24.68347
G1 X64.057 Y165.39 E24.75654
G1 X63.634 Y164.984 E24.82967
G1 X63.269 Y164.525 E24.90281
G1 X62.97 Y164.021 E24.97591
G1 X62.743 Y163.481 E25.04897
G1 X62.591 Y162.914 E25.12218
G1 X62.513 Y162.203 E25.21139
G1 X62.454 Y160.011 E25.48489
G1 X62.316 Y157.232 E25.83193
G1 X62.109 Y154.559 E26.16632
G1 X61.818 Y151.834 E26.50813
G1 X61.46 Y149.176 E26.84264
G1 X61.023 Y146.518 E27.17862
G1 X60.503 Y143.829 E27.52022
G1 X59.923 Y141.22 E27.85357
G1 X59.261 Y138.597 E28.19098
G1 X58.521 Y135.981 E28.53007
G1 X57.7 Y133.366 E28.87192
G1 X56.825 Y130.827 E29.20688
G1 X55.872 Y128.301 E29.54361
G1 X54.848 Y125.801 E29.88057
G1 X53.759 Y123.338 E30.21645
G1 X53.4 Y122.484 E30.332
G1 X53.174 Y121.902 E30.40987
G1 X52.999 Y121.343 E30.48293
G1 X52.952 Y121.146 E30.50819
G1 X52.905 Y120.92 E30.53698
G1 X52.853 Y120.635 E30.57311
G1 X52.802 Y120.269 E30.6192
G1 X52.742 Y119.636 E30.69851
G1 X52.723 Y119.26 E30.74546
G1 X52.721 Y118.975 E30.78101
G1 X52.731 Y118.648 E30.82182
G1 X52.761 Y118.215 E30.87595
G1 X52.816 Y117.765 E30.9325
G1 X52.892 Y117.346 E30.98561
G1 X52.957 Y117.034 E31.02536
G1 X53.116 Y116.47 E31.09845
G1 X53.273 Y116.034 E31.15624
G1 X53.44 Y115.615 E31.2125
G1 X53.719 Y114.944 E31.30314
G1 X53.815 Y114.73 E31.33239
G1 X54.088 Y114.163 E31.41088
G1 X55.247 Y111.671 E31.75367
G1 X56.34 Y109.141 E32.09741
G1 X57.337 Y106.639 E32.43334
G1 X58.252 Y104.132 E32.7662
G1 X59.12 Y101.534 E33.10785
G1 X59.904 Y98.948 E33.44488
G1 X60.616 Y96.333 E33.78292
G1 X61.245 Y93.734 E34.11644
G1 X61.82 Y91.032 E34.46099
G1 X62.298 Y88.411 E34.79329
G1 X62.64 Y86.237 E35.06778
G1 X62.823 Y84.984 E35.22571
G1 X62.947 Y84.411 E35.29884
G1 X63.077 Y84.031 E35.34893
G1 X63.238 Y83.622 E35.40375
G1 X63.489 Y83.092 E35.47689
G1 X63.677 Y82.789 E35.52137
G1 X63.944 Y82.394 E35.58084
G1 X64.304 Y81.932 E35.65389
G1 X64.704 Y81.541 E35.72365
G1 X65.187 Y81.126 E35.80308
G1 X65.656 Y80.775 E35.87614
G1 X66.262 Y80.449 E35.96197
G1 X66.62 Y80.292 E36.01073
G1 X67.172 Y80.094 E36.08387
G1 X67.504 Y80.014 E36.12646
G1 X68.074 Y79.9 E36.19897
G1 X68.679 Y79.823 E36.27503
G1 X69.022 Y79.804 E36.31788
G1 X69.26 Y79.797 E36.34758
G1 X164.296 Y79.796 E48.20099
G1 X164.358 Y79.796 E48.20872
G1 X165.056 Y79.806 E48.29579
G1 X165.543 Y79.841 E48.35669
G1 F3000 E38.35669
;MESH:stock-small.obj
G0 F12000 X63.575 Y118.023
G0 X64.898 Y116.7
G0 X63.094 Y116.28
G0 X62.281 Y116.171
G0 X61.624 Y116.259
G0 X59.871 Y116.907
;TYPE:WALL-INNER
G1 F3000 E48.35669
G1 F720 X59.33 Y117.614 E48.46772
G1 X58.99 Y118.435 E48.57856
G1 X58.873 Y119.317 E48.68953
G1 X58.99 Y120.199 E48.8005
G1 X59.33 Y121.02 E48.91133
G1 X59.871 Y121.727 E49.02237
G1 X60.578 Y122.268 E49.13341
G1 X61.399 Y122.608 E49.24424
G1 X62.281 Y122.725 E49.35521
G1 X63.163 Y122.608 E49.46618
G1 X63.984 Y122.268 E49.57702
G1 X64.691 Y121.727 E49.68805
G1 X65.232 Y121.02 E49.79909
G1 X65.572 Y120.199 E49.90992
G1 X65.689 Y119.317 E50.02089
G1 X65.572 Y118.435 E50.13186
G1 X65.232 Y117.614 E50.2427
G1 X64.691 Y116.907 E50.35373
G1 X63.984 Y116.366 E50.46477
G1 X63.163 Y116.026 E50.5756
G1 X62.281 Y115.909 E50.68657
G1 X61.399 Y116.026 E50.79754
G1 X60.578 Y116.366 E50.90838
G1 X59.871 Y116.907 E51.01941
G0 F12000 X60.299 Y117.335
;TYPE:WALL-OUTER
G1 F720 X59.854 Y117.916 E51.11069
G1 X59.574 Y118.592 E51.20195
G1 X59.478 Y119.317 E51.29317
G1 X59.574 Y120.042 E51.38438
G1 X59.854 Y120.718 E51.47564
G1 X60.299 Y121.299 E51.56692
G1 X60.88 Y121.744 E51.6582
G1 X61.556 Y122.024 E51.74946
G1 X62.281 Y122.12 E51.84068
G1 X63.006 Y122.024 E51.93189
G1 X63.682 Y121.744 E52.02315
G1 X64.263 Y121.299 E52.11443
G1 X64.708 Y120.718 E52.20571
G1 X64.988 Y120.042 E52.29697
G1 X65.084 Y119.317 E52.38819
G1 X64.988 Y118.592 E52.4794
G1 X64.708 Y117.916 E52.57066
G1 X64.263 Y117.335 E52.66194
G1 X63.682 Y116.89 E52.75322
G1 X63.006 Y116.61 E52.84448
G1 X62.281 Y116.514 E52.9357
G1 X61.556 Y116.61 E53.02691
G1 X60.88 Y116.89 E53.11817
G1 X60.299 Y117.335 E53.20945
G0 F12000 X59.833 Y116.869
G1 F3000 E43.20945
G0 F12000 X61.468 Y116.28
G0 X62.281 Y116.171
G0 X63.094 Y116.28
G0 X63.852 Y116.594
G0 X64.221 Y116.876
G0 X65.855 Y118.359
G0 X64.048 Y118.84
G0 X170.502 Y120.069
G0 X168.867 Y121.017
G0 X169.658 Y121.094
G0 X169.866 Y121.381
G0 X170.518 Y121.88
G0 X171.276 Y122.194
G0 X172.089 Y122.303
G0 X172.746 Y122.215
G0 X174.499 Y121.567
;TYPE:WALL-INNER
G1 F3000 E53.20945
G1 F720 X174.873 Y121.078 E53.28624
G1 X175.04 Y120.86 E53.32049
G1 X175.38 Y120.039 E53.43132
G1 X175.389 Y119.968 E53.44025
G1 X175.497 Y119.157 E53.54229
G1 X175.493 Y119.126 E53.54619
G1 X175.38 Y118.275 E53.65327
G1 X175.04 Y117.454 E53.7641
G1 X174.499 Y116.747 E53.87514
G1 X173.792 Y116.206 E53.98617
G1 X172.971 Y115.866 E54.097
G1 X172.089 Y115.749 E54.20798
G1 X171.207 Y115.866 E54.31895
G1 X170.385 Y116.206 E54.4299
G1 X169.68 Y116.747 E54.54073
G1 X169.138 Y117.453 E54.65175
G1 X168.798 Y118.275 E54.76269
G1 X168.681 Y119.157 E54.87367
G1 X168.798 Y120.039 E54.98464
G1 X169.138 Y120.861 E55.09559
G1 X169.68 Y121.567 E55.2066
G1 X170.385 Y122.108 E55.31744
G1 X171.207 Y122.448 E55.42839
G1 X172.089 Y122.565 E55.53936
G1 X172.971 Y122.448 E55.65033
G1 X173.792 Y122.108 E55.76116
G1 X174.499 Y121.567 E55.8722
G0 F12000 X174.071 Y121.139
;TYPE:WALL-OUTER
G1 F720 X174.516 Y120.558 E55.96348
G1 X174.796 Y119.882 E56.05474
G1 X174.892 Y119.157 E56.14595
G1 X174.796 Y118.432 E56.23717
G1 X174.516 Y117.756 E56.32843
G1 X174.071 Y117.175 E56.41971
G1 X173.49 Y116.73 E56.51099
G1 X172.814 Y116.45 E56.60225
G1 X172.089 Y116.354 E56.69346
G1 X171.364 Y116.45 E56.78468
G1 X170.688 Y116.73 E56.87594
G1 X170.108 Y117.175 E56.96712
G1 X169.662 Y117.756 E57.05847
G1 X169.382 Y118.432 E57.14973
G1 X169.286 Y119.157 E57.24095
G1 X169.382 Y119.882 E57.33216
G1 X169.662 Y120.558 E57.42343
G1 X170.108 Y121.139 E57.51478
G1 X170.688 Y121.584 E57.60596
G1 X171.364 Y121.864 E57.69722
G1 X172.089 Y121.96 E57.78844
G1 X172.814 Y121.864 E57.87965
G1 X173.49 Y121.584 E57.97091
G1 X174.071 Y121.139 E58.06219
G0 F12000 X174.537 Y121.605
G1 F3000 E48.06219
G0 F12000 X174.966 Y121.463
G0 X173.927 Y123.625
G0 X166.369 Y128.735
G0 X166.305 Y161.196
;TYPE:WALL-INNER
G1 F3000 E58.06219
G1 F720 X166.006 Y161.196 E58.09948
G1 X67.702 Y161.196 E70.3605
G1 X67.701 Y158.996 E70.6349
G1 X67.903 Y158.996 E70.66009
G1 X67.903 Y128.583 E74.45337
G1 X63.297 Y125.855 E75.12105
G1 X60.26 Y123.437 E75.60524
G1 X59.214 Y122.288 E75.79904
G1 X58.477 Y121.174 E75.96564
G1 X58.038 Y120.088 E76.11174
G1 X57.947 Y119.636 E76.16925
G1 X57.909 Y119.131 E76.23241
G1 X57.937 Y118.617 E76.29662
G1 X58.03 Y118.143 E76.35686
G1 X58.479 Y117.014 E76.5084
G1 X59.214 Y115.904 E76.67445
G1 X60.26 Y114.755 E76.86825
G1 X63.297 Y112.337 E77.35244
G1 X67.903 Y109.609 E78.02012
G1 X67.903 Y86.153 E80.94568
G1 X67.948 Y85.814 E80.98834
G1 X68.058 Y85.549 E81.02412
G1 X68.23 Y85.323 E81.05955
G1 X68.456 Y85.151 E81.09497
G1 X68.721 Y85.041 E81.13076
G1 X69.06 Y84.996 E81.17341
G1 X164.946 Y84.996 E93.13284
G1 X165.285 Y85.041 E93.17549
G1 X165.551 Y85.151 E93.21139
G1 X165.775 Y85.323 E93.24662
G1 X165.948 Y85.548 E93.28202
G1 X166.057 Y85.814 E93.31787
G1 X166.103 Y86.155 E93.36079
G1 X166.103 Y109.609 E96.2861
G1 X170.708 Y112.337 E96.95368
G1 X173.746 Y114.755 E97.43796
G1 X174.792 Y115.904 E97.63176
G1 X175.528 Y117.015 E97.79798
G1 X175.967 Y118.107 E97.94478
G1 X176.058 Y118.556 E98.00192
G1 X176.097 Y119.06 E98.06497
G1 X176.091 Y119.158 E98.07721
G1 X176.09 Y119.19 E98.08119
G1 X176.068 Y119.575 E98.12928
G1 X175.976 Y120.045 E98.18898
G1 X175.897 Y120.244 E98.21495
G1 X175.569 Y121.07 E98.31907
G1 X175.524 Y121.181 E98.3337
G1 X175.373 Y121.41 E98.36737
G1 X174.792 Y122.288 E98.49869
G1 X173.746 Y123.437 E98.69249
G1 X170.708 Y125.855 E99.17677
G1 X166.103 Y128.583 E99.84435
G1 X166.103 Y158.996 E103.63763
G1 X166.304 Y158.996 E103.6627
G1 X166.305 Y160.897 E103.8998
G1 X166.305 Y161.196 E103.92393
G0 F12000 X166.905 Y161.796
;TYPE:WALL-OUTER
G1 F720 X67.102 Y161.796 E116.37191
G1 X67.101 Y158.396 E116.79598
G1 X67.303 Y158.396 E116.82118
G1 X67.303 Y128.925 E120.49696
G1 X62.956 Y126.35 E121.12713
G1 X59.847 Y123.875 E121.62277
G1 X58.742 Y122.661 E121.82752
G1 X57.943 Y121.454 E122.00806
G1 X57.461 Y120.26 E122.16866
G1 X57.352 Y119.72 E122.23737
G1 X57.308 Y119.136 E122.31041
G1 X57.34 Y118.541 E122.38473
G1 X57.451 Y117.975 E122.45667
G1 X57.945 Y116.735 E122.62315
G1 X58.742 Y115.531 E122.80324
G1 X59.847 Y114.317 E123.00799
G1 X62.956 Y111.842 E123.50363
G1 X67.303 Y109.267 E124.1338
G1 X67.303 Y86.112 E127.02182
G1 X67.363 Y85.658 E127.07893
G1 X67.534 Y85.246 E127.13457
G1 X67.802 Y84.895 E127.18965
G1 X68.153 Y84.627 E127.24473
G1 X68.565 Y84.456 E127.30037
G1 X69.019 Y84.396 E127.35749
G1 X164.987 Y84.396 E139.32714
G1 X165.44 Y84.456 E139.38414
G1 X165.853 Y84.627 E139.43989
G1 X166.203 Y84.895 E139.49487
G1 X166.473 Y85.247 E139.5502
G1 X166.642 Y85.656 E139.6054
G1 X166.703 Y86.113 E139.66291
G1 X166.703 Y109.267 E142.5508
G1 X171.049 Y111.842 E143.18086
G1 X174.159 Y114.317 E143.6766
G1 X175.264 Y115.531 E143.88135
G1 X176.063 Y116.738 E144.06189
G1 X176.544 Y117.932 E144.22244
G1 X176.653 Y118.472 E144.29115
G1 X176.698 Y119.055 E144.36408
G1 X176.665 Y119.651 E144.43853
G1 X176.554 Y120.217 E144.51047
G1 X176.061 Y121.457 E144.6769
G1 X175.264 Y122.661 E144.85699
G1 X174.159 Y123.875 E145.06174
G1 X171.049 Y126.35 E145.55748
G1 X166.703 Y128.925 E146.18754
G1 X166.703 Y158.396 E149.86333
G1 X166.904 Y158.396 E149.8884
G1 X166.905 Y161.796 E150.31246
G0 F12000 X166.535 Y161.426
G0 X166.095 Y160.606
G0 X165.715 Y160.606
;TYPE:SKIN
G1 F720 X68.292 Y160.606 E162.4636
G1 X68.291 Y159.586 E162.59082
G1 X68.493 Y159.586 E162.61601
G1 X68.493 Y128.247 E166.52478
G1 X63.634 Y125.369 E167.22915
G1 X60.66 Y123 E167.70339
G1 X60.572 Y122.903 E167.71972
G1 X61.245 Y123.182 E167.81059
G1 X62.281 Y123.321 E167.94096
G1 X63.317 Y123.182 E168.07134
G1 X64.281 Y122.783 E168.20146
G1 X65.112 Y122.148 E168.33191
G1 X65.747 Y121.317 E168.46235
G1 X66.146 Y120.353 E168.59248
G1 X66.285 Y119.317 E168.72285
G1 X66.146 Y118.281 E168.85322
G1 X65.747 Y117.317 E168.98335
G1 X65.112 Y116.486 E169.1138
G1 X64.281 Y115.851 E169.24424
G1 X63.317 Y115.452 E169.37437
G1 X62.281 Y115.313 E169.50474
G1 X61.245 Y115.452 E169.63511
G1 X60.281 Y115.851 E169.76524
G1 X59.624 Y116.353 E169.86837
G1 X59.683 Y116.265 E169.88158
G1 X60.66 Y115.192 E170.06258
G1 X63.634 Y112.823 E170.53681
G1 X68.493 Y109.945 E171.24118
G1 X68.493 Y86.186 E174.20454
G1 X68.522 Y85.97 E174.23172
G1 X68.572 Y85.847 E174.24828
G1 X68.651 Y85.744 E174.26447
G1 X68.754 Y85.665 E174.28066
G1 X68.877 Y85.615 E174.29722
G1 X69.093 Y85.586 E174.3244
G1 X164.913 Y85.586 E186.2756
G1 X165.128 Y85.615 E186.30266
G1 X165.255 Y85.667 E186.31978
G1 X165.353 Y85.742 E186.33517
G1 X165.433 Y85.846 E186.35153
G1 X165.484 Y85.971 E186.36837
G1 X165.513 Y86.188 E186.39568
G1 X165.513 Y109.945 E189.35878
G1 X170.371 Y112.823 E190.06304
G1 X173.346 Y115.192 E190.53737
G1 X173.626 Y115.499 E190.5892
G1 X173.125 Y115.292 E190.65681
G1 X172.089 Y115.153 E190.78718
G1 X171.053 Y115.292 E190.91756
G1 X170.088 Y115.691 E191.0478
G1 X169.259 Y116.326 E191.17805
G1 X168.623 Y117.156 E191.30847
G1 X168.224 Y118.121 E191.43871
G1 X168.085 Y119.157 E191.56908
G1 X168.224 Y120.193 E191.69945
G1 X168.623 Y121.158 E191.8297
G1 X169.259 Y121.988 E191.96012
G1 X170.088 Y122.623 E192.09036
G1 X171.053 Y123.022 E192.22061
G1 X172.089 Y123.161 E192.35098
G1 X173.125 Y123.022 E192.48135
G1 X173.448 Y122.888 E192.52497
G1 X173.346 Y123 E192.54386
G1 X170.371 Y125.369 E193.01819
G1 X165.513 Y128.247 E193.72246
G1 X165.513 Y159.586 E197.63123
G1 X165.714 Y159.586 E197.6563
G1 X165.715 Y160.606 E197.78352
G1 F3000 E187.78352
G0 F12000 X166.095 Y160.606
G0 X165.827 Y128.425
G0 X170.553 Y125.631
G0 X173.562 Y123.238
G0 X174.576 Y122.123
G0 X174.966 Y121.463
G0 X172.089 Y122.838
G0 X168.901 Y120.998
G0 X168.901 Y117.316
G0 X172.089 Y115.476
G0 X175.323 Y117.321
G0 X175.285 Y117.138
G0 X174.578 Y116.071
G0 X173.562 Y114.954
G0 X170.553 Y112.561
G0 X165.827 Y109.767
G0 X165.794 Y85.887
G0 X165.582 Y85.516
G0 X165.285 Y85.346
G0 X164.738 Y85.206
G0 X164.738 Y85.825
G1 F3000 E197.78352
G1 F720 X165.272 Y86.358 E197.87762
G0 F12000 X165.272 Y87.207
G1 F720 X163.89 Y85.825 E198.12139
G0 F12000 X163.041 Y85.825
G1 F720 X165.272 Y88.056 E198.51491
G0 F12000 X165.272 Y88.904
G1 F720 X162.193 Y85.825 E199.05801
G0 F12000 X161.344 Y85.825
G1 F720 X165.272 Y89.753 E199.75087
G0 F12000 X165.272 Y90.601
G1 F720 X160.496 Y85.825 E200.5933
G0 F12000 X159.647 Y85.825
G1 F720 X165.272 Y91.45 E201.58548
G0 F12000 X165.272 Y92.298
G1 F720 X158.799 Y85.825 E202.72725
G0 F12000 X157.95 Y85.825
G1 F720 X165.272 Y93.147 E204.01876
G0 F12000 X165.272 Y93.995
G1 F720 X157.102 Y85.825 E205.45986
G0 F12000 X156.253 Y85.825
