;FLAVOR:Marlin
;TIME:10568
;Filament used: 23.2445m
;Layer height: 0.4
;MINX:49.579
;MINY:81.734
;MINZ:0.5
;MAXX:178.143
;MAXY:168.334
;MAXZ:39.3
;Generated with Cura_SteamEngine 4.6.1
M140 S80
M105
M190 S80
M104 S245
M105
M109 S245
M82 ;absolute extrusion mode
; Ender 3 Custom Start G-code
G92 E0 ; Reset Extruder
G28 ; Home all axes
G1 Z2.0 F3000 ; Move Z Axis up little to prevent scratching of Heat Bed
G1 X0.1 Y20 Z0.3 F5000.0 ; Move to start position
G1 X0.1 Y200.0 Z0.3 F1500.0 E15 ; Draw the first line
G1 X0.4 Y200.0 Z0.3 F5000.0 ; Move to side a little
G1 X0.4 Y20 Z0.3 F1500.0 E30 ; Draw the second line
G92 E0 ; Reset Extruder
G1 Z2.0 F3000 ; Move Z Axis up little to prevent scratching of Heat Bed
G1 X5 Y20 Z0.3 F5000.0 ; Move over to prevent blob squish
G92 E0
G92 E0
G1 F3000 E-10
;LAYER_COUNT:98
;LAYER:0
M107
G0 F12000 X162.404 Y81.78 Z0.5
;TYPE:SKIRT
G1 F3000 E0
G1 F720 X162.898 Y81.844 E0.06213
G1 X163.473 Y81.958 E0.13524
G1 X163.913 Y82.104 E0.19306
G1 X164.327 Y82.266 E0.24851
G1 X164.857 Y82.516 E0.3216
G1 X165.176 Y82.713 E0.36837
G1 X165.578 Y82.986 E0.42897
G1 X166.039 Y83.347 E0.502
G1 X166.41 Y83.725 E0.56806
G1 X166.784 Y84.156 E0.63924
G1 X167.137 Y84.624 E0.71235
G1 X167.43 Y85.151 E0.78756
G1 X167.629 Y85.576 E0.84609
G1 X167.841 Y86.122 E0.91914
G1 X167.979 Y86.705 E0.99387
G1 X168.731 Y91.304 E1.5751
G1 X169.248 Y93.971 E1.91393
G1 X169.837 Y96.612 E2.25143
G1 X170.499 Y99.229 E2.58811
G1 X171.231 Y101.816 E2.92345
G1 X172.049 Y104.423 E3.26424
G1 X172.933 Y106.978 E3.60145
G1 X173.887 Y109.504 E3.93822
G1 X174.919 Y112.022 E4.27764
G1 X176.009 Y114.478 E4.61277
G1 X177.072 Y116.721 E4.92236
G1 X177.462 Y117.641 E5.04699
G1 X177.686 Y118.216 E5.12396
G1 X177.854 Y118.749 E5.19366
G1 X177.903 Y118.948 E5.21922
G1 X177.957 Y119.2 E5.25137
G1 X178.01 Y119.489 E5.28802
G1 X178.062 Y119.861 E5.33486
G1 X178.121 Y120.486 E5.41316
G1 X178.14 Y120.844 E5.45788
G1 X178.143 Y121.126 E5.49305
G1 X178.133 Y121.463 E5.5351
G1 X178.103 Y121.906 E5.59048
G1 X178.051 Y122.34 E5.645
G1 X177.976 Y122.761 E5.69834
G1 X177.907 Y123.09 E5.74027
G1 X177.761 Y123.619 E5.80871
G1 X177.592 Y124.093 E5.87148
G1 X177.428 Y124.506 E5.9269
G1 X177.099 Y125.296 E6.03364
G1 X176.72 Y126.14 E6.14903
G1 X175.647 Y128.627 E6.48686
G1 X174.641 Y131.148 E6.82541
G1 X173.709 Y133.705 E7.16486
G1 X172.859 Y136.247 E7.49916
G1 X172.075 Y138.835 E7.83644
G1 X171.364 Y141.445 E8.17384
G1 X170.726 Y144.076 E8.5115
G1 X170.155 Y146.762 E8.854
G1 X169.677 Y149.383 E9.1863
G1 X169.266 Y152.053 E9.52323
G1 X168.925 Y154.773 E9.86514
G1 X168.668 Y157.44 E10.19933
G1 X168.486 Y160.119 E10.53424
G1 X168.353 Y164.038 E11.02332
G1 X168.306 Y164.656 E11.10062
G1 X168.181 Y165.228 E11.17365
G1 X167.979 Y165.778 E11.24673
G1 X167.704 Y166.296 E11.31987
G1 X167.361 Y166.771 E11.39295
G1 X166.956 Y167.196 E11.46617
G1 X166.498 Y167.561 E11.53922
G1 X165.994 Y167.861 E11.61237
G1 X165.454 Y168.089 E11.68548
G1 X164.889 Y168.242 E11.75849
G1 X164.178 Y168.322 E11.84773
G1 X163.744 Y168.333 E11.90188
G1 X64.367 Y168.334 E24.29673
G1 X64.312 Y168.334 E24.30359
G1 X63.614 Y168.325 E24.39065
G1 X63.029 Y168.277 E24.46386
G1 X62.457 Y168.151 E24.53691
G1 X61.907 Y167.947 E24.61008
G1 X61.39 Y167.671 E24.68318
G1 X60.915 Y167.328 E24.75625
G1 X60.492 Y166.922 E24.82938
G1 X60.127 Y166.463 E24.90252
G1 X59.828 Y165.959 E24.97562
G1 X59.601 Y165.419 E25.04868
G1 X59.449 Y164.852 E25.12189
G1 X59.371 Y164.141 E25.21111
G1 X59.312 Y161.949 E25.4846
G1 X59.174 Y159.17 E25.83164
G1 X58.967 Y156.497 E26.16603
G1 X58.676 Y153.772 E26.50784
G1 X58.318 Y151.114 E26.84235
G1 X57.881 Y148.456 E27.17833
G1 X57.361 Y145.767 E27.51993
G1 X56.782 Y143.165 E27.8524
G1 X56.119 Y140.535 E28.19069
G1 X55.379 Y137.919 E28.52978
G1 X54.558 Y135.304 E28.87163
G1 X53.683 Y132.765 E29.20659
G1 X52.73 Y130.239 E29.54332
G1 X51.706 Y127.739 E29.88028
G1 X50.617 Y125.276 E30.21616
G1 X50.263 Y124.434 E30.33008
G1 X50.03 Y123.831 E30.41071
G1 X49.847 Y123.231 E30.48895
G1 X49.769 Y122.871 E30.5349
G1 X49.716 Y122.592 E30.57032
G1 X49.66 Y122.2 E30.6197
G1 X49.602 Y121.594 E30.69563
G1 X49.582 Y121.228 E30.74135
G1 X49.579 Y120.935 E30.7779
G1 X49.589 Y120.594 E30.82045
G1 X49.62 Y120.147 E30.87633
G1 X49.672 Y119.714 E30.93073
G1 X49.746 Y119.309 E30.98208
G1 X49.823 Y118.948 E31.02812
G1 X49.974 Y118.413 E31.09745
G1 X50.152 Y117.918 E31.16306
G1 X50.321 Y117.496 E31.21976
G1 X50.571 Y116.894 E31.30106
G1 X50.667 Y116.679 E31.33043
G1 X50.995 Y115.997 E31.42482
G1 X52.127 Y113.561 E31.75985
G1 X53.203 Y111.064 E32.09898
G1 X54.229 Y108.49 E32.44458
G1 X55.129 Y106.018 E32.77271
G1 X55.991 Y103.43 E33.11293
G1 X56.78 Y100.824 E33.45253
G1 X57.483 Y98.233 E33.78738
G1 X58.124 Y95.581 E34.12768
G1 X58.686 Y92.934 E34.46519
G1 X59.169 Y90.274 E34.80238
G1 X59.47 Y88.273 E35.05476
G1 X59.69 Y86.869 E35.23202
G1 X59.82 Y86.297 E35.30518
G1 X59.932 Y85.972 E35.34805
G1 X60.069 Y85.621 E35.39505
G1 X60.319 Y85.09 E35.46825
G1 X60.494 Y84.804 E35.51007
G1 X60.817 Y84.318 E35.58285
G1 X61.174 Y83.853 E35.65597
G1 X61.607 Y83.427 E35.73173
G1 X61.968 Y83.119 E35.79092
G1 X62.439 Y82.77 E35.86404
G1 X62.871 Y82.527 E35.92586
G1 X63.356 Y82.29 E35.99319
G1 X63.899 Y82.069 E36.06631
G1 X64.446 Y81.928 E36.13676
G1 X64.954 Y81.832 E36.20124
G1 X65.491 Y81.765 E36.26874
G1 X65.837 Y81.744 E36.31197
G1 X66.06 Y81.736 E36.33981
G1 X66.289 Y81.734 E36.36837
G1 X161.216 Y81.734 E48.20819
G1 X161.914 Y81.744 E48.29525
G1 X162.404 Y81.78 E48.35653
G1 F3000 E38.35653
;MESH:stock-large.obj
G0 F12000 X60.907 Y120.782
G0 X62.713 Y120.297
G0 X62.548 Y121.255
;TYPE:WALL-INNER
G1 F3000 E48.35653
G1 F720 X62.43 Y120.373 E48.46752
G1 X62.091 Y119.551 E48.57842
G1 X61.549 Y118.846 E48.68934
G1 X60.844 Y118.304 E48.80025
G1 X60.022 Y117.965 E48.91115
G1 X59.14 Y117.847 E49.02214
G1 X58.258 Y117.965 E49.13313
G1 X57.437 Y118.304 E49.24391
G1 X56.73 Y118.846 E49.35503
G1 X56.188 Y119.551 E49.46594
G1 X55.848 Y120.374 E49.577
G1 X55.732 Y121.255 E49.68783
G1 X55.848 Y122.136 E49.79867
G1 X56.188 Y122.958 E49.90961
G1 X56.73 Y123.665 E50.02073
G1 X57.437 Y124.206 E50.13176
G1 X58.258 Y124.546 E50.2426
G1 X59.14 Y124.663 E50.35357
G1 X60.022 Y124.546 E50.46454
G1 X60.844 Y124.206 E50.57549
G1 X61.549 Y123.665 E50.68632
G1 X62.091 Y122.958 E50.79744
G1 X62.43 Y122.137 E50.90822
G1 X62.548 Y121.255 E51.01921
G0 F12000 X61.943 Y121.255
;TYPE:WALL-OUTER
G1 F720 X61.846 Y120.53 E51.11044
G1 X61.567 Y119.854 E51.20165
G1 X61.121 Y119.274 E51.29291
G1 X60.541 Y118.828 E51.38417
G1 X59.865 Y118.549 E51.47538
G1 X59.14 Y118.452 E51.56661
G1 X58.415 Y118.549 E51.65784
G1 X57.739 Y118.828 E51.74906
G1 X57.158 Y119.274 E51.84041
G1 X56.712 Y119.854 E51.93167
G1 X56.433 Y120.53 E52.02288
G1 X56.337 Y121.255 E52.1141
G1 X56.433 Y121.98 E52.20531
G1 X56.712 Y122.656 E52.29652
G1 X57.158 Y123.237 E52.38788
G1 X57.739 Y123.682 E52.47916
G1 X58.415 Y123.962 E52.57042
G1 X59.14 Y124.058 E52.66163
G1 X59.865 Y123.962 E52.75285
G1 X60.541 Y123.682 E52.84411
G1 X61.121 Y123.237 E52.93529
G1 X61.567 Y122.656 E53.02664
G1 X61.846 Y121.98 E53.11786
G1 X61.943 Y121.255 E53.20909
G0 F12000 X62.603 Y121.255
G1 F3000 E43.20909
G0 F12000 X62.841 Y121.255
G0 X60.969 Y121.255
G0 X167.361 Y120.183
G0 X165.726 Y119.235
G0 X167.267 Y118.494
G0 X167.329 Y118.426
G0 X168.948 Y117.687
;TYPE:WALL-INNER
G1 F3000 E53.20909
G1 F720 X168.066 Y117.805 E53.32008
G1 X167.245 Y118.144 E53.43086
G1 X166.538 Y118.686 E53.54197
G1 X165.997 Y119.391 E53.65281
G1 X165.657 Y120.213 E53.76376
G1 X165.54 Y121.095 E53.87473
G1 X165.657 Y121.977 E53.9857
G1 X165.997 Y122.798 E54.09654
G1 X166.538 Y123.505 E54.20757
G1 X167.245 Y124.047 E54.31868
G1 X168.067 Y124.387 E54.42963
G1 X168.948 Y124.503 E54.54046
G1 X169.829 Y124.387 E54.6513
G1 X170.651 Y124.047 E54.76225
G1 X171.358 Y123.505 E54.87336
G1 X171.731 Y123.018 E54.94987
G1 X171.899 Y122.798 E54.98439
G1 X172.239 Y121.977 E55.09523
G1 X172.247 Y121.91 E55.10364
G1 X172.356 Y121.095 E55.2062
G1 X172.352 Y121.059 E55.21072
G1 X172.239 Y120.213 E55.31717
G1 X171.899 Y119.391 E55.42812
G1 X171.358 Y118.686 E55.53896
G1 X170.651 Y118.144 E55.65007
G1 X169.83 Y117.805 E55.76085
G1 X168.948 Y117.687 E55.87184
G0 F12000 X168.948 Y118.292
;TYPE:WALL-OUTER
G1 F720 X168.223 Y118.389 E55.96307
G1 X167.547 Y118.668 E56.05429
G1 X166.966 Y119.114 E56.14564
G1 X166.521 Y119.694 E56.23682
G1 X166.241 Y120.37 E56.32808
G1 X166.145 Y121.095 E56.4193
G1 X166.241 Y121.82 E56.51051
G1 X166.521 Y122.496 E56.60177
G1 X166.966 Y123.077 E56.69305
G1 X167.547 Y123.523 E56.78441
G1 X168.223 Y123.802 E56.87562
G1 X168.948 Y123.898 E56.96684
G1 X169.673 Y123.802 E57.05805
G1 X170.349 Y123.523 E57.14926
G1 X170.93 Y123.077 E57.24062
G1 X171.375 Y122.496 E57.3319
G1 X171.655 Y121.82 E57.42316
G1 X171.751 Y121.095 E57.51437
G1 X171.655 Y120.37 E57.60559
G1 X171.375 Y119.694 E57.69685
G1 X170.93 Y119.114 E57.78803
G1 X170.349 Y118.668 E57.87939
G1 X169.673 Y118.389 E57.9706
G1 X168.948 Y118.292 E58.06183
G0 F12000 X168.948 Y117.632
G1 F3000 E48.06183
G0 F12000 X167.377 Y118.372
G0 X166.724 Y118.872
G0 X166.225 Y119.524
G0 X165.911 Y120.282
G0 X165.802 Y121.095
G0 X165.911 Y121.908
G0 X166.225 Y122.666
G0 X166.724 Y123.319
G0 X168.053 Y124.657
G0 X171.551 Y123.698
G0 X171.83 Y123.396
G0 X171.438 Y124.056
G0 X167.619 Y128.072
G0 X163.227 Y130.673
G0 X163.163 Y163.134
;TYPE:WALL-INNER
G1 F3000 E58.06183
G1 F720 X162.864 Y163.134 E58.09912
G1 X64.56 Y163.134 E70.36014
G1 X64.559 Y160.934 E70.63454
G1 X64.761 Y160.934 E70.65973
G1 X64.761 Y130.521 E74.45301
G1 X60.156 Y127.793 E75.12059
G1 X57.118 Y125.375 E75.60487
G1 X56.072 Y124.226 E75.79867
G1 X55.336 Y123.115 E75.96489
G1 X54.897 Y122.023 E76.11168
G1 X54.806 Y121.574 E76.16882
G1 X54.767 Y121.069 E76.232
G1 X54.796 Y120.555 E76.29621
G1 X54.888 Y120.085 E76.35594
G1 X55.34 Y118.949 E76.50843
G1 X56.072 Y117.842 E76.67396
G1 X57.118 Y116.693 E76.86776
G1 X60.156 Y114.275 E77.35204
G1 X64.761 Y111.547 E78.01962
G1 X64.761 Y88.093 E80.94493
G1 X64.807 Y87.751 E80.98797
G1 X64.915 Y87.488 E81.02344
G1 X65.089 Y87.262 E81.05901
G1 X65.316 Y87.087 E81.09476
G1 X65.578 Y86.979 E81.13011
G1 X65.918 Y86.934 E81.17288
G1 X161.804 Y86.934 E93.13231
G1 X162.142 Y86.979 E93.17484
G1 X162.408 Y87.088 E93.2107
G1 X162.634 Y87.262 E93.24627
G1 X162.806 Y87.487 E93.28159
G1 X162.916 Y87.753 E93.3175
G1 X162.961 Y88.091 E93.36002
G1 X162.961 Y111.547 E96.28559
G1 X167.567 Y114.275 E96.95327
G1 X170.604 Y116.693 E97.43746
G1 X171.65 Y117.842 E97.63126
G1 X172.387 Y118.956 E97.79786
G1 X172.826 Y120.042 E97.94396
G1 X172.917 Y120.494 E98.00147
G1 X172.955 Y120.992 E98.06376
G1 X172.949 Y121.089 E98.07588
G1 X172.948 Y121.126 E98.08047
G1 X172.927 Y121.513 E98.12881
G1 X172.834 Y121.987 E98.18902
G1 X172.757 Y122.182 E98.21446
G1 X172.428 Y123.008 E98.31874
G1 X172.385 Y123.116 E98.33294
G1 X172.232 Y123.347 E98.36699
G1 X171.65 Y124.226 E98.49848
G1 X170.604 Y125.375 E98.69228
G1 X167.567 Y127.793 E99.17647
G1 X162.961 Y130.521 E99.84415
G1 X162.961 Y160.934 E103.63743
G1 X163.162 Y160.934 E103.6625
G1 X163.163 Y162.835 E103.8996
G1 X163.163 Y163.134 E103.92374
G0 F12000 X163.763 Y163.734
;TYPE:WALL-OUTER
G1 F720 X63.96 Y163.734 E116.37172
G1 X63.959 Y160.334 E116.79579
G1 X64.161 Y160.334 E116.82098
G1 X64.161 Y130.863 E120.49677
G1 X59.815 Y128.288 E121.12682
G1 X56.705 Y125.813 E121.62256
G1 X55.6 Y124.599 E121.82731
G1 X54.801 Y123.392 E122.00785
G1 X54.32 Y122.198 E122.1684
G1 X54.211 Y121.658 E122.23711
G1 X54.166 Y121.074 E122.31017
G1 X54.199 Y120.479 E122.38449
G1 X54.31 Y119.913 E122.45643
G1 X54.803 Y118.673 E122.62287
G1 X55.6 Y117.469 E122.80296
G1 X56.705 Y116.255 E123.00771
G1 X59.815 Y113.78 E123.50345
G1 X64.161 Y111.205 E124.13351
G1 X64.161 Y88.051 E127.0214
G1 X64.222 Y87.594 E127.0789
G1 X64.39 Y87.187 E127.13382
G1 X64.661 Y86.834 E127.18933
G1 X65.013 Y86.564 E127.24466
G1 X65.424 Y86.394 E127.30013
G1 X65.877 Y86.334 E127.35713
G1 X161.845 Y86.334 E139.32679
G1 X162.299 Y86.394 E139.3839
G1 X162.711 Y86.564 E139.43949
G1 X163.062 Y86.834 E139.49473
G1 X163.331 Y87.184 E139.54978
G1 X163.501 Y87.596 E139.60537
G1 X163.561 Y88.05 E139.66249
G1 X163.561 Y111.205 E142.55051
G1 X167.908 Y113.78 E143.18068
G1 X171.017 Y116.255 E143.67632
G1 X172.122 Y117.469 E143.88107
G1 X172.921 Y118.676 E144.06161
G1 X173.403 Y119.87 E144.2222
G1 X173.512 Y120.41 E144.29091
G1 X173.556 Y120.992 E144.36371
G1 X173.524 Y121.589 E144.43828
G1 X173.413 Y122.155 E144.51022
G1 X172.919 Y123.395 E144.6767
G1 X172.122 Y124.599 E144.85679
G1 X171.017 Y125.813 E145.06154
G1 X167.908 Y128.288 E145.55718
G1 X163.561 Y130.863 E146.18735
G1 X163.561 Y160.334 E149.86313
G1 X163.762 Y160.334 E149.8882
G1 X163.763 Y163.734 E150.31227
G0 F12000 X163.393 Y163.364
G0 X162.953 Y162.544
G0 X162.573 Y162.544
;TYPE:SKIN
G1 F720 X65.15 Y162.544 E162.4634
G1 X65.149 Y161.524 E162.59062
G1 X65.351 Y161.524 E162.61582
G1 X65.351 Y130.185 E166.52459
G1 X60.493 Y127.307 E167.22885
G1 X57.518 Y124.938 E167.70318
G1 X57.429 Y124.841 E167.7196
G1 X58.104 Y125.12 E167.8107
G1 X59.14 Y125.259 E167.94107
G1 X60.176 Y125.12 E168.07145
G1 X61.141 Y124.721 E168.20169
G1 X61.97 Y124.086 E168.33194
G1 X62.606 Y123.255 E168.46245
G1 X63.004 Y122.291 E168.59253
G1 X63.144 Y121.255 E168.72292
G1 X63.004 Y120.219 E168.85331
G1 X62.606 Y119.254 E168.98351
G1 X61.97 Y118.425 E169.11383
G1 X61.141 Y117.789 E169.24415
G1 X60.176 Y117.391 E169.37435
G1 X59.14 Y117.251 E169.50474
G1 X58.104 Y117.391 E169.63513
G1 X57.14 Y117.789 E169.76521
G1 X56.48 Y118.294 E169.86886
G1 X56.539 Y118.206 E169.88207
G1 X57.518 Y117.13 E170.06351
G1 X60.493 Y114.761 E170.53784
G1 X65.351 Y111.883 E171.24211
G1 X65.351 Y88.126 E174.20521
G1 X65.38 Y87.91 E174.23239
G1 X65.432 Y87.784 E174.2494
G1 X65.51 Y87.683 E174.26531
G1 X65.615 Y87.602 E174.28185
G1 X65.734 Y87.553 E174.2979
G1 X65.949 Y87.524 E174.32496
G1 X161.77 Y87.524 E186.27628
G1 X161.984 Y87.553 E186.30322
G1 X162.115 Y87.606 E186.32085
G1 X162.211 Y87.68 E186.33596
G1 X162.29 Y87.784 E186.35225
G1 X162.342 Y87.91 E186.36925
G1 X162.371 Y88.125 E186.39631
G1 X162.371 Y111.883 E189.35954
G1 X167.23 Y114.761 E190.06391
G1 X170.204 Y117.13 E190.53815
G1 X170.484 Y117.438 E190.59006
G1 X169.984 Y117.231 E190.65756
G1 X168.948 Y117.091 E190.78795
G1 X167.912 Y117.231 E190.91834
G1 X166.948 Y117.629 E191.04842
G1 X166.117 Y118.265 E191.17894
G1 X165.482 Y119.094 E191.30918
G1 X165.083 Y120.059 E191.43943
G1 X164.944 Y121.095 E191.5698
G1 X165.083 Y122.131 E191.70017
G1 X165.482 Y123.095 E191.8303
G1 X166.117 Y123.926 E191.96074
G1 X166.948 Y124.562 E192.09126
G1 X167.913 Y124.962 E192.22155
G1 X168.948 Y125.099 E192.35177
G1 X169.983 Y124.962 E192.48199
G1 X170.303 Y124.829 E192.52521
G1 X170.204 Y124.938 E192.54357
G1 X167.23 Y127.307 E193.01781
G1 X162.371 Y130.185 E193.72218
G1 X162.371 Y161.524 E197.63095
G1 X162.572 Y161.524 E197.65602
G1 X162.573 Y162.544 E197.78324
G1 F3000 E187.78324
G0 F12000 X162.953 Y162.544
G0 X162.685 Y130.363
G0 X167.412 Y127.569
G0 X170.42 Y125.176
G0 X171.438 Y124.056
G0 X171.83 Y123.396
G0 X168.948 Y124.776
G0 X165.76 Y122.935
G0 X165.76 Y119.254
G0 X168.948 Y117.414
G0 X172.181 Y119.258
G0 X172.148 Y119.087
G0 X171.434 Y118.007
G0 X170.42 Y116.892
G0 X167.412 Y114.499
G0 X162.685 Y111.705
G0 X162.652 Y87.823
G0 X162.442 Y87.456
G0 X162.141 Y87.284
G0 X161.585 Y87.144
G0 X161.585 Y87.763
G1 F3000 E197.78324
G1 F720 X162.13 Y88.308 E197.87937
G0 F12000 X162.13 Y89.156
G1 F720 X160.737 Y87.763 E198.12508
G0 F12000 X159.888 Y87.763
G1 F720 X162.13 Y90.005 E198.52054
G0 F12000 X162.13 Y90.854
G1 F720 X159.04 Y87.763 E199.06567
G0 F12000 X158.191 Y87.763
G1 F720 X162.13 Y91.702 E199.76047
G0 F12000 X162.13 Y92.551
G1 F720 X157.343 Y87.763 E200.60493
G0 F12000 X156.494 Y87.763
G1 F720 X162.13 Y93.399 E201.59905
G0 F12000 X162.13 Y94.248
G1 F720 X155.646 Y87.763 E202.74284
G0 F12000 X154.797 Y87.763
G1 F720 X162.13 Y95.096 E204.0363
G0 F12000 X162.13 Y95.945
G1 F720 X153.949 Y87.763 E205.47942
G0 F12000 X153.1 Y87.763
G1 F720 X162.13 Y96.793 E207.07221
