;FLAVOR:Marlin
;TIME:10265
;Filament used: 23.1989m
;Layer height: 0.4
;MINX:45.118
;MINY:66.1
;MINZ:0.5
;MAXX:174.882
;MAXY:153.9
;MAXZ:39.3
;Generated with Cura_SteamEngine 4.6.1
M140 S80
M105
M190 S80
M104 S245
M105
M109 S245
M82 ;absolute extrusion mode
; Ender 3 Custom Start G-code
G92 E0 ; Reset Extruder
G28 ; Home all axes
G1 Z2.0 F3000 ; Move Z Axis up little to prevent scratching of Heat Bed
G1 X0.1 Y20 Z0.3 F5000.0 ; Move to start position
G1 X0.1 Y200.0 Z0.3 F1500.0 E15 ; Draw the first line
G1 X0.4 Y200.0 Z0.3 F5000.0 ; Move to side a little
G1 X0.4 Y20 Z0.3 F1500.0 E30 ; Draw the second line
G92 E0 ; Reset Extruder
G1 Z2.0 F3000 ; Move Z Axis up little to prevent scratching of Heat Bed
G1 X5 Y20 Z0.3 F5000.0 ; Move over to prevent blob squish
G92 E0
G92 E0
G1 F3000 E-10
;LAYER_COUNT:98
;LAYER:0
M107
G0 F12000 X158.543 Y66.746 Z0.5
;TYPE:SKIRT
G1 F3000 E0
G1 F720 X159.037 Y66.81 E0.06213
G1 X159.612 Y66.924 E0.13524
G1 X160.052 Y67.07 E0.19306
G1 X160.466 Y67.232 E0.24851
G1 X160.996 Y67.482 E0.3216
G1 X161.338 Y67.694 E0.37179
G1 X161.765 Y67.988 E0.43645
G1 X162.224 Y68.353 E0.50959
G1 X162.58 Y68.719 E0.57328
G1 X162.898 Y69.087 E0.63394
G1 X163.25 Y69.555 E0.70698
G1 X163.503 Y70.001 E0.77093
G1 X163.739 Y70.481 E0.83764
G1 X163.961 Y71.023 E0.9107
G1 X164.126 Y71.696 E0.99712
G1 X164.425 Y73.558 E1.23234
G1 X164.865 Y76.246 E1.57206
G1 X165.387 Y78.937 E1.91395
G1 X165.976 Y81.578 E2.25145
G1 X166.638 Y84.195 E2.58813
G1 X167.37 Y86.782 E2.92347
G1 X168.188 Y89.389 E3.26426
G1 X169.072 Y91.944 E3.60147
G1 X170.026 Y94.47 E3.93824
G1 X171.058 Y96.988 E4.27766
G1 X172.155 Y99.46 E4.61497
G1 X173.209 Y101.682 E4.92171
G1 X173.596 Y102.598 E5.04574
G1 X173.808 Y103.146 E5.11902
G1 X173.991 Y103.745 E5.19714
G1 X174.12 Y104.313 E5.26979
G1 X174.182 Y104.647 E5.31216
G1 X174.217 Y104.888 E5.34254
G1 X174.255 Y105.256 E5.38868
G1 X174.283 Y105.737 E5.44877
G1 X174.281 Y106.27 E5.51525
G1 X174.239 Y106.907 E5.59488
G1 X174.162 Y107.48 E5.66699
G1 X174.049 Y108.036 E5.73775
G1 X173.855 Y108.706 E5.82475
G1 X173.478 Y109.692 E5.95641
G1 X173.244 Y110.244 E6.03119
G1 X173.056 Y110.66 E6.08813
G1 X171.945 Y113.205 E6.43448
G1 X170.914 Y115.755 E6.77755
G1 X170.008 Y118.207 E7.10358
G1 X169.124 Y120.815 E7.44704
G1 X168.325 Y123.41 E7.7857
G1 X167.613 Y125.983 E8.11868
G1 X166.959 Y128.631 E8.45888
G1 X166.376 Y131.31 E8.80084
G1 X165.883 Y133.948 E9.13556
G1 X165.461 Y136.611 E9.47185
G1 X165.113 Y139.298 E9.80978
G1 X164.843 Y141.973 E10.14512
G1 X164.646 Y144.689 E10.48476
G1 X164.527 Y147.408 E10.82422
G1 X164.492 Y148.986 E11.02108
G1 X164.446 Y149.618 E11.10012
G1 X164.321 Y150.191 E11.17327
G1 X164.119 Y150.741 E11.24635
G1 X163.845 Y151.259 E11.31944
G1 X163.502 Y151.734 E11.39251
G1 X163.098 Y152.159 E11.46565
G1 X162.64 Y152.525 E11.53877
G1 X162.137 Y152.825 E11.61182
G1 X161.597 Y153.054 E11.68498
G1 X161.031 Y153.207 E11.75811
G1 X160.326 Y153.288 E11.84662
G1 X159.872 Y153.3 E11.90326
G1 X60.451 Y153.3 E24.3036
G1 X59.753 Y153.291 E24.39066
G1 X59.168 Y153.243 E24.46387
G1 X58.596 Y153.117 E24.53692
G1 X58.046 Y152.913 E24.61009
G1 X57.529 Y152.637 E24.68319
G1 X57.054 Y152.294 E24.75626
G1 X56.631 Y151.888 E24.82939
G1 X56.266 Y151.429 E24.90253
G1 X55.967 Y150.925 E24.97563
G1 X55.74 Y150.385 E25.04869
G1 X55.588 Y149.818 E25.1219
G1 X55.51 Y149.107 E25.21112
G1 X55.451 Y146.915 E25.48461
G1 X55.313 Y144.136 E25.83165
G1 X55.106 Y141.463 E26.16604
G1 X54.815 Y138.738 E26.50785
G1 X54.457 Y136.08 E26.84236
G1 X54.02 Y133.422 E27.17834
G1 X53.5 Y130.733 E27.51994
G1 X52.921 Y128.131 E27.85241
G1 X52.258 Y125.501 E28.1907
G1 X51.518 Y122.885 E28.52979
G1 X50.697 Y120.27 E28.87164
G1 X49.822 Y117.731 E29.2066
G1 X48.869 Y115.205 E29.54333
G1 X47.845 Y112.705 E29.88029
G1 X46.756 Y110.242 E30.21617
G1 X46.401 Y109.398 E30.33037
G1 X46.19 Y108.851 E30.4035
G1 X46.009 Y108.255 E30.48119
G1 X45.88 Y107.687 E30.55383
G1 X45.815 Y107.336 E30.59836
G1 X45.779 Y107.081 E30.63048
G1 X45.744 Y106.722 E30.67547
G1 X45.717 Y106.243 E30.73531
G1 X45.72 Y105.708 E30.80203
G1 X45.763 Y105.079 E30.88067
G1 X45.815 Y104.644 E30.93531
G1 X45.887 Y104.254 E30.98478
G1 X45.965 Y103.898 E31.03023
G1 X46.146 Y103.288 E31.10959
G1 X46.531 Y102.285 E31.24359
G1 X46.723 Y101.829 E31.3053
G1 X46.818 Y101.619 E31.33405
G1 X46.938 Y101.372 E31.3683
G1 X48.097 Y98.907 E31.70804
G1 X49.17 Y96.447 E32.04278
G1 X50.188 Y93.922 E32.38234
G1 X51.125 Y91.394 E32.71861
G1 X52 Y88.809 E33.059
G1 X52.793 Y86.231 E33.39541
G1 X53.505 Y83.657 E33.72851
G1 X54.172 Y80.954 E34.07575
G1 X54.734 Y78.349 E34.40814
G1 X55.227 Y75.717 E34.74212
G1 X55.637 Y73.14 E35.06758
G1 X55.818 Y71.897 E35.22425
G1 X55.942 Y71.324 E35.29738
G1 X56.071 Y70.944 E35.34743
G1 X56.238 Y70.519 E35.40438
G1 X56.489 Y69.99 E35.47741
G1 X56.707 Y69.641 E35.52874
G1 X56.997 Y69.223 E35.59219
G1 X57.363 Y68.765 E35.66531
G1 X57.719 Y68.42 E35.72714
G1 X58.087 Y68.102 E35.78781
G1 X58.555 Y67.75 E35.86085
G1 X59.001 Y67.497 E35.9248
G1 X59.481 Y67.261 E35.99151
G1 X60.023 Y67.039 E36.06457
G1 X60.589 Y66.893 E36.13747
G1 X61.125 Y66.793 E36.20548
G1 X61.676 Y66.727 E36.27469
G1 X62.019 Y66.708 E36.31754
G1 X62.257 Y66.701 E36.34724
G1 X157.293 Y66.7 E48.20065
G1 X157.355 Y66.7 E48.20838
G1 X158.053 Y66.71 E48.29545
G1 X158.543 Y66.746 E48.35673
G0 F12000 X158.061 Y66.111
G1 F720 X158.621 Y66.151 E48.42675
G1 X159.115 Y66.215 E48.48888
G1 X159.729 Y66.334 E48.56689
G1 X160.271 Y66.511 E48.638
G1 X160.685 Y66.673 E48.69345
G1 X161.252 Y66.938 E48.77152
G1 X161.678 Y67.2 E48.83389
G1 X162.105 Y67.494 E48.89855
G1 X162.597 Y67.881 E48.97663
G1 X163.034 Y68.326 E49.05442
G1 X163.352 Y68.694 E49.11508
G1 X163.73 Y69.193 E49.19316
G1 X164.041 Y69.736 E49.27121
G1 X164.277 Y70.216 E49.33792
G1 X164.517 Y70.794 E49.41598
G1 X164.718 Y71.601 E49.51971
G1 X165.014 Y73.447 E49.75289
G1 X165.456 Y76.139 E50.09315
G1 X165.979 Y78.838 E50.43605
G1 X166.551 Y81.404 E50.76395
G1 X167.213 Y84.021 E51.10063
G1 X167.957 Y86.65 E51.44142
G1 X168.755 Y89.192 E51.77372
G1 X169.638 Y91.747 E52.11089
G1 X170.585 Y94.253 E52.44503
G1 X171.599 Y96.728 E52.77862
G1 X172.709 Y99.227 E53.11968
G1 X173.761 Y101.447 E53.42608
G1 X174.156 Y102.381 E53.55257
G1 X174.368 Y102.929 E53.62585
G1 X174.576 Y103.612 E53.7149
G1 X174.705 Y104.18 E53.78755
G1 X174.776 Y104.561 E53.83589
G1 X174.811 Y104.802 E53.86626
G1 X174.854 Y105.221 E53.9188
G1 X174.882 Y105.702 E53.97889
G1 X174.879 Y106.309 E54.0546
G1 X174.837 Y106.946 E54.13422
G1 X174.75 Y107.6 E54.21651
G1 X174.637 Y108.156 E54.28728
G1 X174.416 Y108.919 E54.38636
G1 X174.031 Y109.925 E54.5207
G1 X173.791 Y110.491 E54.59738
G1 X173.581 Y110.956 E54.66102
G1 X172.506 Y113.416 E54.99586
G1 X171.478 Y115.959 E55.33798
G1 X170.566 Y118.429 E55.66638
G1 X169.697 Y120.994 E56.00416
G1 X168.901 Y123.578 E56.34139
G1 X168.191 Y126.142 E56.67323
G1 X167.543 Y128.765 E57.01022
G1 X166.967 Y131.41 E57.34785
G1 X166.476 Y134.041 E57.68167
G1 X166.053 Y136.712 E58.01896
G1 X165.709 Y139.365 E58.35263
G1 X165.439 Y142.038 E58.68771
G1 X165.245 Y144.724 E59.0236
G1 X165.127 Y147.403 E59.35806
G1 X165.092 Y148.999 E59.55717
G1 X165.045 Y149.664 E59.64032
G1 X164.92 Y150.277 E59.71835
G1 X164.718 Y150.869 E59.79637
G1 X164.441 Y151.43 E59.87441
G1 X164.096 Y151.952 E59.95245
G1 X163.686 Y152.425 E60.03052
G1 X163.22 Y152.843 E60.1086
G1 X162.704 Y153.197 E60.18665
G1 X162.148 Y153.483 E60.26463
G1 X161.559 Y153.695 E60.34271
G1 X160.948 Y153.831 E60.42078
G1 X160.345 Y153.888 E60.49632
G1 X159.872 Y153.9 E60.55534
G1 X60.443 Y153.9 E72.95667
G1 X59.745 Y153.891 E73.04374
G1 X59.121 Y153.843 E73.1218
G1 X58.508 Y153.715 E73.1999
G1 X57.917 Y153.511 E73.27788
G1 X57.356 Y153.233 E73.35597
G1 X56.835 Y152.886 E73.43405
G1 X56.363 Y152.476 E73.51203
G1 X55.947 Y152.008 E73.59013
G1 X55.594 Y151.491 E73.66821
G1 X55.31 Y150.934 E73.74619
G1 X55.099 Y150.345 E73.82422
G1 X54.965 Y149.734 E73.90224
G1 X54.91 Y149.124 E73.97863
G1 X54.85 Y146.897 E74.2565
G1 X54.715 Y144.179 E74.59592
G1 X54.507 Y141.504 E74.93057
G1 X54.223 Y138.843 E75.26435
G1 X53.861 Y136.153 E75.60288
G1 X53.43 Y133.529 E75.93455
G1 X52.915 Y130.866 E76.27285
G1 X52.337 Y128.27 E76.60456
G1 X51.674 Y125.642 E76.94261
G1 X50.941 Y123.05 E77.27858
G1 X50.14 Y120.499 E77.61207
G1 X49.254 Y117.928 E77.95124
G1 X48.313 Y115.434 E78.28371
G1 X47.279 Y112.908 E78.62415
G1 X46.203 Y110.476 E78.95584
G1 X45.841 Y109.613 E79.07256
G1 X45.63 Y109.066 E79.14569
G1 X45.424 Y108.388 E79.23407
G1 X45.295 Y107.82 E79.30672
G1 X45.221 Y107.42 E79.35746
G1 X45.185 Y107.165 E79.38958
G1 X45.145 Y106.756 E79.44083
G1 X45.118 Y106.277 E79.50067
G1 X45.121 Y105.667 E79.57675
G1 X45.164 Y105.038 E79.65539
G1 X45.224 Y104.543 E79.71758
G1 X45.258 Y104.345 E79.74264
G1 X45.301 Y104.125 E79.7706
G1 X45.379 Y103.769 E79.81605
G1 X45.586 Y103.074 E79.9065
G1 X45.978 Y102.053 E80.04291
G1 X46.17 Y101.597 E80.10462
G1 X46.279 Y101.357 E80.13749
G1 X46.378 Y101.153 E80.16578
G1 X47.548 Y98.666 E80.50858
G1 X48.613 Y96.224 E80.84087
G1 X49.626 Y93.711 E81.17881
G1 X50.571 Y91.162 E81.51788
G1 X51.421 Y88.652 E81.8484
G1 X52.213 Y86.074 E82.18478
G1 X52.935 Y83.465 E82.52242
G1 X53.581 Y80.846 E82.85886
G1 X54.146 Y78.23 E83.19267
G1 X54.642 Y75.582 E83.52868
G1 X55.035 Y73.108 E83.84112
G1 X55.224 Y71.811 E84.0046
G1 X55.354 Y71.199 E84.08264
G1 X55.512 Y70.725 E84.14496
G1 X55.679 Y70.3 E84.20191
G1 X55.945 Y69.733 E84.28002
G1 X56.214 Y69.299 E84.34371
G1 X56.504 Y68.881 E84.40716
G1 X56.893 Y68.391 E84.4852
G1 X57.326 Y67.966 E84.56087
G1 X57.694 Y67.648 E84.62153
G1 X58.193 Y67.27 E84.69961
G1 X58.736 Y66.959 E84.77766
G1 X59.216 Y66.723 E84.84437
G1 X59.794 Y66.483 E84.92243
G1 X60.479 Y66.303 E85.01077
G1 X61.015 Y66.203 E85.07877
G1 X61.643 Y66.128 E85.15766
G1 X61.986 Y66.109 E85.20051
G1 X62.257 Y66.101 E85.23432
G1 X157.293 Y66.1 E97.08773
G1 X157.363 Y66.101 E97.09647
G1 X158.061 Y66.111 E97.18353
G1 F3000 E87.18353
;MESH:case-bostig-v1.1 v25.3mf
G0 F12000 X55.278 Y109.63
;TYPE:WALL-INNER
G1 F3000 E97.18353
G1 F720 X56.16 Y109.512 E97.29452
G1 X56.981 Y109.173 E97.40531
G1 X57.688 Y108.631 E97.51642
G1 X58.229 Y107.926 E97.62726
G1 X58.569 Y107.104 E97.7382
G1 X58.686 Y106.222 E97.84918
G1 X58.569 Y105.34 E97.96015
G1 X58.229 Y104.519 E98.07098
G1 X57.688 Y103.812 E98.18202
G1 X56.981 Y103.27 E98.29313
G1 X56.159 Y102.93 E98.40408
G1 X55.278 Y102.814 E98.51491
G1 X54.397 Y102.93 E98.62574
G1 X53.575 Y103.27 E98.73669
G1 X52.868 Y103.812 E98.8478
G1 X52.327 Y104.519 E98.95884
G1 X51.987 Y105.34 E99.06967
G1 X51.87 Y106.222 E99.18064
G1 X51.987 Y107.104 E99.29161
G1 X52.327 Y107.926 E99.40256
G1 X52.868 Y108.631 E99.5134
G1 X53.575 Y109.173 E99.62451
G1 X54.396 Y109.512 E99.7353
G1 X55.278 Y109.63 E99.84628
G0 F12000 X55.278 Y109.025
;TYPE:WALL-OUTER
G1 F720 X56.003 Y108.928 E99.93752
G1 X56.679 Y108.649 E100.02873
G1 X57.26 Y108.203 E100.12008
G1 X57.705 Y107.623 E100.21126
G1 X57.985 Y106.947 E100.30252
G1 X58.081 Y106.222 E100.39374
G1 X57.985 Y105.497 E100.48495
G1 X57.705 Y104.821 E100.57622
G1 X57.26 Y104.24 E100.66749
G1 X56.679 Y103.794 E100.75885
G1 X56.003 Y103.515 E100.85006
G1 X55.278 Y103.419 E100.94128
G1 X54.553 Y103.515 E101.03249
G1 X53.877 Y103.794 E101.12371
G1 X53.296 Y104.24 E101.21506
G1 X52.851 Y104.821 E101.30634
G1 X52.571 Y105.497 E101.3976
G1 X52.475 Y106.222 E101.48882
G1 X52.571 Y106.947 E101.58003
G1 X52.851 Y107.623 E101.67129
G1 X53.296 Y108.203 E101.76247
G1 X53.877 Y108.649 E101.85383
G1 X54.553 Y108.928 E101.94504
G1 X55.278 Y109.025 E102.03627
G0 F12000 X55.278 Y109.685
G1 F3000 E92.03627
G0 F12000 X165.087 Y109.47
;TYPE:WALL-INNER
G1 F3000 E102.03627
G1 F720 X165.969 Y109.352 E102.14726
G1 X166.791 Y109.013 E102.25816
G1 X167.496 Y108.471 E102.36907
G1 X167.86 Y107.999 E102.44342
G1 X168.038 Y107.767 E102.47989
G1 X168.378 Y106.944 E102.59095
G1 X168.381 Y106.919 E102.59409
G1 X168.495 Y106.062 E102.70193
G1 X168.495 Y106.058 E102.70242
G1 X168.378 Y105.18 E102.8129
G1 X168.038 Y104.358 E102.92385
G1 X167.496 Y103.652 E103.03486
G1 X166.791 Y103.111 E103.1457
G1 X165.969 Y102.771 E103.25665
G1 X165.087 Y102.654 E103.36762
G1 X164.205 Y102.771 E103.47859
G1 X163.384 Y103.111 E103.58942
G1 X162.677 Y103.652 E103.70046
G1 X162.136 Y104.359 E103.8115
G1 X161.796 Y105.18 E103.92233
G1 X161.679 Y106.062 E104.0333
G1 X161.796 Y106.944 E104.14427
G1 X162.136 Y107.766 E104.25522
G1 X162.677 Y108.471 E104.36606
G1 X163.384 Y109.013 E104.47717
G1 X164.205 Y109.352 E104.58796
G1 X165.087 Y109.47 E104.69894
G0 F12000 X165.087 Y108.865
;TYPE:WALL-OUTER
G1 F720 X165.812 Y108.768 E104.79018
G1 X166.488 Y108.489 E104.88139
G1 X167.068 Y108.043 E104.97265
G1 X167.514 Y107.464 E105.0638
G1 X167.794 Y106.787 E105.15518
G1 X167.89 Y106.062 E105.24639
G1 X167.794 Y105.337 E105.33761
G1 X167.514 Y104.661 E105.42887
G1 X167.068 Y104.08 E105.52022
G1 X166.488 Y103.635 E105.6114
G1 X165.812 Y103.355 E105.70267
G1 X165.087 Y103.259 E105.79388
G1 X164.362 Y103.355 E105.8851
G1 X163.686 Y103.635 E105.97636
G1 X163.105 Y104.08 E106.06764
G1 X162.66 Y104.661 E106.15891
G1 X162.38 Y105.337 E106.25018
G1 X162.284 Y106.062 E106.34139
G1 X162.38 Y106.787 E106.43261
G1 X162.66 Y107.463 E106.52387
G1 X163.105 Y108.043 E106.61505
G1 X163.686 Y108.489 E106.7064
G1 X164.362 Y108.768 E106.79761
G1 X165.087 Y108.865 E106.88885
G0 F12000 X165.087 Y109.525
G1 F3000 E96.88885
G0 F12000 X159.302 Y148.1
;TYPE:WALL-INNER
G1 F3000 E106.88885
G1 F720 X159.003 Y148.1 E106.92614
G1 X60.699 Y148.1 E119.18716
G1 X60.698 Y146.9 E119.33683
G1 X60.9 Y146.9 E119.36202
G1 X60.9 Y115.487 E123.28002
G1 X56.294 Y112.759 E123.94771
G1 X53.257 Y110.341 E124.4319
G1 X52.211 Y109.192 E124.6257
G1 X51.473 Y108.077 E124.79247
G1 X51.037 Y106.996 E124.93785
G1 X50.935 Y106.501 E125.00089
G1 X50.902 Y106 E125.06351
G1 X50.935 Y105.499 E125.12613
G1 X51.037 Y105.004 E125.18917
G1 X51.473 Y103.923 E125.33455
G1 X52.211 Y102.808 E125.50132
G1 X53.257 Y101.659 E125.69512
G1 X56.294 Y99.241 E126.17931
G1 X60.9 Y96.513 E126.84699
G1 X60.9 Y73.057 E129.77256
G1 X60.945 Y72.719 E129.81508
G1 X61.055 Y72.452 E129.8511
G1 X61.228 Y72.228 E129.8864
G1 X61.452 Y72.055 E129.9217
G1 X61.719 Y71.945 E129.95772
G1 X62.057 Y71.9 E130.00025
G1 X157.943 Y71.9 E141.95968
G1 X158.281 Y71.945 E142.00221
G1 X158.548 Y72.055 E142.03823
G1 X158.772 Y72.228 E142.07353
G1 X158.945 Y72.452 E142.10883
G1 X159.055 Y72.719 E142.14485
G1 X159.1 Y73.057 E142.18737
G1 X159.1 Y96.513 E145.11294
G1 X163.706 Y99.241 E145.78062
G1 X166.743 Y101.659 E146.26481
G1 X167.789 Y102.808 E146.45861
G1 X168.527 Y103.923 E146.62538
G1 X168.963 Y105.004 E146.77076
G1 X169.065 Y105.499 E146.8338
G1 X169.098 Y106 E146.89642
G1 X169.092 Y106.096 E146.90842
G1 X169.092 Y106.101 E146.90904
G1 X169.065 Y106.501 E146.95905
G1 X168.963 Y106.996 E147.02205
G1 X168.9 Y107.153 E147.04266
G1 X168.567 Y107.98 E147.14775
G1 X168.527 Y108.077 E147.16057
G1 X168.521 Y108.086 E147.16191
G1 X168.36 Y108.33 E147.19774
G1 X167.789 Y109.192 E147.3267
G1 X166.743 Y110.341 E147.5205
G1 X163.706 Y112.759 E148.00468
G1 X159.1 Y115.487 E148.67237
G1 X159.1 Y146.9 E152.59037
G1 X159.301 Y146.9 E152.61544
G1 X159.302 Y147.801 E152.72782
G1 X159.302 Y148.1 E152.75196
G0 F12000 X159.902 Y148.7
;TYPE:WALL-OUTER
G1 F720 X60.099 Y148.7 E165.19993
G1 X60.098 Y146.3 E165.49928
G1 X60.3 Y146.3 E165.52447
G1 X60.3 Y115.829 E169.32498
G1 X55.953 Y113.254 E169.95515
G1 X52.844 Y110.779 E170.45079
G1 X51.739 Y109.565 E170.65554
G1 X50.94 Y108.358 E170.83608
G1 X50.459 Y107.165 E170.99651
G1 X50.339 Y106.582 E171.07075
G1 X50.3 Y106 E171.14351
G1 X50.339 Y105.418 E171.21626
G1 X50.459 Y104.835 E171.2905
G1 X50.94 Y103.642 E171.45094
G1 X51.739 Y102.435 E171.63147
G1 X52.844 Y101.221 E171.83622
G1 X55.953 Y98.746 E172.33186
G1 X60.3 Y96.171 E172.96203
G1 X60.3 Y73.016 E175.85005
G1 X60.36 Y72.562 E175.90717
G1 X60.529 Y72.152 E175.96248
G1 X60.8 Y71.8 E176.01789
G1 X61.152 Y71.529 E176.07329
G1 X61.562 Y71.36 E176.12861
G1 X62.016 Y71.3 E176.18572
G1 X157.984 Y71.3 E188.15538
G1 X158.438 Y71.36 E188.2125
