; generated by PrusaSlicer 2.1.0+ on 2020-05-01 at 03:57:28 UTC

; 

; external perimeters extrusion width = 0.60mm
; perimeters extrusion width = 0.60mm
; infill extrusion width = 0.60mm
; solid infill extrusion width = 0.60mm
; top infill extrusion width = 0.60mm
; first layer extrusion width = 0.60mm

M201 X9000 Y9000 Z500 E10000 ; sets maximum accelerations, mm/sec^2
M203 X500 Y500 Z12 E120 ; sets maximum feedrates, mm/sec
M204 P1500 R1500 T1500 ; sets acceleration (P, T) and retract acceleration (R), mm/sec^2
M205 X10.00 Y10.00 Z0.20 E2.50 ; sets the jerk limits, mm/sec
M205 S0 T0 ; sets the minimum extruding and travel feed rate, mm/sec
M107 ; disable fan
M190 S80 ; set bed temperature and wait for it to be reached
M104 S245 ; set temperature
; Ender 3 Custom Start G-code
G92 E0 ; Reset Extruder
G28 ; Home all axes
G1 Z2.0 F3000 ; Move Z Axis up little to prevent scratching of Heat Bed
G1 X0.1 Y20 Z0.3 F5000.0 ; Move to start position
G1 X0.1 Y200.0 Z0.3 F1500.0 E15 ; Draw the first line
G1 X0.4 Y200.0 Z0.3 F5000.0 ; Move to side a little
G1 X0.4 Y20 Z0.3 F1500.0 E30 ; Draw the second line
G92 E0 ; Reset Extruder
G1 Z2.0 F3000 ; Move Z Axis up little to prevent scratching of Heat Bed
G1 X5 Y20 Z0.3 F5000.0 ; Move over to prevent blob squish
M109 S245 ; set temperature and wait for it to be reached
G21 ; set units to millimeters
G90 ; use absolute coordinates
M82 ; use absolute distances for extrusion
G92 E0 ; reset extrusion distance
; Filament gcode
G1 Z0.400 F12000.000 ; move to next layer (0)
G1 E-10.00000 F3000.00000 ; retract
G92 E0 ; reset extrusion distance
G1 X56.686 Y69.699 F12000.000 ; move to first skirt point
G1 E10.00000 F3000.00000 ; unretract
G1 F720
G1 X57.336 Y68.836 E10.09239 ; skirt
G1 X57.852 Y68.322 E10.15464 ; skirt
G1 X58.852 Y67.592 E10.26049 ; skirt
G1 X59.948 Y67.097 E10.36328 ; skirt
G1 X60.737 Y66.877 E10.43335 ; skirt
G1 X61.932 Y66.743 E10.53616 ; skirt
G1 X158.005 Y66.743 E18.75088 ; skirt
G1 X159.687 Y66.975 E18.89602 ; skirt
G1 X160.713 Y67.371 E18.99013 ; skirt
G1 X161.297 Y67.684 E19.04674 ; skirt
G1 X162.129 Y68.307 E19.13565 ; skirt
G1 X162.605 Y68.767 E19.19225 ; skirt
G1 X163.281 Y69.649 E19.28726 ; skirt
G1 X163.662 Y70.363 E19.35645 ; skirt
G1 X164.000 Y71.227 E19.43577 ; skirt
G1 X173.909 Y103.531 E22.32493 ; skirt
G1 X174.166 Y104.732 E22.42998 ; skirt
G1 X174.250 Y105.757 E22.51791 ; skirt
G1 X174.189 Y107.091 E22.63212 ; skirt
G1 X173.984 Y108.183 E22.72711 ; skirt
G1 X164.296 Y150.010 E26.39820 ; skirt
G1 X164.085 Y150.648 E26.45568 ; skirt
G1 X163.774 Y151.250 E26.51358 ; skirt
G1 X163.375 Y151.791 E26.57105 ; skirt
G1 X162.896 Y152.262 E26.62853 ; skirt
G1 X162.300 Y152.680 E26.69078 ; skirt
G1 X161.637 Y152.993 E26.75346 ; skirt
G1 X160.930 Y153.187 E26.81615 ; skirt
G1 X160.200 Y153.257 E26.87883 ; skirt
G1 X59.819 Y153.257 E35.46190 ; skirt
G1 X58.904 Y153.153 E35.54064 ; skirt
G1 X58.033 Y152.855 E35.61937 ; skirt
G1 X57.246 Y152.376 E35.69811 ; skirt
G1 X56.578 Y151.736 E35.77727 ; skirt
G1 X56.033 Y150.907 E35.86207 ; skirt
G1 X55.697 Y149.979 E35.94644 ; skirt
G1 X46.017 Y108.186 E39.61460 ; skirt
G1 X45.816 Y107.136 E39.70594 ; skirt
G1 X45.743 Y105.937 E39.80867 ; skirt
G1 X45.828 Y104.772 E39.90856 ; skirt
G1 X46.087 Y103.545 E40.01575 ; skirt
G1 X56.015 Y71.180 E42.91040 ; skirt
G1 X56.649 Y69.781 E43.04179 ; skirt
G1 E33.04179 F3000.00000 ; retract
G92 E0 ; reset extrusion distance
G1 X56.138 Y109.430 F12000.000 ; move to first perimeter point
G1 E10.00000 F3000.00000 ; unretract
G1 F720
G1 X55.278 Y109.543 E10.07413 ; perimeter
G1 X54.419 Y109.430 E10.14827 ; perimeter
G1 X53.618 Y109.098 E10.22240 ; perimeter
G1 X52.930 Y108.570 E10.29653 ; perimeter
G1 X52.402 Y107.882 E10.37067 ; perimeter
G1 X52.089 Y107.128 E10.44051 ; perimeter
G1 X51.956 Y106.228 E10.51824 ; perimeter
G1 X52.070 Y105.362 E10.59295 ; perimeter
G1 X52.402 Y104.561 E10.66708 ; perimeter
G1 X52.930 Y103.873 E10.74121 ; perimeter
G1 X53.618 Y103.345 E10.81535 ; perimeter
G1 X54.419 Y103.014 E10.88948 ; perimeter
G1 X55.228 Y102.907 E10.95932 ; perimeter
G1 X56.132 Y103.011 E11.03706 ; perimeter
G1 X56.939 Y103.345 E11.11176 ; perimeter
G1 X57.627 Y103.873 E11.18590 ; perimeter
G1 X58.154 Y104.561 E11.26003 ; perimeter
G1 X58.486 Y105.362 E11.33416 ; perimeter
G1 X58.599 Y106.222 E11.40830 ; perimeter
G1 X58.486 Y107.081 E11.48243 ; perimeter
G1 X58.154 Y107.882 E11.55656 ; perimeter
G1 X57.627 Y108.570 E11.63070 ; perimeter
G1 X56.939 Y109.098 E11.70483 ; perimeter
G1 X56.221 Y109.395 E11.77127 ; perimeter
G1 X56.004 Y108.929 F12000.000 ; move to first perimeter point
G1 F720
G1 X55.278 Y109.024 E11.83382 ; perimeter
G1 X54.553 Y108.929 E11.89638 ; perimeter
G1 X53.877 Y108.649 E11.95894 ; perimeter
G1 X53.296 Y108.203 E12.02150 ; perimeter
G1 X52.851 Y107.623 E12.08405 ; perimeter
G1 X52.589 Y106.989 E12.14268 ; perimeter
G1 X52.475 Y106.224 E12.20884 ; perimeter
G1 X52.571 Y105.496 E12.27161 ; perimeter
G1 X52.851 Y104.820 E12.33417 ; perimeter
G1 X53.296 Y104.240 E12.39672 ; perimeter
G1 X53.877 Y103.794 E12.45928 ; perimeter
G1 X54.553 Y103.514 E12.52184 ; perimeter
G1 X55.233 Y103.425 E12.58046 ; perimeter
G1 X56.001 Y103.514 E12.64662 ; perimeter
G1 X56.679 Y103.794 E12.70939 ; perimeter
G1 X57.260 Y104.240 E12.77195 ; perimeter
G1 X57.705 Y104.820 E12.83451 ; perimeter
G1 X57.985 Y105.496 E12.89706 ; perimeter
G1 X58.081 Y106.222 E12.95962 ; perimeter
G1 X57.985 Y106.947 E13.02218 ; perimeter
G1 X57.705 Y107.623 E13.08474 ; perimeter
G1 X57.260 Y108.203 E13.14729 ; perimeter
G1 X56.679 Y108.649 E13.20985 ; perimeter
G1 X56.087 Y108.894 E13.26471 ; perimeter
G1 X55.848 Y109.508 F12000.000 ; move inwards before travel
G1 E3.26471 F3000.00000 ; retract
G92 E0 ; reset extrusion distance
G1 X164.227 Y109.270 F12000.000 ; move to first perimeter point
G1 E10.00000 F3000.00000 ; unretract
G1 F720
G1 X163.426 Y108.938 E10.07413 ; perimeter
G1 X162.738 Y108.410 E10.14827 ; perimeter
G1 X162.210 Y107.722 E10.22240 ; perimeter
G1 X161.879 Y106.921 E10.29653 ; perimeter
G1 X161.766 Y106.062 E10.37067 ; perimeter
G1 X161.879 Y105.202 E10.44480 ; perimeter
G1 X162.210 Y104.401 E10.51893 ; perimeter
G1 X162.738 Y103.713 E10.59307 ; perimeter
G1 X163.426 Y103.185 E10.66720 ; perimeter
G1 X164.227 Y102.854 E10.74133 ; perimeter
G1 X165.037 Y102.747 E10.81117 ; perimeter
G1 X165.940 Y102.851 E10.88891 ; perimeter
G1 X166.747 Y103.185 E10.96361 ; perimeter
G1 X167.435 Y103.713 E11.03775 ; perimeter
G1 X167.963 Y104.401 E11.11188 ; perimeter
G1 X168.295 Y105.202 E11.18601 ; perimeter
G1 X168.408 Y106.062 E11.26015 ; perimeter
G1 X168.295 Y106.921 E11.33428 ; perimeter
G1 X167.963 Y107.722 E11.40841 ; perimeter
G1 X167.435 Y108.410 E11.48255 ; perimeter
G1 X166.747 Y108.938 E11.55668 ; perimeter
G1 X165.946 Y109.270 E11.63081 ; perimeter
G1 X165.087 Y109.383 E11.70495 ; perimeter
G1 X164.316 Y109.281 E11.77138 ; perimeter
G1 X164.361 Y108.769 F12000.000 ; move to first perimeter point
G1 F720
G1 X163.685 Y108.489 E11.83394 ; perimeter
G1 X163.105 Y108.043 E11.89650 ; perimeter
G1 X162.660 Y107.463 E11.95906 ; perimeter
G1 X162.380 Y106.787 E12.02161 ; perimeter
G1 X162.284 Y106.062 E12.08417 ; perimeter
G1 X162.380 Y105.336 E12.14673 ; perimeter
G1 X162.660 Y104.660 E12.20929 ; perimeter
G1 X163.105 Y104.080 E12.27184 ; perimeter
G1 X163.685 Y103.635 E12.33440 ; perimeter
G1 X164.361 Y103.355 E12.39696 ; perimeter
G1 X165.041 Y103.265 E12.45558 ; perimeter
G1 X165.810 Y103.354 E12.52174 ; perimeter
G1 X166.488 Y103.635 E12.58451 ; perimeter
G1 X167.068 Y104.080 E12.64707 ; perimeter
G1 X167.514 Y104.660 E12.70963 ; perimeter
G1 X167.794 Y105.336 E12.77218 ; perimeter
G1 X167.889 Y106.062 E12.83474 ; perimeter
G1 X167.794 Y106.787 E12.89730 ; perimeter
G1 X167.514 Y107.463 E12.95986 ; perimeter
G1 X167.068 Y108.043 E13.02241 ; perimeter
G1 X166.488 Y108.489 E13.08497 ; perimeter
G1 X165.812 Y108.769 E13.14753 ; perimeter
G1 X165.087 Y108.864 E13.21009 ; perimeter
G1 X164.451 Y108.781 E13.26495 ; perimeter
G1 X163.937 Y109.193 F12000.000 ; move inwards before travel
G1 E3.26495 F3000.00000 ; retract
G92 E0 ; reset extrusion distance
G1 X110.000 Y148.186 F12000.000 ; move to first perimeter point
G1 E10.00000 F3000.00000 ; unretract
G1 F720
G1 X60.654 Y148.186 E14.21936 ; perimeter
G1 X60.654 Y146.814 E14.33664 ; perimeter
G1 X60.814 Y146.814 E14.35036 ; perimeter
G1 X60.814 Y115.536 E17.02480 ; perimeter
G1 X56.243 Y112.828 E17.47906 ; perimeter
G1 X53.197 Y110.404 E17.81194 ; perimeter
G1 X52.146 Y109.248 E17.94549 ; perimeter
G1 X51.398 Y108.119 E18.06132 ; perimeter
G1 X50.953 Y107.015 E18.16315 ; perimeter
G1 X50.851 Y106.516 E18.20667 ; perimeter
G1 X50.816 Y106.000 E18.25088 ; perimeter
G1 X50.851 Y105.484 E18.29508 ; perimeter
G1 X50.953 Y104.985 E18.33860 ; perimeter
G1 X51.398 Y103.881 E18.44044 ; perimeter
G1 X52.146 Y102.752 E18.55626 ; perimeter
G1 X53.197 Y101.596 E18.68981 ; perimeter
G1 X56.243 Y99.172 E19.02270 ; perimeter
G1 X60.814 Y96.464 E19.47696 ; perimeter
G1 X60.814 Y73.053 E21.47868 ; perimeter
G1 X60.861 Y72.695 E21.50960 ; perimeter
G1 X60.979 Y72.411 E21.53591 ; perimeter
G1 X61.166 Y72.166 E21.56222 ; perimeter
G1 X61.411 Y71.979 E21.58853 ; perimeter
G1 X61.695 Y71.861 E21.61485 ; perimeter
G1 X62.053 Y71.814 E21.64576 ; perimeter
G1 X157.949 Y71.815 E29.84534 ; perimeter
G1 X158.305 Y71.861 E29.87603 ; perimeter
G1 X158.589 Y71.979 E29.90235 ; perimeter
G1 X158.834 Y72.166 E29.92866 ; perimeter
G1 X159.021 Y72.411 E29.95497 ; perimeter
G1 X159.139 Y72.695 E29.98128 ; perimeter
G1 X159.186 Y73.053 E30.01220 ; perimeter
G1 X159.186 Y96.464 E32.01392 ; perimeter
G1 X163.757 Y99.172 E32.46818 ; perimeter
G1 X166.803 Y101.596 E32.80107 ; perimeter
G1 X167.854 Y102.752 E32.93462 ; perimeter
G1 X168.602 Y103.881 E33.05044 ; perimeter
G1 X169.047 Y104.985 E33.15228 ; perimeter
G1 X169.149 Y105.484 E33.19580 ; perimeter
G1 X169.184 Y106.000 E33.24000 ; perimeter
G1 X169.149 Y106.516 E33.28421 ; perimeter
G1 X169.047 Y107.015 E33.32773 ; perimeter
G1 X168.602 Y108.119 E33.42956 ; perimeter
G1 X167.854 Y109.248 E33.54539 ; perimeter
G1 X166.803 Y110.404 E33.67894 ; perimeter
G1 X163.757 Y112.828 E34.01182 ; perimeter
G1 X159.186 Y115.536 E34.46608 ; perimeter
G1 X159.186 Y146.814 E37.14052 ; perimeter
G1 X159.346 Y146.814 E37.15424 ; perimeter
G1 X159.346 Y148.186 E37.27152 ; perimeter
G1 X110.090 Y148.186 E41.48318 ; perimeter
G1 X110.000 Y148.700 F12000.000 ; move to first perimeter point
G1 F720
G1 X60.140 Y148.700 E45.74650 ; perimeter
G1 X60.140 Y146.300 E45.95171 ; perimeter
G1 X60.300 Y146.300 E45.96543 ; perimeter
G1 X60.300 Y115.829 E48.57085 ; perimeter
G1 X55.951 Y113.252 E49.00309 ; perimeter
G1 X52.845 Y110.780 E49.34253 ; perimeter
G1 X51.739 Y109.565 E49.48298 ; perimeter
G1 X50.941 Y108.360 E49.60663 ; perimeter
G1 X50.458 Y107.163 E49.71694 ; perimeter
G1 X50.340 Y106.585 E49.76741 ; perimeter
G1 X50.301 Y106.000 E49.81753 ; perimeter
G1 X50.340 Y105.415 E49.86764 ; perimeter
G1 X50.458 Y104.837 E49.91812 ; perimeter
G1 X50.941 Y103.640 E50.02843 ; perimeter
G1 X51.739 Y102.435 E50.15207 ; perimeter
G1 X52.845 Y101.220 E50.29253 ; perimeter
G1 X55.951 Y98.748 E50.63197 ; perimeter
G1 X60.300 Y96.171 E51.06420 ; perimeter
G1 X60.300 Y73.020 E53.04375 ; perimeter
G1 X60.360 Y72.561 E53.08334 ; perimeter
G1 X60.530 Y72.151 E53.12123 ; perimeter
G1 X60.800 Y71.800 E53.15911 ; perimeter
G1 X61.151 Y71.530 E53.19700 ; perimeter
G1 X61.561 Y71.360 E53.23489 ; perimeter
G1 X62.020 Y71.300 E53.27448 ; perimeter
G1 X157.983 Y71.300 E61.47982 ; perimeter
G1 X158.439 Y71.360 E61.51918 ; perimeter
G1 X158.849 Y71.530 E61.55707 ; perimeter
G1 X159.200 Y71.800 E61.59496 ; perimeter
G1 X159.470 Y72.151 E61.63284 ; perimeter
G1 X159.640 Y72.561 E61.67073 ; perimeter
G1 X159.700 Y73.020 E61.71032 ; perimeter
G1 X159.700 Y96.171 E63.68987 ; perimeter
G1 X164.049 Y98.748 E64.12210 ; perimeter
G1 X167.155 Y101.220 E64.46154 ; perimeter
G1 X168.261 Y102.435 E64.60200 ; perimeter
G1 X169.059 Y103.640 E64.72564 ; perimeter
G1 X169.542 Y104.837 E64.83595 ; perimeter
G1 X169.660 Y105.415 E64.88643 ; perimeter
G1 X169.699 Y106.000 E64.93654 ; perimeter
G1 X169.660 Y106.585 E64.98666 ; perimeter
G1 X169.542 Y107.163 E65.03714 ; perimeter
G1 X169.059 Y108.360 E65.14744 ; perimeter
G1 X168.261 Y109.565 E65.27109 ; perimeter
G1 X167.155 Y110.780 E65.41154 ; perimeter
G1 X164.049 Y113.252 E65.75099 ; perimeter
G1 X159.700 Y115.829 E66.18322 ; perimeter
G1 X159.700 Y146.300 E68.78864 ; perimeter
G1 X159.860 Y146.300 E68.80236 ; perimeter
G1 X159.860 Y148.700 E69.00757 ; perimeter
G1 X110.090 Y148.700 E73.26319 ; perimeter
G1 X109.692 Y148.185 F12000.000 ; move inwards before travel
G1 E63.26319 F3000.00000 ; retract
G92 E0 ; reset extrusion distance
G1 X101.276 Y148.032 F12000.000 ; move to first infill point
G1 E10.00000 F3000.00000 ; unretract
G1 F720
G1 X58.916 Y105.671 E15.14307 ; infill
G1 X58.988 Y106.222 E15.19071 ; infill
G1 X58.959 Y106.444 E15.21002 ; infill
G1 X100.315 Y147.800 E20.23112 ; infill
G1 X99.585 Y147.800 E20.29380 ; infill
G1 X58.874 Y107.090 E25.23657 ; infill
G1 X58.862 Y107.182 E25.24456 ; infill
G1 X58.679 Y107.624 E25.28567 ; infill
G1 X98.855 Y147.800 E30.16353 ; infill
G1 X98.124 Y147.800 E30.22621 ; infill
G1 X58.452 Y108.128 E35.04294 ; infill
G1 X58.135 Y108.541 E35.08765 ; infill
G1 X97.394 Y147.800 E39.85422 ; infill
G1 X96.664 Y147.800 E39.91690 ; infill
G1 X57.793 Y108.929 E44.63640 ; infill
G1 X57.380 Y109.246 E44.68111 ; infill
G1 X95.934 Y147.800 E49.36212 ; infill
G1 X95.204 Y147.800 E49.42480 ; infill
G1 X56.925 Y109.521 E54.07238 ; infill
G1 X56.409 Y109.735 E54.12036 ; infill
G1 X94.474 Y147.800 E58.74198 ; infill
G1 X93.744 Y147.800 E58.80466 ; infill
G1 X55.806 Y109.862 E63.41081 ; infill
G1 X55.278 Y109.932 E63.45651 ; infill
G1 X55.125 Y109.912 E63.46976 ; infill
G1 X60.216 Y115.002 E64.08786 ; infill
G1 X58.425 Y113.941 F12000.000 ; move to first infill point
G1 F720
G1 X53.841 Y109.357 E64.64441 ; infill
G1 X52.508 Y108.755 F12000.000 ; move to first infill point
G1 F720
G1 X56.633 Y112.880 E65.14525 ; infill
G1 X52.367 Y108.666 F12000.000 ; move to first infill point
G1 F720
G1 X51.998 Y108.149 E65.19588 ; infill
G1 X51.851 Y107.881 E65.21910 ; infill
G1 X51.669 Y107.436 E65.25553 ; infill
G1 X51.729 Y107.245 F12000.000 ; move to first infill point
G1 F720
G1 X51.307 Y106.824 E65.30670 ; infill
G1 X51.234 Y106.464 E65.33821 ; infill
G1 X51.203 Y105.990 E65.37903 ; infill
G1 X51.588 Y106.374 E65.42573 ; infill
G1 X51.567 Y106.231 E65.43814 ; infill
G1 X51.638 Y105.694 E65.48469 ; infill
G1 X51.276 Y105.332 E65.52863 ; infill
G1 X51.323 Y105.097 E65.54921 ; infill
G1 X51.452 Y104.778 E65.57872 ; infill
G1 X51.765 Y105.091 E65.61672 ; infill
G1 X51.979 Y104.575 E65.66469 ; infill
G1 X51.662 Y104.258 E65.70317 ; infill
G1 X51.741 Y104.061 E65.72136 ; infill
G1 X51.922 Y103.788 E65.74950 ; infill
G1 X52.254 Y104.120 E65.78980 ; infill
G1 X52.571 Y103.707 E65.83450 ; infill
G1 X52.213 Y103.349 E65.87797 ; infill
G1 X52.451 Y102.989 E65.91502 ; infill
G1 X52.514 Y102.920 E65.92304 ; infill
G1 X52.959 Y103.365 E65.97702 ; infill
G1 X53.372 Y103.048 E66.02172 ; infill
G1 X52.862 Y102.538 E66.08363 ; infill
G1 X53.210 Y102.156 E66.12800 ; infill
G1 X53.875 Y102.821 E66.20881 ; infill
G1 X54.318 Y102.638 E66.24993 ; infill
G1 X54.410 Y102.626 E66.25791 ; infill
G1 X53.574 Y101.789 E66.35945 ; infill
G1 X53.980 Y101.466 E66.40405 ; infill
G1 X55.055 Y102.541 E66.53456 ; infill
G1 X55.225 Y102.518 E66.54928 ; infill
G1 X55.833 Y102.588 E66.60180 ; infill
G1 X54.387 Y101.142 E66.77737 ; infill
G1 X54.793 Y100.819 E66.82198 ; infill
G1 X101.775 Y147.800 E72.52611 ; infill
G1 X102.505 Y147.800 E72.58879 ; infill
G1 X55.200 Y100.495 E78.33220 ; infill
G1 X55.606 Y100.172 E78.37681 ; infill
G1 X103.235 Y147.800 E84.15951 ; infill
G1 X103.965 Y147.800 E84.22219 ; infill
G1 X56.013 Y99.848 E90.04417 ; infill
G1 X56.419 Y99.525 E90.08877 ; infill
G1 X104.695 Y147.800 E95.95004 ; infill
G1 X105.425 Y147.800 E96.01272 ; infill
