;FLAVOR:Marlin
;TIME:26288
;Filament used: 34.984m
;Layer height: 0.25
;MINX:-57.506
;MINY:-46.255
;MINZ:0.25
;MAXX:57.526
;MAXY:46.255
;MAXZ:73

;POSTPROCESSED
;Generated with Cura_SteamEngine 4.4.1
M140 S90
M105
M190 S90
M104 S250
M105
M109 S250
M82 ;absolute extrusion mode
M118 X60.00 Y50.00 Z5.00 T0
M140 S90 T0
M104 S250 T0
M104 S0 T1
M107
G90
G28
M132 X Y Z A B
G1 Z50.00 F400
G161 X Y F3300
M7 T0
M6 T0
M651
M907 X100 Y100 Z40 A100 B20
M108 T0
G1 X60.00 Y50.00 F6000
G92 E0
G92 E0
G1 F1800 E-4.5
;LAYER_COUNT:292

;LAYER:0
M107
G0 F7200 X10.45 Y-46.255 Z0.25
;TYPE:SKIRT
G1 F1800 E0
G1 F720 X51.609 Y-46.255 E1.71119
G1 X52.307 Y-46.245 E1.74021
G1 X52.911 Y-46.196 E1.76541
G1 X53.602 Y-46.039 E1.79487
G1 X54.028 Y-45.907 E1.81341
G1 X54.595 Y-45.69 E1.83865
G1 X55.127 Y-45.4 E1.86384
G1 X55.617 Y-45.043 E1.88905
G1 X56.056 Y-44.624 E1.91428
G1 X56.435 Y-44.151 E1.93948
G1 X56.658 Y-43.8 E1.95677
G1 X56.886 Y-43.402 E1.97584
G1 X57.153 Y-42.857 E2.00107
G1 X57.345 Y-42.282 E2.02627
G1 X57.459 Y-41.686 E2.0515
G1 X57.492 Y-41.278 E2.06852
G1 X57.52 Y-40.488 E2.10138
G1 X57.523 Y-40.314 E2.10862
G1 X57.506 Y-33.407 E2.39578
G1 X57.505 Y30.75 E5.06312
G1 X57.505 Y38.582 E5.38873
G1 X57.511 Y39.593 E5.43077
G1 X57.526 Y40.982 E5.48852
G1 X57.492 Y41.588 E5.51375
G1 X57.38 Y42.183 E5.53892
G1 X57.189 Y42.759 E5.56415
G1 X56.995 Y43.178 E5.58335
G1 X56.745 Y43.652 E5.60563
G1 X56.427 Y44.168 E5.63083
G1 X56.044 Y44.639 E5.65607
G1 X55.603 Y45.054 E5.68124
G1 X55.111 Y45.409 E5.70647
G1 X54.577 Y45.695 E5.73165
G1 X54.108 Y45.877 E5.75257
G1 X53.702 Y46.01 E5.77033
G1 X53.115 Y46.161 E5.79553
G1 X52.388 Y46.237 E5.82592
G1 X51.763 Y46.253 E5.85191
G1 X51.645 Y46.255 E5.85682
G1 X-51.912 Y46.255 E10.16222
G1 X-52.031 Y46.253 E10.16717
G1 X-52.456 Y46.242 E10.18484
G1 X-53.06 Y46.187 E10.21006
G1 X-53.651 Y46.052 E10.23526
G1 X-54.483 Y45.713 E10.27261
G1 X-54.847 Y45.521 E10.28972
G1 X-55.364 Y45.203 E10.31496
G1 X-55.834 Y44.82 E10.34016
G1 X-56.25 Y44.379 E10.36537
G1 X-56.737 Y43.659 E10.40151
G1 X-56.848 Y43.456 E10.41113
G1 X-56.915 Y43.328 E10.41713
G1 X-56.991 Y43.178 E10.42412
G1 X-57.229 Y42.62 E10.44934
G1 X-57.392 Y42.036 E10.47455
G1 X-57.487 Y41.181 E10.51032
G1 X-57.503 Y40.284 E10.54762
G1 X-57.504 Y40.202 E10.55103
G1 X-57.506 Y-17.575 E12.95311
G1 X-57.505 Y-40.677 E13.91358
G1 X-57.503 Y-40.8 E13.9187
G1 X-57.492 Y-41.21 E13.93575
G1 X-57.436 Y-41.814 E13.96097
G1 X-57.301 Y-42.405 E13.98617
G1 X-56.965 Y-43.229 E14.02317
G1 X-56.774 Y-43.592 E14.04022
G1 X-56.457 Y-44.109 E14.06544
G1 X-56.075 Y-44.579 E14.09062
G1 X-55.634 Y-44.996 E14.11585
G1 X-54.921 Y-45.48 E14.15168
G1 X-54.732 Y-45.584 E14.16065
G1 X-54.601 Y-45.653 E14.1668
G1 X-54.436 Y-45.737 E14.1745
G1 X-53.879 Y-45.976 E14.1997
G1 X-53.295 Y-46.14 E14.22492
G1 X-52.431 Y-46.237 E14.26106
G1 X-51.535 Y-46.253 E14.29832
G1 X-51.453 Y-46.254 E14.30173
G1 X10.45 Y-46.255 E16.87536
G0 F7200 X10.45 Y-45.855
G1 F720 X51.603 Y-45.855 E18.5863
G1 X52.301 Y-45.845 E18.61532
G1 X52.878 Y-45.796 E18.6394
G1 X53.484 Y-45.657 E18.66525
G1 X53.91 Y-45.525 E18.68379
G1 X54.45 Y-45.316 E18.70786
G1 X54.957 Y-45.034 E18.73198
G1 X55.419 Y-44.685 E18.75606
G1 X55.83 Y-44.277 E18.78013
G1 X56.311 Y-43.601 E18.81463
G1 X56.539 Y-43.203 E18.8337
G1 X56.792 Y-42.681 E18.85781
G1 X56.97 Y-42.13 E18.88189
G1 X57.071 Y-41.56 E18.90595
G1 X57.092 Y-41.264 E18.91829
G1 X57.12 Y-40.474 E18.95116
G1 X57.123 Y-40.315 E18.95777
G1 X57.106 Y-33.408 E19.24493
G1 X57.105 Y30.75 E21.91231
G1 X57.105 Y38.582 E22.23792
G1 X57.111 Y39.598 E22.28017
G1 X57.126 Y40.987 E22.33792
G1 X57.092 Y41.565 E22.36199
G1 X56.979 Y42.133 E22.38607
G1 X56.789 Y42.68 E22.41014
G1 X56.641 Y42.991 E22.42446
G1 X56.391 Y43.465 E22.44674
G1 X56.086 Y43.958 E22.47084
G1 X55.716 Y44.404 E22.49493
G1 X55.289 Y44.795 E22.51901
G1 X54.811 Y45.123 E22.54311
G1 X54.293 Y45.382 E22.56718
G1 X53.983 Y45.497 E22.58093
G1 X53.577 Y45.63 E22.59869
G1 X53.016 Y45.772 E22.62275
G1 X52.377 Y45.838 E22.64946
G1 X51.752 Y45.854 E22.67545
G1 X51.645 Y45.855 E22.6799
G1 X-51.912 Y45.855 E26.9853
G1 X-52.021 Y45.854 E26.98983
G1 X-52.446 Y45.843 E27.00751
G1 X-53.022 Y45.788 E27.03157
G1 X-53.586 Y45.654 E27.05567
G1 X-54.296 Y45.359 E27.08763
G1 X-54.66 Y45.167 E27.10474
G1 X-55.153 Y44.862 E27.12884
G1 X-55.599 Y44.492 E27.15294
G1 X-55.99 Y44.064 E27.17704
G1 X-56.386 Y43.467 E27.20682
G1 X-56.497 Y43.264 E27.21644
G1 X-56.559 Y43.147 E27.22195
G1 X-56.635 Y42.997 E27.22894
G1 X-56.86 Y42.464 E27.25299
G1 X-57.01 Y41.904 E27.27709
G1 X-57.087 Y41.174 E27.30761
G1 X-57.103 Y40.277 E27.34491
G1 X-57.104 Y40.202 E27.34803
G1 X-57.106 Y-17.575 E29.75012
G1 X-57.105 Y-40.677 E30.71059
G1 X-57.103 Y-40.79 E30.71529
G1 X-57.092 Y-41.2 E30.73234
G1 X-57.037 Y-41.776 E30.75639
G1 X-56.903 Y-42.34 E30.78049
G1 X-56.611 Y-43.043 E30.81214
G1 X-56.42 Y-43.406 E30.8292
G1 X-56.115 Y-43.899 E30.8533
G1 X-55.746 Y-44.345 E30.87736
G1 X-55.319 Y-44.736 E30.90144
G1 X-54.728 Y-45.13 E30.93097
G1 X-54.539 Y-45.234 E30.93993
G1 X-54.419 Y-45.297 E30.94557
G1 X-54.254 Y-45.381 E30.95327
G1 X-53.721 Y-45.607 E30.97734
G1 X-53.162 Y-45.759 E31.00142
G1 X-52.424 Y-45.837 E31.03227
G1 X-51.528 Y-45.853 E31.06953
G1 X-51.453 Y-45.854 E31.07265
G1 X10.45 Y-45.855 E33.64628
G1 F1800 E29.14628
;MESH:case-03 v01.stl
G0 F7200 X10.449 Y-42.319
G0 X10.45 Y-40.445
G0 X51.741 Y-40.473
G0 X51.905 Y40.655
;TYPE:WALL-INNER
G1 F1800 E33.64628
G1 X-51.904 Y40.655 E37.96215
G1 X-51.906 Y-17.578 E40.3832
G1 X-51.905 Y-40.654 E41.34259
G1 X10.45 Y-40.655 E43.93501
G1 X51.724 Y-40.655 E45.65098
G1 X51.924 Y-40.655 E45.6593
G1 X51.924 Y-40.455 E45.66468
G1 X51.906 Y-33.675 E45.94656
G1 X51.905 Y30.749 E48.625
G1 X51.905 Y40.655 E49.03684
G0 F7200 X52.157 Y41.055
G1 F1800 X-52.19 Y41.055 E53.37509
G1 X-52.266 Y41.015 E53.37866
G1 X-52.304 Y40.943 E53.38204
G1 X-52.306 Y-17.578 E55.81506
G1 X-52.305 Y-40.94 E56.78634
G1 X-52.265 Y-41.016 E56.78991
G1 X-52.193 Y-41.054 E56.7933
G1 X10.45 Y-41.055 E59.39769
G1 X52.064 Y-41.055 E61.1278
G1 X52.157 Y-41.055 E61.13167
G1 X52.272 Y-41.019 E61.13668
G1 X52.325 Y-40.925 E61.14116
G1 X52.325 Y-40.832 E61.14503
G1 X52.306 Y-33.674 E61.44263
G1 X52.305 Y30.749 E64.12102
G1 X52.305 Y40.958 E64.54546
G1 X52.271 Y41.019 E64.54837
G1 X52.157 Y41.055 E64.55334
G0 F7200 X52.705 Y41.051
;TYPE:WALL-OUTER
G1 F1800 X52.708 Y41.056 E64.55358
G1 X52.544 Y41.352 E64.56765
G1 X52.218 Y41.455 E64.58186
G1 X-52.29 Y41.455 E68.9268
G1 X-52.561 Y41.311 E68.93956
G1 X-52.704 Y41.041 E68.95226
G1 X-52.706 Y-17.578 E71.38936
G1 X-52.705 Y-41.04 E72.36479
G1 X-52.561 Y-41.311 E72.37755
G1 X-52.291 Y-41.454 E72.39026
G1 X10.45 Y-41.455 E74.99872
G1 X52.218 Y-41.455 E76.73523
G1 X52.544 Y-41.352 E76.74945
G1 X52.725 Y-41.028 E76.76488
G1 X52.706 Y-33.673 E77.07066
G1 X52.705 Y30.749 E79.74902
G1 X52.705 Y41.051 E80.17733
G0 F7200 X52.708 Y41.056
G0 X52.614 Y41.226
G0 X52.229 Y41.012
G0 X51.795 Y40.265
G0 X51.515 Y40.265
;TYPE:SKIN
G1 F1800 X-51.514 Y40.265 E84.46078
G1 X-51.516 Y-17.578 E86.86561
G1 X-51.515 Y-40.264 E87.80878
G1 X10.45 Y-40.265 E90.38499
G1 X51.533 Y-40.265 E92.09302
G1 X51.516 Y-33.676 E92.36696
G1 X51.515 Y30.748 E95.0454
G1 X51.515 Y40.265 E95.44107
G1 F1800 E90.94107
G0 F7200 X51.795 Y40.265
G0 X51.811 Y-39.724
G0 X51.35 Y-39.725
G1 F1800 E95.44107
G1 X50.99 Y-40.084 E95.46221
G0 F7200 X50.425 Y-40.084
G1 F1800 X51.348 Y-39.16 E95.51651
G0 F7200 X51.347 Y-38.596
G1 F1800 X49.859 Y-40.084 E95.60399
G0 F7200 X49.293 Y-40.084
G1 F1800 X51.345 Y-38.032 E95.72464
G0 F7200 X51.345 Y-37.467
G1 F1800 X48.728 Y-40.084 E95.87851
G0 F7200 X48.162 Y-40.084
G1 F1800 X51.343 Y-36.903 E96.06554
G0 F7200 X51.342 Y-36.338
G1 F1800 X47.596 Y-40.084 E96.28579
G0 F7200 X47.031 Y-40.084
G1 F1800 X51.34 Y-35.774 E96.53918
G0 F7200 X51.339 Y-35.21
G1 F1800 X46.465 Y-40.084 E96.82575
G0 F7200 X45.899 Y-40.084
G1 F1800 X51.338 Y-34.646 E97.14551
G0 F7200 X51.336 Y-34.081
G1 F1800 X45.334 Y-40.084 E97.49844
G0 F7200 X44.768 Y-40.084
G1 F1800 X51.335 Y-33.517 E97.88455
G0 F7200 X51.335 Y-32.951
G1 F1800 X44.202 Y-40.084 E98.30394
G0 F7200 X43.636 Y-40.084
G1 F1800 X51.335 Y-32.386 E98.75659
G0 F7200 X51.335 Y-31.82
G1 F1800 X43.071 Y-40.084 E99.24248
G0 F7200 X42.505 Y-40.084
G1 F1800 X51.335 Y-31.254 E99.76165
G0 F7200 X51.335 Y-30.689
G1 F1800 X41.939 Y-40.084 E100.31407
G0 F7200 X41.374 Y-40.084
G1 F1800 X51.335 Y-30.123 E100.89974
G0 F7200 X51.335 Y-29.557
G1 F1800 X40.808 Y-40.084 E101.51868
G0 F7200 X40.242 Y-40.084
G1 F1800 X51.335 Y-28.992 E102.17088
G0 F7200 X51.335 Y-28.426
G1 F1800 X39.677 Y-40.084 E102.85632
G0 F7200 X39.111 Y-40.084
G1 F1800 X51.335 Y-27.86 E103.57505
G0 F7200 X51.335 Y-27.295
G1 F1800 X38.545 Y-40.084 E104.32702
G0 F7200 X37.98 Y-40.084
G1 F1800 X51.335 Y-26.729 E105.11225
G0 F7200 X51.335 Y-26.163
G1 F1800 X37.414 Y-40.084 E105.93075
G0 F7200 X36.848 Y-40.084
G1 F1800 X51.335 Y-25.597 E106.78253
G0 F7200 X51.335 Y-25.032
G1 F1800 X36.283 Y-40.084 E107.66753
G0 F7200 X35.717 Y-40.084
G1 F1800 X51.335 Y-24.466 E108.58581
G0 F7200 X51.335 Y-23.9
G1 F1800 X35.151 Y-40.084 E109.53736
G0 F7200 X34.586 Y-40.084
G1 F1800 X51.335 Y-23.335 E110.52214
G0 F7200 X51.335 Y-22.769
G1 F1800 X34.02 Y-40.084 E111.5402
G0 F7200 X33.454 Y-40.084
G1 F1800 X51.335 Y-22.203 E112.59153
G0 F7200 X51.335 Y-21.638
G1 F1800 X32.888 Y-40.084 E113.67611
G0 F7200 X32.323 Y-40.084
G1 F1800 X51.335 Y-21.072 E114.79395
G0 F7200 X51.335 Y-20.506
G1 F1800 X31.757 Y-40.084 E115.94506
G0 F7200 X31.191 Y-40.084
G1 F1800 X51.335 Y-19.941 E117.12942
G0 F7200 X51.335 Y-19.375
G1 F1800 X30.626 Y-40.084 E118.34703
G0 F7200 X30.06 Y-40.084
G1 F1800 X51.335 Y-18.809 E119.59792
G0 F7200 X51.335 Y-18.244
G1 F1800 X29.494 Y-40.084 E120.88205
G0 F7200 X28.929 Y-40.084
G1 F1800 X51.335 Y-17.678 E122.19944
G0 F7200 X51.335 Y-17.112
G1 F1800 X28.363 Y-40.084 E123.55011
G0 F7200 X27.797 Y-40.084
G1 F1800 X51.335 Y-16.547 E124.93402
G0 F7200 X51.335 Y-15.981
G1 F1800 X27.232 Y-40.084 E126.35119
G0 F7200 X26.666 Y-40.084
G1 F1800 X51.335 Y-15.415 E127.80163
G0 F7200 X51.335 Y-14.849
G1 F1800 X26.1 Y-40.084 E129.28535
G0 F7200 X25.535 Y-40.084
G1 F1800 X51.335 Y-14.284 E130.80229
G0 F7200 X51.335 Y-13.718
G1 F1800 X24.969 Y-40.084 E132.35251
G0 F7200 X24.403 Y-40.084
G1 F1800 X51.335 Y-13.152 E133.93601
G0 F7200 X51.335 Y-12.587
G1 F1800 X23.837 Y-40.084 E135.55276
G0 F7200 X23.272 Y-40.084
G1 F1800 X51.335 Y-12.021 E137.20275
G0 F7200 X51.335 Y-11.455
G1 F1800 X22.706 Y-40.084 E138.88603
G0 F7200 X22.14 Y-40.084
G1 F1800 X51.335 Y-10.89 E140.60255
G0 F7200 X51.335 Y-10.324
G1 F1800 X21.575 Y-40.084 E142.35233
G0 F7200 X21.009 Y-40.084
G1 F1800 X51.335 Y-9.758 E144.13538
G0 F7200 X51.335 Y-9.193
G1 F1800 X20.443 Y-40.084 E145.95168
G0 F7200 X19.878 Y-40.084
G1 F1800 X51.335 Y-8.627 E147.80123
G0 F7200 X51.335 Y-8.061
G1 F1800 X19.312 Y-40.084 E149.68406
G0 F7200 X18.746 Y-40.084
G1 F1800 X51.335 Y-7.496 E151.60014
G0 F7200 X51.335 Y-6.93
G1 F1800 X18.181 Y-40.084 E153.54947
G0 F7200 X17.615 Y-40.084
G1 F1800 X51.335 Y-6.364 E155.53208
G0 F7200 X51.335 Y-5.798
G1 F1800 X17.049 Y-40.084 E157.54796
G0 F7200 X16.484 Y-40.084
G1 F1800 X51.335 Y-5.233 E159.59707
G0 F7200 X51.335 Y-4.667
G1 F1800 X15.918 Y-40.084 E161.67945
G0 F7200 X15.352 Y-40.084
G1 F1800 X51.335 Y-4.101 E163.79511
G0 F7200 X51.335 Y-3.536
G1 F1800 X14.787 Y-40.084 E165.944
G0 F7200 X14.221 Y-40.084
G1 F1800 X51.335 Y-2.97 E168.12616
G0 F7200 X51.335 Y-2.404
G1 F1800 X13.655 Y-40.084 E170.3416
G0 F7200 X13.089 Y-40.084
G1 F1800 X51.335 Y-1.839 E172.59028
G0 F7200 X51.334 Y-1.274
G1 F1800 X12.524 Y-40.084 E174.87216
G0 F7200 X11.958 Y-40.084
G1 F1800 X51.334 Y-.708 E177.18732
G0 F7200 X51.334 Y-.142
G1 F1800 X11.392 Y-40.084 E179.53576
G0 F7200 X10.827 Y-40.084
G1 F1800 X51.334 Y0.422 E181.91739
G0 F7200 X51.334 Y0.988
G1 F1800 X10.262 Y-40.083 E184.33223
G0 F7200 X9.696 Y-40.083
G1 F1800 X51.334 Y1.554 E186.78036
G0 F7200 X51.334 Y2.119
G1 F1800 X9.13 Y-40.083 E189.26173
G0 F7200 X8.565 Y-40.083
G1 F1800 X51.334 Y2.685 E191.77636
G0 F7200 X51.334 Y3.251
G1 F1800 X7.999 Y-40.083 E194.32426
G0 F7200 X7.433 Y-40.083
G1 F1800 X51.334 Y3.816 E196.90541
G0 F7200 X51.334 Y4.382
G1 F1800 X6.868 Y-40.083 E199.51981
G0 F7200 X6.302 Y-40.083
G1 F1800 X51.334 Y4.948 E202.16749
G0 F7200 X51.334 Y5.514
G1 F1800 X5.736 Y-40.083 E204.84845
G0 F7200 X5.171 Y-40.083
G1 F1800 X51.334 Y6.079 E207.56263
G0 F7200 X51.334 Y6.645
G1 F1800 X4.605 Y-40.083 E210.31008
G0 F7200 X4.039 Y-40.083
G1 F1800 X51.334 Y7.211 E213.09082
G0 F7200 X51.334 Y7.776
G1 F1800 X3.474 Y-40.083 E215.90477
G0 F7200 X2.908 Y-40.083
G1 F1800 X51.334 Y8.342 E218.75201
G0 F7200 X51.334 Y8.908
G1 F1800 X2.342 Y-40.083 E221.63252
G0 F7200 X1.776 Y-40.083
G1 F1800 X51.334 Y9.473 E224.54628
G0 F7200 X51.334 Y10.039
G1 F1800 X1.211 Y-40.083 E227.49329
G0 F7200 X0.645 Y-40.083
G1 F1800 X51.334 Y10.605 E230.47358
G0 F7200 X51.334 Y11.17
G1 F1800 X0.079 Y-40.083 E233.48712
G0 F7200 X-.485 Y-40.083
G1 F1800 X51.334 Y11.736 E236.53388
G0 F7200 X51.334 Y12.302
G1 F1800 X-1.051 Y-40.083 E239.61392
G0 F7200 X-1.617 Y-40.083
G1 F1800 X51.334 Y12.867 E242.7272
G0 F7200 X51.334 Y13.433
G1 F1800 X-2.182 Y-40.083 E245.87374
G0 F7200 X-2.748 Y-40.083
G1 F1800 X51.334 Y13.999 E249.05355
G0 F7200 X51.334 Y14.564
G1 F1800 X-3.314 Y-40.083 E252.26662
G0 F7200 X-3.879 Y-40.083
G1 F1800 X51.334 Y15.13 E255.51293
G0 F7200 X51.334 Y15.696
G1 F1800 X-4.445 Y-40.083 E258.79252
G0 F7200 X-5.011 Y-40.083
G1 F1800 X51.334 Y16.262 E262.10539
G0 F7200 X51.334 Y16.827
G1 F1800 X-5.576 Y-40.083 E265.45148
G0 F7200 X-6.142 Y-40.083
G1 F1800 X51.334 Y17.393 E268.83085
G0 F7200 X51.334 Y17.959
G1 F1800 X-6.708 Y-40.083 E272.2435
G0 F7200 X-7.274 Y-40.083
G1 F1800 X51.334 Y18.524 E275.68939
G0 F7200 X51.334 Y19.09
G1 F1800 X-7.839 Y-40.083 E279.16854
G0 F7200 X-8.405 Y-40.083
G1 F1800 X51.334 Y19.656 E282.68096
G0 F7200 X51.334 Y20.221
G1 F1800 X-8.971 Y-40.083 E286.22664
G0 F7200 X-9.536 Y-40.083
G1 F1800 X51.334 Y20.787 E289.80556
G0 F7200 X51.334 Y21.353
G1 F1800 X-10.102 Y-40.083 E293.41776
G0 F7200 X-10.668 Y-40.083
G1 F1800 X51.334 Y21.918 E297.06321
G0 F7200 X51.334 Y22.484
G1 F1800 X-11.233 Y-40.083 E300.74191
G0 F7200 X-11.799 Y-40.083
G1 F1800 X51.334 Y23.05 E304.45389
G0 F7200 X51.334 Y23.615
G1 F1800 X-12.365 Y-40.083 E308.19912
G0 F7200 X-12.93 Y-40.083
G1 F1800 X51.334 Y24.181 E311.97759
G0 F7200 X51.334 Y24.747
G1 F1800 X-13.496 Y-40.083 E315.78935
G0 F7200 X-14.062 Y-40.083
G1 F1800 X51.334 Y25.313 E319.63438
G0 F7200 X51.334 Y25.878
G1 F1800 X-14.627 Y-40.083 E323.51264
G0 F7200 X-15.193 Y-40.083
G1 F1800 X51.334 Y26.444 E327.42417
G0 F7200 X51.334 Y27.01
G1 F1800 X-15.759 Y-40.083 E331.36898
G0 F7200 X-16.324 Y-40.083
G1 F1800 X51.334 Y27.575 E335.34701
G0 F7200 X51.334 Y28.141
G1 F1800 X-16.89 Y-40.083 E339.35832
G0 F7200 X-17.456 Y-40.083
G1 F1800 X51.334 Y28.707 E343.40291
G0 F7200 X51.334 Y29.272
G1 F1800 X-18.022 Y-40.083 E347.48075
G0 F7200 X-18.587 Y-40.083
G1 F1800 X51.334 Y29.838 E351.59184
G0 F7200 X51.334 Y30.404
G1 F1800 X-19.153 Y-40.083 E355.7362
G0 F7200 X-19.719 Y-40.083
G1 F1800 X51.333 Y30.969 E359.91379
G0 F7200 X51.333 Y31.534
G1 F1800 X-20.284 Y-40.083 E364.12459
G0 F7200 X-20.85 Y-40.083
G1 F1800 X51.333 Y32.1 E368.36868
G0 F7200 X51.333 Y32.666
G1 F1800 X-21.416 Y-40.083 E372.64604
G0 F7200 X-21.981 Y-40.083
G1 F1800 X51.333 Y33.231 E376.95662
G0 F7200 X51.333 Y33.797
G1 F1800 X-22.547 Y-40.083 E381.30048
G0 F7200 X-23.113 Y-40.083
G1 F1800 X51.333 Y34.363 E385.67762
G0 F7200 X51.333 Y34.928
G1 F1800 X-23.678 Y-40.083 E390.08798
G0 F7200 X-24.244 Y-40.083
G1 F1800 X51.333 Y35.494 E394.53162
G0 F7200 X51.333 Y36.06
G1 F1800 X-24.81 Y-40.083 E399.00853
G0 F7200 X-25.375 Y-40.083
G1 F1800 X51.333 Y36.626 E403.5187
G0 F7200 X51.333 Y37.191
G1 F1800 X-25.941 Y-40.083 E408.06212
G0 F7200 X-26.507 Y-40.083
G1 F1800 X51.333 Y37.757 E412.63881
G0 F7200 X51.333 Y38.323
G1 F1800 X-27.072 Y-40.083 E417.24875
G0 F7200 X-27.638 Y-40.083
G1 F1800 X51.333 Y38.888 E421.89194
G0 F7200 X51.333 Y39.454
G1 F1800 X-28.204 Y-40.083 E426.56842
