;FLAVOR:Marlin
;TIME:6099
;Filament used: 5.27838m
;Layer height: 0.25
;MINX:-58.7
;MINY:-48.7
;MINZ:0.25
;MAXX:58.7
;MAXY:48.7
;MAXZ:5

;POSTPROCESSED
;Generated with Cura_SteamEngine 4.4.1
M140 S80
M105
M190 S80
M104 S240
M105
M109 S240
M82 ;absolute extrusion mode
M118 X60.00 Y50.00 Z5.00 T0
M140 S80 T0
M104 S240 T0
M104 S0 T1
M107
G90
G28
M132 X Y Z A B
G1 Z50.00 F400
G161 X Y F3300
M7 T0
M6 T0
M651
M907 X100 Y100 Z40 A100 B20
M108 T0
G1 X60.00 Y50.00 F6000
G92 E0
G92 E0
G1 F1800 E-4.5
;LAYER_COUNT:20

;LAYER:0
M107
G0 F6000 X-52.793 Y48.7 Z0.25
;TYPE:SKIRT
G1 F1800 E0
G1 F1200 X-52.839 Y48.7 E0.00138
G1 X-53.536 Y48.69 E0.02232
G1 X-53.9 Y48.664 E0.03328
G1 X-54.395 Y48.6 E0.04827
G1 X-54.89 Y48.495 E0.06347
G1 X-55.151 Y48.406 E0.07176
G1 X-55.565 Y48.244 E0.08511
G1 X-56.214 Y47.9 E0.10718
G1 X-56.641 Y47.606 E0.12275
G1 X-57.033 Y47.287 E0.13793
G1 X-57.253 Y47.055 E0.14753
G1 X-57.582 Y46.672 E0.1627
G1 X-57.88 Y46.264 E0.17788
G1 X-58.036 Y45.981 E0.18758
G1 X-58.261 Y45.516 E0.2031
G1 X-58.444 Y45.045 E0.21828
G1 X-58.526 Y44.709 E0.22867
G1 X-58.626 Y44.173 E0.24505
G1 X-58.676 Y43.755 E0.25769
G1 X-58.695 Y43.396 E0.26849
G1 X-58.699 Y43.227 E0.27357
G1 X-58.7 Y-42.793 E2.85744
G1 X-58.7 Y-42.839 E2.85882
G1 X-58.69 Y-43.537 E2.87979
G1 X-58.664 Y-43.897 E2.89063
G1 X-58.601 Y-44.389 E2.90553
G1 X-58.497 Y-44.884 E2.92073
G1 X-58.405 Y-45.153 E2.92927
G1 X-58.238 Y-45.578 E2.94298
G1 X-57.889 Y-46.232 E2.96525
G1 X-57.599 Y-46.65 E2.98053
G1 X-57.279 Y-47.041 E2.99571
G1 X-57.062 Y-47.247 E3.0047
G1 X-56.694 Y-47.565 E3.0193
G1 X-56.287 Y-47.865 E3.03449
G1 X-56.014 Y-48.016 E3.04386
G1 X-55.534 Y-48.252 E3.05993
G1 X-55.064 Y-48.438 E3.07511
G1 X-54.709 Y-48.526 E3.0861
G1 X-54.173 Y-48.626 E3.10248
G1 X-53.763 Y-48.675 E3.11488
G1 X-53.42 Y-48.694 E3.1252
G1 X-53.243 Y-48.699 E3.13052
G1 X52.793 Y-48.7 E6.31563
G1 X52.839 Y-48.7 E6.31702
G1 X53.537 Y-48.69 E6.33799
G1 X53.902 Y-48.663 E6.34898
G1 X54.396 Y-48.599 E6.36394
G1 X54.891 Y-48.495 E6.37914
G1 X55.151 Y-48.406 E6.38739
G1 X55.565 Y-48.244 E6.40074
G1 X56.214 Y-47.9 E6.42281
G1 X56.641 Y-47.606 E6.43838
G1 X57.033 Y-47.287 E6.45356
G1 X57.247 Y-47.062 E6.46289
G1 X57.565 Y-46.694 E6.4775
G1 X57.865 Y-46.287 E6.49269
G1 X58.016 Y-46.014 E6.50206
G1 X58.252 Y-45.534 E6.51812
G1 X58.438 Y-45.064 E6.53331
G1 X58.526 Y-44.709 E6.54429
G1 X58.626 Y-44.173 E6.56067
G1 X58.675 Y-43.763 E6.57308
G1 X58.694 Y-43.42 E6.58339
G1 X58.699 Y-43.243 E6.58871
G1 X58.7 Y42.793 E9.17307
G1 X58.7 Y42.839 E9.17445
G1 X58.69 Y43.536 E9.19539
G1 X58.664 Y43.896 E9.20623
G1 X58.601 Y44.389 E9.22116
G1 X58.498 Y44.883 E9.23632
G1 X58.406 Y45.15 E9.2448
G1 X58.243 Y45.566 E9.25822
G1 X57.9 Y46.214 E9.28024
G1 X57.606 Y46.641 E9.29582
G1 X57.287 Y47.033 E9.311
G1 X57.062 Y47.247 E9.32032
G1 X56.694 Y47.565 E9.33493
G1 X56.287 Y47.865 E9.35012
G1 X56.014 Y48.016 E9.35949
G1 X55.54 Y48.249 E9.37536
G1 X55.07 Y48.435 E9.39054
G1 X54.725 Y48.521 E9.40122
G1 X54.183 Y48.624 E9.41779
G1 X53.763 Y48.675 E9.4305
G1 X53.42 Y48.694 E9.44082
G1 X53.243 Y48.699 E9.44614
G1 X-52.793 Y48.7 E12.63126
G1 F1800 E8.13126
;MESH:lid-01 v8.obj
G0 F6000 X-44.193 Y-37.211
G0 X-43.434 Y-36.466
G0 X-42.956 Y-37.471
G0 X-43.066 Y-37.483
;TYPE:WALL-OUTER
G1 F1800 E12.63126
G1 F1200 X-43.001 Y-38.021 E12.64753
G1 X-43.074 Y-38.538 E12.66322
G1 X-43.279 Y-39.018 E12.6789
G1 X-43.601 Y-39.429 E12.69458
G1 X-44.019 Y-39.742 E12.71026
G1 X-44.503 Y-39.937 E12.72594
G1 X-45.021 Y-39.999 E12.74161
G1 X-45.538 Y-39.926 E12.75729
G1 X-46.018 Y-39.721 E12.77297
G1 X-46.429 Y-39.399 E12.78865
G1 X-46.742 Y-38.981 E12.80434
G1 X-46.937 Y-38.497 E12.82001
G1 X-46.999 Y-37.979 E12.83569
G1 X-46.926 Y-37.462 E12.85137
G1 X-46.721 Y-36.982 E12.86705
G1 X-46.399 Y-36.571 E12.88273
G1 X-45.981 Y-36.258 E12.89842
G1 X-45.497 Y-36.063 E12.91409
G1 X-44.979 Y-36.001 E12.92976
G1 X-44.462 Y-36.074 E12.94545
G1 X-43.982 Y-36.279 E12.96112
G1 X-43.571 Y-36.601 E12.97681
G1 X-43.259 Y-37.018 E12.99245
G1 X-43.066 Y-37.483 E13.00757
G0 F6000 X-43.042 Y-37.681
G0 X-42.606 Y-37.628
G1 F1800 E8.50757
G0 F6000 X-42.844 Y-37.658
G0 X-43.434 Y-36.466
G0 X-44.193 Y-37.211
G0 X-10.013 Y36.872
G0 X-10.023 Y35.808
G0 X-8.951 Y36.136
G0 X-8.158 Y36.911
G0 X-7.876 Y37.872
G0 X-8.066 Y38.517
G1 F1800 E13.00757
G1 F1200 X-8.001 Y37.979 E13.02385
G1 X-8.074 Y37.462 E13.03954
G1 X-8.279 Y36.982 E13.05521
G1 X-8.601 Y36.571 E13.0709
G1 X-9.019 Y36.258 E13.08658
G1 X-9.503 Y36.063 E13.10226
G1 X-10.021 Y36.001 E13.11793
G1 X-10.538 Y36.074 E13.13361
G1 X-11.018 Y36.279 E13.14929
G1 X-11.429 Y36.601 E13.16497
G1 X-11.742 Y37.019 E13.18066
G1 X-11.937 Y37.503 E13.19633
G1 X-11.999 Y38.021 E13.212
G1 X-11.926 Y38.538 E13.22769
G1 X-11.721 Y39.018 E13.24337
G1 X-11.399 Y39.429 E13.25905
G1 X-10.981 Y39.742 E13.27473
G1 X-10.497 Y39.937 E13.29041
G1 X-9.979 Y39.999 E13.30608
G1 X-9.462 Y39.926 E13.32176
G1 X-8.982 Y39.721 E13.33744
G1 X-8.571 Y39.399 E13.35312
G1 X-8.259 Y38.982 E13.36877
G1 X-8.066 Y38.517 E13.38389
G0 F6000 X-8.042 Y38.319
G0 X-7.606 Y38.372
G1 F1800 E8.88389
G0 F6000 X-7.844 Y38.342
G0 X-8.114 Y36.884
G0 X-9.028 Y37.428
G0 X2.842 Y25.174
G0 X1.793 Y26.223
G0 X1.989 Y26.027
G1 F1800 E13.38389
G1 F1200 X37.672 Y26.027 E14.45574
G1 X37.672 Y-23.381 E15.93986
G1 X1.989 Y-23.381 E17.01171
G1 X1.989 Y26.027 E18.49583
G0 F6000 X2.189 Y26.027
G0 X2.189 Y26.467
G1 F1800 E13.99583
G0 F6000 X2.189 Y26.227
G0 X37.8 Y26.155
G0 X37.862 Y-2.471
G0 X36.807 Y-2.471
G0 X46.872 Y-2.987
G0 X45.808 Y-2.977
G0 X46.158 Y-1.911
G0 X46.951 Y-1.136
G0 X48.022 Y-.861
G0 X49.089 Y-1.158
G0 X49.799 Y-1.863
G0 X49.934 Y-2.483
G1 F1800 E18.49583
G1 F1200 X49.999 Y-3.021 E18.51211
G1 X49.926 Y-3.538 E18.52779
G1 X49.721 Y-4.018 E18.54347
G1 X49.399 Y-4.429 E18.55915
G1 X48.981 Y-4.742 E18.57484
G1 X48.497 Y-4.937 E18.59051
G1 X47.979 Y-4.999 E18.60618
G1 X47.462 Y-4.926 E18.62187
G1 X46.982 Y-4.721 E18.63754
G1 X46.571 Y-4.399 E18.65323
G1 X46.258 Y-3.981 E18.66891
G1 X46.063 Y-3.497 E18.68459
G1 X46.001 Y-2.979 E18.70026
G1 X46.074 Y-2.462 E18.71594
G1 X46.279 Y-1.982 E18.73162
G1 X46.601 Y-1.571 E18.7473
G1 X47.019 Y-1.258 E18.76299
G1 X47.503 Y-1.063 E18.77866
G1 X48.021 Y-1.001 E18.79433
G1 X48.538 Y-1.074 E18.81002
G1 X49.018 Y-1.279 E18.8257
G1 X49.429 Y-1.601 E18.84138
G1 X49.741 Y-2.018 E18.85702
G1 X49.934 Y-2.483 E18.87215
G0 F6000 X49.958 Y-2.681
G0 X50.394 Y-2.628
G1 F1800 E14.37215
G0 F6000 X50.156 Y-2.658
G0 X50.061 Y-3.575
G0 X49.497 Y-4.529
G0 X48.531 Y-5.073
G0 X47.666 Y-5.095
G0 X46.884 Y-4.886
G0 X47.428 Y-3.972
G0 X36.874 Y-15.065
G0 X36.819 Y-22.528
G0 X29.72 Y-22.584
G0 X15.807 Y-37.211
G0 X16.566 Y-36.466
G0 X17.044 Y-37.471
G0 X16.934 Y-37.483
G1 F1800 E18.87215
G1 F1200 X16.999 Y-38.021 E18.88842
G1 X16.926 Y-38.538 E18.90411
G1 X16.721 Y-39.018 E18.91979
G1 X16.399 Y-39.429 E18.93547
G1 X15.981 Y-39.742 E18.95116
G1 X15.497 Y-39.937 E18.96683
G1 X14.979 Y-39.999 E18.9825
G1 X14.462 Y-39.926 E18.99818
G1 X13.982 Y-39.721 E19.01386
G1 X13.571 Y-39.399 E19.02955
G1 X13.258 Y-38.981 E19.04523
G1 X13.063 Y-38.497 E19.06091
G1 X13.001 Y-37.979 E19.07658
G1 X13.074 Y-37.462 E19.09226
G1 X13.279 Y-36.982 E19.10794
G1 X13.601 Y-36.571 E19.12362
G1 X14.019 Y-36.258 E19.13931
G1 X14.503 Y-36.063 E19.15498
G1 X15.021 Y-36.001 E19.17065
G1 X15.538 Y-36.074 E19.18634
G1 X16.018 Y-36.279 E19.20201
G1 X16.429 Y-36.601 E19.2177
G1 X16.741 Y-37.018 E19.23334
G1 X16.934 Y-37.483 E19.24846
G0 F6000 X16.958 Y-37.681
G0 X17.394 Y-37.628
G1 F1800 E14.74846
G0 F6000 X17.156 Y-37.658
G0 X17.111 Y-38.59
G0 X16.086 Y-38.305
G0 X17.111 Y-46.165
G0 X17.111 Y-45.09
G0 X54.345 Y-44.959
G0 X54.399 Y-45.057
G1 F1800 E19.24846
G1 F1200 X54.771 Y-44.771 E19.26256
G1 X55.057 Y-44.399 E19.27665
G1 X55.238 Y-43.963 E19.29083
G1 X55.3 Y-43.489 E19.30519
G1 X55.3 Y43.489 E21.91784
G1 X55.238 Y43.963 E21.9322
G1 X55.057 Y44.399 E21.94638
G1 X54.771 Y44.771 E21.96048
G1 X54.399 Y45.057 E21.97457
G1 X53.963 Y45.238 E21.98875
G1 X53.489 Y45.3 E22.00311
G1 X-53.489 Y45.3 E25.21652
G1 X-53.963 Y45.238 E25.23088
G1 X-54.399 Y45.057 E25.24506
G1 X-54.771 Y44.771 E25.25916
G1 X-55.057 Y44.399 E25.27325
G1 X-55.238 Y43.963 E25.28743
G1 X-55.3 Y43.489 E25.30179
G1 X-55.3 Y-43.489 E27.91444
G1 X-55.238 Y-43.963 E27.9288
G1 X-55.057 Y-44.399 E27.94298
G1 X-54.771 Y-44.771 E27.95708
G1 X-54.399 Y-45.057 E27.97117
G1 X-53.963 Y-45.238 E27.98535
G1 X-53.489 Y-45.3 E27.99971
G1 X53.489 Y-45.3 E31.21312
G1 X53.963 Y-45.238 E31.22748
G1 X54.399 Y-45.057 E31.24166
G0 F6000 X54.557 Y-44.936
G0 X54.288 Y-44.588
G0 X54.199 Y-44.718
;TYPE:SKIN
G1 F1200 X54.492 Y-44.492 E31.25278
G1 X54.718 Y-44.199 E31.26389
G1 X54.859 Y-43.859 E31.27495
G1 X54.91 Y-43.468 E31.28679
G1 X54.91 Y43.468 E33.89818
G1 X54.859 Y43.859 E33.91003
G1 X54.718 Y44.199 E33.92108
G1 X54.492 Y44.492 E33.9322
G1 X54.199 Y44.718 E33.94331
G1 X53.859 Y44.859 E33.95437
G1 X53.468 Y44.91 E33.96621
G1 X-53.468 Y44.91 E37.17836
G1 X-53.859 Y44.859 E37.19021
G1 X-54.199 Y44.718 E37.20127
G1 X-54.492 Y44.492 E37.21238
G1 X-54.718 Y44.199 E37.2235
G1 X-54.859 Y43.859 E37.23455
G1 X-54.91 Y43.468 E37.2464
G1 X-54.91 Y-43.468 E39.85779
G1 X-54.859 Y-43.859 E39.86963
G1 X-54.718 Y-44.199 E39.88069
G1 X-54.492 Y-44.492 E39.8918
G1 X-54.199 Y-44.718 E39.90292
G1 X-53.859 Y-44.859 E39.91397
G1 X-53.468 Y-44.91 E39.92582
G1 X53.468 Y-44.91 E43.13797
G1 X53.859 Y-44.859 E43.14981
G1 X54.199 Y-44.718 E43.16087
G1 F1800 E38.66087
G0 F6000 X54.272 Y-44.894
G0 X53.477 Y-45.09
G0 X53.477 Y-46.165
G0 X36.819 Y-22.528
G0 X37.868 Y-23.577
G0 X38.062 Y-23.771
G1 F1800 E43.16087
G1 F1200 X1.599 Y-23.771 E44.25615
G1 X1.599 Y26.417 E45.7637
G1 X38.062 Y26.417 E46.85897
G1 X38.062 Y-23.771 E48.36652
G1 F1800 E43.86652
G0 F6000 X37.842 Y-23.551
G0 X37.862 Y-5.131
G0 X36.807 Y-5.131
G0 X47.193 Y-3.789
G0 X46.434 Y-4.534
G0 X47.425 Y-5.061
G0 X48.546 Y-5.131
G0 X48.595 Y-5.318
G1 F1800 E48.36652
G1 F1200 X47.975 Y-5.393 E48.38528
G1 X47.357 Y-5.305 E48.40403
G1 X46.781 Y-5.06 E48.42284
G1 X46.29 Y-4.674 E48.4416
G1 X45.915 Y-4.174 E48.46037
G1 X45.682 Y-3.595 E48.47912
G1 X45.607 Y-2.975 E48.49788
G1 X45.695 Y-2.357 E48.51663
G1 X45.94 Y-1.781 E48.53543
G1 X46.326 Y-1.29 E48.55419
G1 X46.826 Y-.915 E48.57296
G1 X47.405 Y-.682 E48.59171
G1 X48.025 Y-.607 E48.61047
G1 X48.643 Y-.695 E48.62922
G1 X49.219 Y-.94 E48.64802
G1 X49.71 Y-1.326 E48.66678
G1 X50.082 Y-1.823 E48.68543
G1 X50.314 Y-2.383 E48.70364
G1 X50.393 Y-3.025 E48.72307
G1 X50.305 Y-3.643 E48.74182
G1 X50.06 Y-4.219 E48.76062
G1 X49.674 Y-4.71 E48.77938
G1 X49.174 Y-5.085 E48.79816
G1 X48.595 Y-5.318 E48.8169
G1 F1800 E44.3169
G0 F6000 X48.546 Y-5.131
G0 X47.987 Y-4.128
G0 X36.874 Y-15.823
G0 X36.819 Y-22.528
G0 X30.45 Y-22.584
G0 X16.09 Y-37.702
G0 X17.12 Y-37.434
G0 X17.119 Y-38.591
G0 X17.305 Y-38.643
G1 F1800 E48.8169
G1 F1200 X17.06 Y-39.219 E48.83571
G1 X16.674 Y-39.71 E48.85447
G1 X16.174 Y-40.085 E48.87324
G1 X15.595 Y-40.318 E48.89199
G1 X14.975 Y-40.393 E48.91075
G1 X14.357 Y-40.305 E48.9295
G1 X13.781 Y-40.06 E48.9483
G1 X13.29 Y-39.674 E48.96706
G1 X12.915 Y-39.174 E48.98583
G1 X12.682 Y-38.595 E49.00458
G1 X12.607 Y-37.975 E49.02334
G1 X12.695 Y-37.357 E49.04209
G1 X12.94 Y-36.781 E49.06089
G1 X13.326 Y-36.29 E49.07965
G1 X13.826 Y-35.915 E49.09843
G1 X14.405 Y-35.682 E49.11718
G1 X15.025 Y-35.607 E49.13594
G1 X15.643 Y-35.695 E49.15469
G1 X16.219 Y-35.94 E49.17349
G1 X16.71 Y-36.326 E49.19225
G1 X17.082 Y-36.823 E49.2109
G1 X17.314 Y-37.383 E49.2291
G1 X17.393 Y-38.025 E49.24853
G1 X17.305 Y-38.643 E49.26728
G1 F1800 E44.76728
G0 F6000 X17.119 Y-38.591
G0 X16.497 Y-39.529
G0 X15.531 Y-40.073
G0 X14.425 Y-40.061
G0 X13.471 Y-39.497
G0 X13.018 Y-38.756
G0 X12.808 Y-37.977
G0 X13.872 Y-37.987
G0 X-43.872 Y-38.014
G0 X-42.809 Y-38.023
G0 X-42.607 Y-38.025
G1 F1800 E49.26728
G1 F1200 X-42.695 Y-38.643 E49.28604
G1 X-42.94 Y-39.219 E49.30484
G1 X-43.326 Y-39.71 E49.3236
G1 X-43.826 Y-40.085 E49.34237
G1 X-44.405 Y-40.318 E49.36112
G1 X-45.025 Y-40.393 E49.37988
G1 X-45.643 Y-40.305 E49.39863
G1 X-46.219 Y-40.06 E49.41743
G1 X-46.71 Y-39.674 E49.43619
G1 X-47.085 Y-39.174 E49.45497
G1 X-47.318 Y-38.595 E49.47371
G1 X-47.393 Y-37.975 E49.49247
G1 X-47.305 Y-37.357 E49.51122
G1 X-47.06 Y-36.781 E49.53003
G1 X-46.674 Y-36.29 E49.54879
G1 X-46.174 Y-35.915 E49.56756
G1 X-45.595 Y-35.682 E49.58631
G1 X-44.975 Y-35.607 E49.60507
G1 X-44.357 Y-35.695 E49.62382
G1 X-43.781 Y-35.94 E49.64262
G1 X-43.29 Y-36.326 E49.66138
G1 X-42.918 Y-36.823 E49.68003
G1 X-42.686 Y-37.383 E49.69824
G1 X-42.607 Y-38.025 E49.71767
G1 F1800 E45.21767
G0 F6000 X-42.801 Y-38.023
G0 X-43.434 Y-36.466
G0 X-44.193 Y-37.211
G0 X-10.013 Y36.872
G0 X-10.023 Y35.808
G0 X-8.461 Y36.428
G0 X-8.326 Y36.29
G1 F1800 E49.71767
G1 F1200 X-8.826 Y35.915 E49.73644
G1 X-9.405 Y35.682 E49.75519
G1 X-10.025 Y35.607 E49.77395
G1 X-10.643 Y35.695 E49.7927
G1 X-11.219 Y35.94 E49.8115
G1 X-11.71 Y36.326 E49.83026
G1 X-12.085 Y36.826 E49.84903
G1 X-12.318 Y37.405 E49.86778
G1 X-12.393 Y38.025 E49.88654
G1 X-12.305 Y38.643 E49.90529
G1 X-12.06 Y39.219 E49.92409
G1 X-11.674 Y39.71 E49.94285
G1 X-11.174 Y40.085 E49.96163
G1 X-10.595 Y40.318 E49.98037
G1 X-9.975 Y40.393 E49.99913
G1 X-9.357 Y40.305 E50.01788
G1 X-8.781 Y40.06 E50.03669
G1 X-8.29 Y39.674 E50.05545
G1 X-7.918 Y39.177 E50.07409
G1 X-7.686 Y38.617 E50.0923
G1 X-7.607 Y37.975 E50.11173
G1 X-7.695 Y37.357 E50.13048
G1 X-7.94 Y36.781 E50.14929
G1 X-8.326 Y36.29 E50.16805
G1 F1800 E45.66805
G0 F6000 X-8.461 Y36.428
G0 X-9.469 Y35.927
G0 X-10.575 Y35.939
G0 X-11.529 Y36.503
G0 X-11.982 Y37.244
G0 X-12.192 Y38.023
G0 X-11.128 Y38.013
G0 X-56.165 Y38.023
G0 X-55.09 Y38.023
G0 X-55.129 Y43.479
G0 X-54.693 Y43.735
G1 F1800 E50.16805
G1 F1200 X-53.735 Y44.693 E50.20874
G0 F6000 X-53.133 Y44.73
G1 F1200 X-54.729 Y43.134 E50.27654
G0 F6000 X-54.729 Y42.568
G1 F1200 X-52.567 Y44.73 E50.36838
G0 F6000 X-52.002 Y44.73
G1 F1200 X-54.729 Y42.002 E50.48425
G0 F6000 X-54.729 Y41.437
G1 F1200 X-51.436 Y44.73 E50.62414
G0 F6000 X-50.87 Y44.73
G1 F1200 X-54.729 Y40.871 E50.78807
G0 F6000 X-54.729 Y40.305
G1 F1200 X-50.304 Y44.73 E50.97604
G0 F6000 X-49.739 Y44.73
G1 F1200 X-54.729 Y39.74 E51.18802
G0 F6000 X-54.729 Y39.174
G1 F1200 X-49.173 Y44.73 E51.42404
G0 F6000 X-48.607 Y44.73
G1 F1200 X-54.729 Y38.608 E51.6841
G0 F6000 X-54.729 Y38.043
G1 F1200 X-48.042 Y44.73 E51.96817
G0 F6000 X-47.476 Y44.73
G1 F1200 X-54.729 Y37.477 E52.27628
G0 F6000 X-54.729 Y36.911
G1 F1200 X-46.91 Y44.73 E52.60843
G0 F6000 X-46.345 Y44.73
G1 F1200 X-54.729 Y36.345 E52.9646
G0 F6000 X-54.729 Y35.78
G1 F1200 X-45.779 Y44.73 E53.3448
G0 F6000 X-45.213 Y44.73
G1 F1200 X-54.729 Y35.214 E53.74904
G0 F6000 X-54.729 Y34.648
G1 F1200 X-44.648 Y44.73 E54.17731
G0 F6000 X-44.082 Y44.73
G1 F1200 X-54.729 Y34.083 E54.6296
G0 F6000 X-54.729 Y33.517
G1 F1200 X-43.516 Y44.73 E55.10593
G0 F6000 X-42.951 Y44.73
G1 F1200 X-54.729 Y32.951 E55.60628
G0 F6000 X-54.729 Y32.386
G1 F1200 X-42.385 Y44.73 E56.13066
G0 F6000 X-41.819 Y44.73
G1 F1200 X-54.729 Y31.82 E56.67908
G0 F6000 X-54.729 Y31.254
G1 F1200 X-41.254 Y44.73 E57.25152
G0 F6000 X-40.688 Y44.73
G1 F1200 X-54.729 Y30.689 E57.84798
G0 F6000 X-54.729 Y30.123
G1 F1200 X-40.122 Y44.73 E58.46849
G0 F6000 X-39.556 Y44.73
G1 F1200 X-54.729 Y29.557 E59.11304
G0 F6000 X-54.729 Y28.992
G1 F1200 X-38.991 Y44.73 E59.7816
G0 F6000 X-38.425 Y44.73
G1 F1200 X-54.729 Y28.426 E60.4742
G0 F6000 X-54.729 Y27.86
G1 F1200 X-37.859 Y44.73 E61.19084
G0 F6000 X-37.294 Y44.73
G1 F1200 X-54.729 Y27.295 E61.93148
G0 F6000 X-54.729 Y26.729
G1 F1200 X-36.728 Y44.73 E62.69617
G0 F6000 X-36.162 Y44.73
G1 F1200 X-54.729 Y26.163 E63.4849
G0 F6000 X-54.729 Y25.597
G1 F1200 X-35.597 Y44.73 E64.29765
G0 F6000 X-35.031 Y44.73
G1 F1200 X-54.729 Y25.032 E65.13443
G0 F6000 X-54.729 Y24.466
G1 F1200 X-34.465 Y44.73 E65.99525
G0 F6000 X-33.9 Y44.73
G1 F1200 X-54.729 Y23.9 E66.88009
G0 F6000 X-54.729 Y23.335
G1 F1200 X-33.334 Y44.73 E67.78895
G0 F6000 X-32.768 Y44.73
G1 F1200 X-54.729 Y22.769 E68.72186
G0 F6000 X-54.729 Y22.203
G1 F1200 X-32.203 Y44.73 E69.67879
G0 F6000 X-31.637 Y44.73
