;FLAVOR:Marlin
;TIME:7008
;Filament used: 8.90679m
;Layer height: 0.25
;MINX:-58.7
;MINY:-48.7
;MINZ:0.3
;MAXX:58.7
;MAXY:48.7
;MAXZ:6.8
;Generated with Cura_SteamEngine 4.4.1
M140 S50
M105
M190 S50
M104 S210
M105
M109 S210
M82 ;absolute extrusion mode
M118 X60.00 Y50.00 Z5.00 T0
M140 S50 T0
M104 S210 T0
M104 S0 T1
M107
G90
G28
M132 X Y Z A B
G1 Z50.00 F400
G161 X Y F3300
M7 T0
M6 T0
M651
M907 X100 Y100 Z40 A100 B20
M108 T0
G1 X60.00 Y50.00 F6000
G92 E0
G92 E0
G1 F1500 E-6.5
;LAYER_COUNT:19
;LAYER:0
M107
G1 F600 Z2.3
G0 F4200 X-52.793 Y48.7 Z2.3
;TYPE:SKIRT
G1 F600 Z0.3
G1 F1500 E0
G1 F1200 X-52.839 Y48.7 E0.00229
G1 X-53.536 Y48.69 E0.03707
G1 X-53.9 Y48.664 E0.05528
G1 X-54.395 Y48.6 E0.08018
G1 X-54.89 Y48.495 E0.10542
G1 X-55.151 Y48.406 E0.11918
G1 X-55.565 Y48.244 E0.14136
G1 X-56.214 Y47.9 E0.17801
G1 X-56.641 Y47.606 E0.20387
G1 X-57.033 Y47.287 E0.22909
G1 X-57.253 Y47.055 E0.24504
G1 X-57.582 Y46.672 E0.27023
G1 X-57.88 Y46.264 E0.29543
G1 X-58.036 Y45.981 E0.31156
G1 X-58.261 Y45.516 E0.33733
G1 X-58.444 Y45.045 E0.36254
G1 X-58.526 Y44.709 E0.37979
G1 X-58.626 Y44.173 E0.407
G1 X-58.676 Y43.755 E0.428
G1 X-58.695 Y43.396 E0.44593
G1 X-58.699 Y43.227 E0.45437
G1 X-58.7 Y-42.793 E4.74592
G1 X-58.7 Y-42.839 E4.74822
G1 X-58.69 Y-43.537 E4.78304
G1 X-58.664 Y-43.897 E4.80105
G1 X-58.601 Y-44.389 E4.8258
G1 X-58.497 Y-44.884 E4.85103
G1 X-58.405 Y-45.153 E4.86522
G1 X-58.238 Y-45.578 E4.888
G1 X-57.889 Y-46.232 E4.92498
G1 X-57.599 Y-46.65 E4.95036
G1 X-57.279 Y-47.041 E4.97557
G1 X-57.062 Y-47.247 E4.9905
G1 X-56.694 Y-47.565 E5.01476
G1 X-56.287 Y-47.865 E5.03999
G1 X-56.014 Y-48.016 E5.05555
G1 X-55.534 Y-48.252 E5.08224
G1 X-55.064 Y-48.438 E5.10746
G1 X-54.709 Y-48.526 E5.1257
G1 X-54.173 Y-48.626 E5.15291
G1 X-53.763 Y-48.675 E5.17351
G1 X-53.42 Y-48.694 E5.19064
G1 X-53.243 Y-48.699 E5.19948
G1 X52.793 Y-48.7 E10.48964
G1 X52.839 Y-48.7 E10.49193
G1 X53.537 Y-48.69 E10.52676
G1 X53.902 Y-48.663 E10.54502
G1 X54.396 Y-48.599 E10.56987
G1 X54.891 Y-48.495 E10.5951
G1 X55.151 Y-48.406 E10.60881
G1 X55.565 Y-48.244 E10.63099
G1 X56.214 Y-47.9 E10.66764
G1 X56.641 Y-47.606 E10.6935
G1 X57.033 Y-47.287 E10.71872
G1 X57.247 Y-47.062 E10.73421
G1 X57.565 Y-46.694 E10.75847
G1 X57.865 Y-46.287 E10.7837
G1 X58.016 Y-46.014 E10.79926
G1 X58.252 Y-45.534 E10.82595
G1 X58.438 Y-45.064 E10.85117
G1 X58.526 Y-44.709 E10.86941
G1 X58.626 Y-44.173 E10.89662
G1 X58.675 Y-43.763 E10.91722
G1 X58.694 Y-43.42 E10.93436
G1 X58.699 Y-43.243 E10.94319
G1 X58.7 Y42.793 E15.23554
G1 X58.7 Y42.839 E15.23784
G1 X58.69 Y43.536 E15.27262
G1 X58.664 Y43.896 E15.29062
G1 X58.601 Y44.389 E15.31542
G1 X58.498 Y44.883 E15.3406
G1 X58.406 Y45.15 E15.35468
G1 X58.243 Y45.566 E15.37698
G1 X57.9 Y46.214 E15.41355
G1 X57.606 Y46.641 E15.43942
G1 X57.287 Y47.033 E15.46463
G1 X57.062 Y47.247 E15.48012
G1 X56.694 Y47.565 E15.50439
G1 X56.287 Y47.865 E15.52961
G1 X56.014 Y48.016 E15.54518
G1 X55.54 Y48.249 E15.57153
G1 X55.07 Y48.435 E15.59675
G1 X54.725 Y48.521 E15.61449
G1 X54.183 Y48.624 E15.64201
G1 X53.763 Y48.675 E15.66312
G1 X53.42 Y48.694 E15.68026
G1 X53.243 Y48.699 E15.68909
G1 X-52.793 Y48.7 E20.97925
G1 F1500 E14.47925
G1 F600 Z2.3
;MESH:van-tracker-lid-01 v8.obj
G0 F4200 X-7.284 Y38.721 Z2.3
;TYPE:WALL-INNER
G1 F600 Z0.3
G1 F1500 E20.97925
G1 F1200 X-7.195 Y37.964 E21.01728
G1 X-7.3 Y37.239 E21.05382
G1 X-7.588 Y36.567 E21.0903
G1 X-8.04 Y35.991 E21.12683
G1 X-8.627 Y35.552 E21.1634
G1 X-9.309 Y35.28 E21.20003
G1 X-10.038 Y35.195 E21.23664
G1 X-10.762 Y35.3 E21.27314
G1 X-11.433 Y35.588 E21.30957
G1 X-12.009 Y36.04 E21.3461
G1 X-12.448 Y36.627 E21.38267
G1 X-12.72 Y37.309 E21.4193
G1 X-12.805 Y38.038 E21.45592
G1 X-12.7 Y38.762 E21.49242
G1 X-12.412 Y39.433 E21.52885
G1 X-11.96 Y40.009 E21.56537
G1 X-11.373 Y40.448 E21.60194
G1 X-10.691 Y40.72 E21.63857
G1 X-9.962 Y40.805 E21.67519
G1 X-9.238 Y40.7 E21.71169
G1 X-8.567 Y40.412 E21.74812
G1 X-7.991 Y39.96 E21.78465
G1 X-7.557 Y39.377 E21.82091
G1 X-7.284 Y38.721 E21.85636
G1 F1500 E15.35636
G1 F600 Z2.3
G0 F4200 X-7.466 Y38.647 Z2.3
G0 X1.172 Y26.844
G1 F600 Z0.3
G1 F1500 E21.85636
G1 F1200 X38.489 Y26.844 E23.71811
G1 X38.489 Y-24.198 E26.26461
G1 X1.172 Y-24.198 E28.12636
G1 X1.172 Y26.844 E30.67285
G1 F1500 E24.17285
G1 F600 Z2.3
G0 F4200 X1.362 Y26.654 Z2.3
G0 X50.716 Y-2.279
G1 F600 Z0.3
G1 F1500 E30.67285
G1 F1200 X50.805 Y-3.036 E30.71088
G1 X50.7 Y-3.761 E30.74743
G1 X50.412 Y-4.433 E30.7839
G1 X49.96 Y-5.009 E30.82043
G1 X49.373 Y-5.448 E30.857
G1 X48.691 Y-5.72 E30.89363
G1 X47.962 Y-5.805 E30.93025
G1 X47.238 Y-5.7 E30.96675
G1 X46.567 Y-5.412 E31.00318
G1 X45.991 Y-4.96 E31.03971
G1 X45.552 Y-4.373 E31.07628
G1 X45.28 Y-3.691 E31.11291
G1 X45.195 Y-2.962 E31.14952
G1 X45.3 Y-2.238 E31.18602
G1 X45.588 Y-1.567 E31.22245
G1 X46.04 Y-.991 E31.25898
G1 X46.627 Y-.552 E31.29555
G1 X47.309 Y-.28 E31.33218
G1 X48.038 Y-.195 E31.3688
G1 X48.762 Y-.3 E31.4053
G1 X49.433 Y-.588 E31.44172
G1 X50.009 Y-1.04 E31.47825
G1 X50.443 Y-1.623 E31.51451
G1 X50.716 Y-2.279 E31.54996
G1 F1500 E25.04996
G1 F600 Z2.3
G0 F4200 X50.534 Y-2.353 Z2.3
G0 X53.997 Y-44.358
G1 F600 Z0.3
G1 F1500 E31.54996
G1 F1200 X54.201 Y-44.201 E31.56281
G1 X54.358 Y-43.997 E31.57565
G1 X54.457 Y-43.757 E31.5886
G1 X54.5 Y-43.431 E31.60501
G1 X54.5 Y43.431 E35.93857
G1 X54.457 Y43.757 E35.95497
G1 X54.358 Y43.997 E35.96793
G1 X54.201 Y44.201 E35.98077
G1 X53.997 Y44.358 E35.99361
G1 X53.757 Y44.457 E36.00656
G1 X53.431 Y44.5 E36.02297
G1 X-53.431 Y44.5 E41.35434
G1 X-53.757 Y44.457 E41.37074
G1 X-53.997 Y44.358 E41.38369
G1 X-54.201 Y44.201 E41.39654
G1 X-54.358 Y43.997 E41.40938
G1 X-54.457 Y43.757 E41.42233
G1 X-54.5 Y43.431 E41.43874
G1 X-54.5 Y-43.431 E45.7723
G1 X-54.457 Y-43.757 E45.7887
G1 X-54.358 Y-43.997 E45.80166
G1 X-54.201 Y-44.201 E45.8145
G1 X-53.997 Y-44.358 E45.82734
G1 X-53.757 Y-44.457 E45.84029
G1 X-53.431 Y-44.5 E45.8567
G1 X53.431 Y-44.5 E51.18807
G1 X53.757 Y-44.457 E51.20447
G1 X53.997 Y-44.358 E51.21742
G1 F1500 E44.71742
G1 F600 Z2.3
G0 F4200 X54.091 Y-44.52 Z2.3
G0 X17.716 Y-37.279
G1 F600 Z0.3
G1 F1500 E51.21742
G1 F1200 X17.805 Y-38.036 E51.25545
G1 X17.7 Y-38.761 E51.292
G1 X17.412 Y-39.433 E51.32847
G1 X16.96 Y-40.009 E51.365
G1 X16.373 Y-40.448 E51.40157
G1 X15.691 Y-40.72 E51.4382
G1 X14.962 Y-40.805 E51.47482
G1 X14.238 Y-40.7 E51.51132
G1 X13.567 Y-40.412 E51.54775
G1 X12.991 Y-39.96 E51.58428
G1 X12.552 Y-39.373 E51.62084
G1 X12.28 Y-38.691 E51.65748
G1 X12.195 Y-37.962 E51.69409
G1 X12.3 Y-37.238 E51.73059
G1 X12.588 Y-36.567 E51.76702
G1 X13.04 Y-35.991 E51.80355
G1 X13.627 Y-35.552 E51.84012
G1 X14.309 Y-35.28 E51.87675
G1 X15.038 Y-35.195 E51.91337
G1 X15.762 Y-35.3 E51.94986
G1 X16.433 Y-35.588 E51.98629
G1 X17.009 Y-36.04 E52.02282
G1 X17.443 Y-36.623 E52.05908
G1 X17.716 Y-37.279 E52.09453
G1 F1500 E45.59453
G1 F600 Z2.3
G0 F4200 X17.534 Y-37.353 Z2.3
G0 X-42.284 Y-37.279
G1 F600 Z0.3
G1 F1500 E52.09453
G1 F1200 X-42.195 Y-38.036 E52.13256
G1 X-42.3 Y-38.761 E52.16911
G1 X-42.588 Y-39.433 E52.20558
G1 X-43.04 Y-40.009 E52.24211
G1 X-43.627 Y-40.448 E52.27868
G1 X-44.309 Y-40.72 E52.31531
G1 X-45.038 Y-40.805 E52.35193
G1 X-45.762 Y-40.7 E52.38843
G1 X-46.433 Y-40.412 E52.42486
G1 X-47.009 Y-39.96 E52.46138
G1 X-47.448 Y-39.373 E52.49795
G1 X-47.72 Y-38.691 E52.53458
G1 X-47.805 Y-37.962 E52.5712
G1 X-47.7 Y-37.238 E52.6077
G1 X-47.412 Y-36.567 E52.64413
G1 X-46.96 Y-35.991 E52.68066
G1 X-46.373 Y-35.552 E52.71723
G1 X-45.691 Y-35.28 E52.75386
G1 X-44.962 Y-35.195 E52.79047
G1 X-44.238 Y-35.3 E52.82697
G1 X-43.567 Y-35.588 E52.8634
G1 X-42.991 Y-36.04 E52.89993
G1 X-42.557 Y-36.623 E52.93619
G1 X-42.284 Y-37.279 E52.97164
G0 F4200 X-42.675 Y-37.381
G1 F1200 X-42.598 Y-38.031 E53.0043
G1 X-42.688 Y-38.652 E53.0356
G1 X-42.935 Y-39.227 E53.06682
G1 X-43.322 Y-39.72 E53.09809
G1 X-43.824 Y-40.096 E53.12938
G1 X-44.408 Y-40.329 E53.16075
G1 X-45.032 Y-40.402 E53.1921
G1 X-45.652 Y-40.312 E53.22335
G1 X-46.227 Y-40.065 E53.25457
G1 X-46.72 Y-39.678 E53.28584
G1 X-47.096 Y-39.176 E53.31713
G1 X-47.329 Y-38.592 E53.3485
G1 X-47.402 Y-37.968 E53.37985
G1 X-47.312 Y-37.348 E53.4111
G1 X-47.065 Y-36.773 E53.44232
G1 X-46.678 Y-36.28 E53.47359
G1 X-46.176 Y-35.904 E53.50488
G1 X-45.592 Y-35.671 E53.53625
G1 X-44.968 Y-35.598 E53.5676
G1 X-44.348 Y-35.688 E53.59885
G1 X-43.773 Y-35.935 E53.63007
G1 X-43.28 Y-36.322 E53.66134
G1 X-42.907 Y-36.822 E53.69247
G1 X-42.675 Y-37.381 E53.72266
G1 F1500 E47.22266
G1 F600 Z2.3
G0 F4200 X-42.485 Y-37.331 Z2.3
G0 X17.325 Y-37.381
G1 F600 Z0.3
G1 F1500 E53.72266
G1 F1200 X17.402 Y-38.031 E53.75532
G1 X17.312 Y-38.652 E53.78662
G1 X17.065 Y-39.227 E53.81784
G1 X16.678 Y-39.72 E53.84911
G1 X16.176 Y-40.096 E53.8804
G1 X15.592 Y-40.329 E53.91177
G1 X14.968 Y-40.402 E53.94312
G1 X14.348 Y-40.312 E53.97437
G1 X13.773 Y-40.065 E54.00559
G1 X13.28 Y-39.678 E54.03686
G1 X12.904 Y-39.176 E54.06815
G1 X12.671 Y-38.592 E54.09952
G1 X12.598 Y-37.968 E54.13087
G1 X12.688 Y-37.348 E54.16212
G1 X12.935 Y-36.773 E54.19334
G1 X13.322 Y-36.28 E54.22461
G1 X13.824 Y-35.904 E54.2559
G1 X14.408 Y-35.671 E54.28727
G1 X15.032 Y-35.598 E54.31862
G1 X15.652 Y-35.688 E54.34987
G1 X16.227 Y-35.935 E54.38109
G1 X16.72 Y-36.322 E54.41236
G1 X17.093 Y-36.822 E54.44349
G1 X17.325 Y-37.381 E54.47368
G1 F1500 E47.97368
G1 F600 Z2.3
G0 F4200 X17.515 Y-37.331 Z2.3
G0 X54.195 Y-44.709
G1 F600 Z0.3
G1 F1500 E54.47368
G1 F1200 X54.486 Y-44.486 E54.49197
G1 X54.709 Y-44.195 E54.51026
G1 X54.847 Y-43.862 E54.52825
G1 X54.9 Y-43.46 E54.54847
G1 X54.9 Y43.46 E58.88493
G1 X54.847 Y43.862 E58.90516
G1 X54.709 Y44.195 E58.92314
G1 X54.486 Y44.486 E58.94143
G1 X54.195 Y44.709 E58.95973
G1 X53.862 Y44.847 E58.97771
G1 X53.46 Y44.9 E58.99794
G1 X-53.46 Y44.9 E64.3322
G1 X-53.862 Y44.847 E64.35243
G1 X-54.195 Y44.709 E64.37041
G1 X-54.486 Y44.486 E64.3887
G1 X-54.709 Y44.195 E64.40699
G1 X-54.847 Y43.862 E64.42498
G1 X-54.9 Y43.46 E64.44521
G1 X-54.9 Y-43.46 E68.78166
G1 X-54.847 Y-43.862 E68.80189
G1 X-54.709 Y-44.195 E68.81988
G1 X-54.486 Y-44.486 E68.83817
G1 X-54.195 Y-44.709 E68.85646
G1 X-53.862 Y-44.847 E68.87444
G1 X-53.46 Y-44.9 E68.89467
G1 X53.46 Y-44.9 E74.22893
G1 X53.862 Y-44.847 E74.24916
G1 X54.195 Y-44.709 E74.26714
G1 F1500 E67.76714
G1 F600 Z2.3
G0 F4200 X54.069 Y-44.545 Z2.3
G0 X50.325 Y-2.381
G1 F600 Z0.3
G1 F1500 E74.26714
G1 F1200 X50.402 Y-3.031 E74.2998
G1 X50.312 Y-3.652 E74.3311
G1 X50.065 Y-4.227 E74.36233
G1 X49.678 Y-4.72 E74.39359
G1 X49.176 Y-5.096 E74.42489
G1 X48.592 Y-5.329 E74.45626
G1 X47.968 Y-5.402 E74.4876
G1 X47.348 Y-5.312 E74.51886
G1 X46.773 Y-5.065 E74.55008
G1 X46.28 Y-4.678 E74.58135
G1 X45.904 Y-4.176 E74.61264
G1 X45.671 Y-3.592 E74.64401
G1 X45.598 Y-2.968 E74.67535
G1 X45.688 Y-2.348 E74.70661
G1 X45.935 Y-1.773 E74.73783
G1 X46.322 Y-1.28 E74.7691
G1 X46.824 Y-.904 E74.80039
G1 X47.408 Y-.671 E74.83176
G1 X48.032 Y-.598 E74.8631
G1 X48.652 Y-.688 E74.89436
G1 X49.227 Y-.935 E74.92558
G1 X49.72 Y-1.322 E74.95685
G1 X50.093 Y-1.822 E74.98797
G1 X50.325 Y-2.381 E75.01816
G1 F1500 E68.51816
G1 F600 Z2.3
G0 F4200 X50.515 Y-2.331 Z2.3
G0 X1.572 Y26.444
G1 F600 Z0.3
G1 F1500 E75.01816
G1 F1200 X38.089 Y26.444 E76.84
G1 X38.089 Y-23.798 E79.34659
G1 X1.572 Y-23.798 E81.16843
G1 X1.572 Y26.444 E83.67501
G1 F1500 E77.17501
G1 F600 Z2.3
G0 F4200 X1.49 Y26.526 Z2.3
G0 X-7.675 Y38.619
G1 F600 Z0.3
G1 F1500 E83.67501
G1 F1200 X-7.598 Y37.969 E83.70767
G1 X-7.688 Y37.348 E83.73897
G1 X-7.935 Y36.773 E83.77019
G1 X-8.322 Y36.28 E83.80146
G1 X-8.824 Y35.904 E83.83275
G1 X-9.408 Y35.671 E83.86412
G1 X-10.032 Y35.598 E83.89547
G1 X-10.652 Y35.688 E83.92672
G1 X-11.227 Y35.935 E83.95794
G1 X-11.72 Y36.322 E83.98921
G1 X-12.096 Y36.824 E84.0205
G1 X-12.329 Y37.408 E84.05187
G1 X-12.402 Y38.032 E84.08322
G1 X-12.312 Y38.652 E84.11447
G1 X-12.065 Y39.227 E84.1457
G1 X-11.678 Y39.72 E84.17696
G1 X-11.176 Y40.096 E84.20826
G1 X-10.592 Y40.329 E84.23962
G1 X-9.968 Y40.402 E84.27097
G1 X-9.348 Y40.312 E84.30222
G1 X-8.773 Y40.065 E84.33345
G1 X-8.28 Y39.678 E84.36471
G1 X-7.907 Y39.178 E84.39584
G1 X-7.675 Y38.619 E84.42603
G0 F4200 X-8.066 Y38.517
;TYPE:WALL-OUTER
G1 F1200 X-8.001 Y37.974 E84.45332
G1 X-8.076 Y37.458 E84.47933
G1 X-8.282 Y36.979 E84.50534
G1 X-8.604 Y36.569 E84.53135
G1 X-9.022 Y36.256 E84.5574
G1 X-9.507 Y36.062 E84.58347
G1 X-10.026 Y36.001 E84.60954
G1 X-10.542 Y36.076 E84.63555
G1 X-11.021 Y36.282 E84.66156
G1 X-11.431 Y36.604 E84.68757
G1 X-11.744 Y37.022 E84.71363
G1 X-11.938 Y37.507 E84.73969
G1 X-11.999 Y38.026 E84.76576
G1 X-11.924 Y38.542 E84.79177
G1 X-11.718 Y39.021 E84.81779
G1 X-11.396 Y39.431 E84.84379
G1 X-10.978 Y39.744 E84.86985
G1 X-10.493 Y39.938 E84.89591
G1 X-9.974 Y39.999 E84.92198
G1 X-9.458 Y39.924 E84.94799
G1 X-8.979 Y39.718 E84.97401
G1 X-8.569 Y39.396 E85.00002
G1 X-8.257 Y38.979 E85.026
G1 X-8.066 Y38.517 E85.05094
G0 F4200 X-8.043 Y38.319
G1 F1500 E78.55094
G1 F600 Z2.3
G0 F4200 X-7.447 Y38.391 Z2.3
G0 X1.972 Y26.044
G1 F600 Z0.3
G1 F1500 E85.05094
G1 F1200 X37.689 Y26.044 E86.83287
G1 X37.689 Y-23.398 E89.29954
G1 X1.972 Y-23.398 E91.08147
G1 X1.972 Y26.044 E93.54814
G0 F4200 X2.172 Y26.044
G1 F1500 E87.04814
G1 F600 Z2.3
G0 F4200 X2.172 Y26.644 Z2.3
G0 X49.934 Y-2.483
G1 F600 Z0.3
G1 F1500 E93.54814
G1 F1200 X49.999 Y-3.026 E93.57542
G1 X49.924 Y-3.542 E93.60144
G1 X49.718 Y-4.021 E93.62745
G1 X49.396 Y-4.431 E93.65346
G1 X48.978 Y-4.744 E93.67951
G1 X48.493 Y-4.938 E93.70557
G1 X47.974 Y-4.999 E93.73164
G1 X47.458 Y-4.924 E93.75766
G1 X46.979 Y-4.718 E93.78367
G1 X46.569 Y-4.396 E93.80968
G1 X46.256 Y-3.978 E93.83573
G1 X46.062 Y-3.493 E93.8618
G1 X46.001 Y-2.974 E93.88787
G1 X46.076 Y-2.458 E93.91388
G1 X46.282 Y-1.979 E93.93989
G1 X46.604 Y-1.569 E93.9659
G1 X47.022 Y-1.256 E93.99196
G1 X47.507 Y-1.062 E94.01802
G1 X48.026 Y-1.001 E94.04409
G1 X48.542 Y-1.076 E94.0701
G1 X49.021 Y-1.282 E94.09612
G1 X49.431 Y-1.604 E94.12212
G1 X49.743 Y-2.021 E94.14811
G1 X49.934 Y-2.483 E94.17305
G0 F4200 X49.957 Y-2.681
G1 F1500 E87.67305
G1 F600 Z2.3
G0 F4200 X50.553 Y-2.609 Z2.3
G0 X54.399 Y-45.057
G1 F600 Z0.3
G1 F1500 E94.17305
G1 F1200 X54.771 Y-44.771 E94.19646
G1 X55.057 Y-44.399 E94.21987
G1 X55.238 Y-43.963 E94.24342
G1 X55.3 Y-43.489 E94.26727
G1 X55.3 Y43.489 E98.60662
G1 X55.238 Y43.963 E98.63047
G1 X55.057 Y44.399 E98.65402
G1 X54.771 Y44.771 E98.67743
G1 X54.399 Y45.057 E98.70084
G1 X53.963 Y45.238 E98.72439
G1 X53.489 Y45.3 E98.74824
G1 X-53.489 Y45.3 E104.0854
G1 X-53.963 Y45.238 E104.10925
G1 X-54.399 Y45.057 E104.1328
G1 X-54.771 Y44.771 E104.15621
G1 X-55.057 Y44.399 E104.17962
G1 X-55.238 Y43.963 E104.20317
G1 X-55.3 Y43.489 E104.22702
G1 X-55.3 Y-43.489 E108.56637
G1 X-55.238 Y-43.963 E108.59022
G1 X-55.057 Y-44.399 E108.61377
G1 X-54.771 Y-44.771 E108.63718
G1 X-54.399 Y-45.057 E108.66059
G1 X-53.963 Y-45.238 E108.68414
G1 X-53.489 Y-45.3 E108.70799
G1 X53.489 Y-45.3 E114.04515
G1 X53.963 Y-45.238 E114.069
G1 X54.399 Y-45.057 E114.09255
G0 F4200 X54.557 Y-44.936
G1 F1500 E107.59255
G1 F600 Z2.3
G0 F4200 X54.19 Y-44.46 Z2.3
G0 X16.934 Y-37.483
G1 F600 Z0.3
G1 F1500 E114.09255
G1 F1200 X16.999 Y-38.026 E114.11983
G1 X16.924 Y-38.542 E114.14585
G1 X16.718 Y-39.021 E114.17186
G1 X16.396 Y-39.431 E114.19787
G1 X15.978 Y-39.744 E114.22392
G1 X15.493 Y-39.938 E114.24998
G1 X14.974 Y-39.999 E114.27605
G1 X14.458 Y-39.924 E114.30207
G1 X13.979 Y-39.718 E114.32808
G1 X13.569 Y-39.396 E114.35409
G1 X13.256 Y-38.978 E114.38014
G1 X13.062 Y-38.493 E114.4062
G1 X13.001 Y-37.974 E114.43228
G1 X13.076 Y-37.458 E114.45829
G1 X13.282 Y-36.979 E114.4843
G1 X13.604 Y-36.569 E114.51031
G1 X14.022 Y-36.256 E114.53637
G1 X14.507 Y-36.062 E114.56243
G1 X15.026 Y-36.001 E114.5885
G1 X15.542 Y-36.076 E114.61451
G1 X16.021 Y-36.282 E114.64052
G1 X16.431 Y-36.604 E114.66653
G1 X16.743 Y-37.021 E114.69252
G1 X16.934 Y-37.483 E114.71746
G0 F4200 X16.957 Y-37.681
G1 F1500 E108.21746
G1 F600 Z2.3
G0 F4200 X17.553 Y-37.609 Z2.3
G0 X-43.066 Y-37.483
G1 F600 Z0.3
G1 F1500 E114.71746
G1 F1200 X-43.001 Y-38.026 E114.74474
G1 X-43.076 Y-38.542 E114.77076
G1 X-43.282 Y-39.021 E114.79677
G1 X-43.604 Y-39.431 E114.82278
