;FLAVOR:Marlin
;TIME:2938
;Filament used: 7.11899m
;Layer height: 0.4
;MINX:62.6
;MINY:73.6
;MINZ:0.5
;MAXX:172.4
;MAXY:161.4
;MAXZ:4.9
;Generated with Cura_SteamEngine 4.6.1
M140 S80
M105
M190 S80
M104 S245
M105
M109 S245
M82 ;absolute extrusion mode
; Ender 3 Custom Start G-code
G92 E0 ; Reset Extruder
G28 ; Home all axes
G1 Z2.0 F3000 ; Move Z Axis up little to prevent scratching of Heat Bed
G1 X0.1 Y20 Z0.3 F5000.0 ; Move to start position
G1 X0.1 Y200.0 Z0.3 F1500.0 E15 ; Draw the first line
G1 X0.4 Y200.0 Z0.3 F5000.0 ; Move to side a little
G1 X0.4 Y20 Z0.3 F1500.0 E30 ; Draw the second line
G92 E0 ; Reset Extruder
G1 Z2.0 F3000 ; Move Z Axis up little to prevent scratching of Heat Bed
G1 X5 Y20 Z0.3 F5000.0 ; Move over to prevent blob squish
G92 E0
G92 E0
G1 F3000 E-10
;LAYER_COUNT:12
;LAYER:0
M107
G0 F12000 X166.043 Y74.246 Z0.5
;TYPE:SKIRT
G1 F3000 E0
G1 F720 X166.537 Y74.31 E0.06213
G1 X167.112 Y74.424 E0.13524
G1 X167.552 Y74.57 E0.19306
G1 X167.966 Y74.732 E0.24851
G1 X168.496 Y74.982 E0.3216
G1 X168.838 Y75.194 E0.37179
G1 X169.265 Y75.488 E0.43645
G1 X169.724 Y75.853 E0.50959
G1 X170.08 Y76.219 E0.57328
G1 X170.398 Y76.587 E0.63394
G1 X170.75 Y77.055 E0.70698
G1 X171.003 Y77.501 E0.77093
G1 X171.239 Y77.981 E0.83764
G1 X171.461 Y78.523 E0.9107
G1 X171.607 Y79.089 E0.9836
G1 X171.707 Y79.625 E1.05161
G1 X171.773 Y80.176 E1.12082
G1 X171.792 Y80.519 E1.16367
G1 X171.799 Y80.757 E1.19337
G1 X171.8 Y153.793 E10.30282
G1 X171.8 Y153.855 E10.31055
G1 X171.79 Y154.552 E10.3975
G1 X171.755 Y155.035 E10.4579
G1 X171.692 Y155.528 E10.51989
G1 X171.579 Y156.103 E10.59297
G1 X171.431 Y156.552 E10.65194
G1 X171.268 Y156.968 E10.70767
G1 X171.017 Y157.498 E10.78081
G1 X170.806 Y157.838 E10.83072
G1 X170.512 Y158.265 E10.89538
G1 X170.147 Y158.724 E10.96852
G1 X169.781 Y159.08 E11.0322
G1 X169.413 Y159.398 E11.09287
G1 X168.945 Y159.75 E11.16591
G1 X168.499 Y160.003 E11.22986
G1 X168.025 Y160.236 E11.29574
G1 X167.482 Y160.458 E11.3689
G1 X166.931 Y160.601 E11.43991
G1 X166.389 Y160.704 E11.50872
G1 X165.824 Y160.773 E11.57971
G1 X165.481 Y160.792 E11.62256
G1 X165.243 Y160.799 E11.65225
G1 X70.207 Y160.8 E23.50567
G1 X70.145 Y160.8 E23.5134
G1 X69.448 Y160.79 E23.60034
G1 X68.959 Y160.755 E23.66149
G1 X68.464 Y160.691 E23.72374
G1 X67.889 Y160.576 E23.79688
G1 X67.448 Y160.43 E23.85482
G1 X67.034 Y160.268 E23.91027
G1 X66.504 Y160.018 E23.98336
G1 X66.162 Y159.806 E24.03354
G1 X65.735 Y159.512 E24.09821
G1 X65.276 Y159.147 E24.17135
G1 X64.912 Y158.772 E24.23653
G1 X64.583 Y158.389 E24.29951
G1 X64.232 Y157.919 E24.37267
G1 X63.974 Y157.46 E24.43834
G1 X63.749 Y156.995 E24.50277
G1 X63.531 Y156.451 E24.57587
G1 X63.393 Y155.911 E24.64539
G1 X63.293 Y155.375 E24.71339
G1 X63.226 Y154.813 E24.78398
G1 X63.207 Y154.454 E24.82882
G1 X63.201 Y154.227 E24.85715
G1 X63.2 Y81.207 E33.9646
G1 X63.2 Y81.145 E33.97234
G1 X63.21 Y80.447 E34.0594
G1 X63.245 Y79.963 E34.11993
G1 X63.308 Y79.471 E34.18179
G1 X63.422 Y78.896 E34.25491
G1 X63.571 Y78.444 E34.31427
G1 X63.738 Y78.019 E34.37122
G1 X63.989 Y77.49 E34.44425
G1 X64.207 Y77.141 E34.49557
G1 X64.497 Y76.723 E34.55903
G1 X64.863 Y76.265 E34.63215
G1 X65.219 Y75.92 E34.69398
G1 X65.587 Y75.602 E34.75465
G1 X66.055 Y75.25 E34.82768
G1 X66.501 Y74.997 E34.89164
G1 X66.981 Y74.761 E34.95835
G1 X67.523 Y74.539 E35.0314
G1 X68.089 Y74.393 E35.10431
G1 X68.625 Y74.293 E35.17232
G1 X69.176 Y74.227 E35.24153
G1 X69.519 Y74.208 E35.28438
G1 X69.757 Y74.201 E35.31408
G1 X164.793 Y74.2 E47.16749
G1 X164.855 Y74.2 E47.17522
G1 X165.553 Y74.21 E47.26229
G1 X166.043 Y74.246 E47.32357
G0 F12000 X165.561 Y73.611
G1 F720 X166.121 Y73.651 E47.39359
G1 X166.615 Y73.715 E47.45572
G1 X167.229 Y73.834 E47.53373
G1 X167.771 Y74.011 E47.60484
G1 X168.185 Y74.173 E47.66029
G1 X168.752 Y74.438 E47.73835
G1 X169.178 Y74.7 E47.80073
G1 X169.605 Y74.994 E47.86539
G1 X170.097 Y75.381 E47.94347
G1 X170.534 Y75.826 E48.02126
G1 X170.852 Y76.194 E48.08192
G1 X171.23 Y76.693 E48.16
G1 X171.541 Y77.236 E48.23805
G1 X171.777 Y77.716 E48.30476
G1 X172.017 Y78.294 E48.38282
G1 X172.197 Y78.979 E48.47116
G1 X172.297 Y79.515 E48.53916
G1 X172.372 Y80.143 E48.61805
G1 X172.391 Y80.486 E48.66089
G1 X172.399 Y80.757 E48.69471
G1 X172.4 Y153.793 E57.80416
G1 X172.389 Y154.56 E57.89983
G1 X172.35 Y155.111 E57.96873
G1 X172.287 Y155.604 E58.03072
G1 X172.169 Y156.219 E58.10883
G1 X171.989 Y156.771 E58.18124
G1 X171.826 Y157.187 E58.23697
G1 X171.561 Y157.754 E58.31503
G1 X171.3 Y158.178 E58.37713
G1 X171.006 Y158.605 E58.44179
G1 X170.619 Y159.097 E58.51986
G1 X170.174 Y159.534 E58.59766
G1 X169.806 Y159.852 E58.65832
G1 X169.307 Y160.23 E58.7364
G1 X168.764 Y160.541 E58.81444
G1 X168.29 Y160.774 E58.88032
G1 X167.712 Y161.014 E58.95838
G1 X167.043 Y161.191 E59.04469
G1 X166.501 Y161.294 E59.1135
G1 X165.857 Y161.372 E59.19441
G1 X165.514 Y161.391 E59.23726
G1 X165.243 Y161.399 E59.27107
G1 X70.207 Y161.4 E71.12449
G1 X69.44 Y161.389 E71.22016
G1 X68.882 Y161.35 E71.28993
G1 X68.387 Y161.286 E71.35218
G1 X67.772 Y161.166 E71.43033
G1 X67.229 Y160.989 E71.50157
G1 X66.815 Y160.827 E71.55702
G1 X66.248 Y160.562 E71.63508
G1 X65.822 Y160.3 E71.69746
G1 X65.395 Y160.006 E71.76212
G1 X64.903 Y159.619 E71.84019
G1 X64.457 Y159.163 E71.91975
G1 X64.128 Y158.78 E71.98272
G1 X63.751 Y158.28 E72.06083
G1 X63.434 Y157.721 E72.14098
G1 X63.209 Y157.256 E72.20541
G1 X62.973 Y156.677 E72.28339
G1 X62.803 Y156.021 E72.36791
G1 X62.703 Y155.485 E72.43592
G1 X62.627 Y154.845 E72.51631
G1 X62.608 Y154.486 E72.56115
G1 X62.601 Y154.227 E72.59346
G1 X62.6 Y81.207 E81.70092
G1 X62.611 Y80.439 E81.79672
G1 X62.65 Y79.887 E81.86574
G1 X62.713 Y79.395 E81.9276
G1 X62.832 Y78.78 E82.00573
G1 X63.012 Y78.225 E82.0785
G1 X63.179 Y77.8 E82.13546
G1 X63.445 Y77.233 E82.21357
G1 X63.714 Y76.799 E82.27726
G1 X64.004 Y76.381 E82.34071
G1 X64.393 Y75.891 E82.41874
G1 X64.826 Y75.466 E82.49442
G1 X65.194 Y75.148 E82.55508
G1 X65.693 Y74.77 E82.63316
G1 X66.236 Y74.459 E82.71121
G1 X66.716 Y74.223 E82.77792
G1 X67.294 Y73.983 E82.85598
G1 X67.979 Y73.803 E82.94432
G1 X68.515 Y73.703 E83.01232
G1 X69.143 Y73.628 E83.09121
G1 X69.486 Y73.609 E83.13405
G1 X69.757 Y73.601 E83.16787
G1 X164.793 Y73.6 E95.02128
G1 X164.863 Y73.601 E95.03001
G1 X165.561 Y73.611 E95.11708
G1 F3000 E85.11708
;MESH:lid-feet-v1.1 v4.obj
G0 F12000 X73.085 Y84.085
;TYPE:WALL-INNER
G1 F3000 E95.11708
G1 F720 X72.655 Y84.647 E95.20534
G1 X72.385 Y85.299 E95.29336
G1 X72.292 Y86 E95.38156
G1 X72.385 Y86.701 E95.46976
G1 X72.655 Y87.353 E95.55777
G1 X73.085 Y87.915 E95.64603
G1 X73.647 Y88.345 E95.73429
G1 X74.299 Y88.615 E95.82231
G1 X75 Y88.708 E95.91051
G1 X75.701 Y88.615 E95.99871
G1 X76.353 Y88.345 E96.08673
G1 X76.915 Y87.915 E96.17499
G1 X77.345 Y87.353 E96.26325
G1 X77.615 Y86.701 E96.35127
G1 X77.708 Y86 E96.43946
G1 X77.615 Y85.299 E96.52766
G1 X77.345 Y84.647 E96.61568
G1 X76.915 Y84.085 E96.70394
G1 X76.353 Y83.655 E96.7922
G1 X75.701 Y83.385 E96.88022
G1 X75 Y83.292 E96.96842
G1 X74.299 Y83.385 E97.05662
G1 X73.647 Y83.655 E97.14463
G1 X73.085 Y84.085 E97.23289
G0 F12000 X73.513 Y84.513
;TYPE:WALL-OUTER
G1 F720 X73.179 Y84.949 E97.3014
G1 X72.969 Y85.456 E97.36984
G1 X72.897 Y86 E97.43828
G1 X72.969 Y86.544 E97.50673
G1 X73.179 Y87.051 E97.57517
G1 X73.513 Y87.487 E97.64368
G1 X73.949 Y87.821 E97.71218
G1 X74.456 Y88.031 E97.78062
G1 X75 Y88.103 E97.84907
G1 X75.544 Y88.031 E97.91751
G1 X76.051 Y87.821 E97.98595
G1 X76.487 Y87.487 E98.05446
G1 X76.821 Y87.051 E98.12296
G1 X77.031 Y86.544 E98.19141
G1 X77.103 Y86 E98.25985
G1 X77.031 Y85.456 E98.32829
G1 X76.821 Y84.949 E98.39674
G1 X76.487 Y84.513 E98.46524
G1 X76.051 Y84.179 E98.53374
G1 X75.544 Y83.969 E98.60219
G1 X75 Y83.897 E98.67063
G1 X74.456 Y83.969 E98.73907
G1 X73.949 Y84.179 E98.80752
G1 X73.513 Y84.513 E98.87602
G0 F12000 X73.047 Y84.047
G1 F3000 E88.87602
G0 F12000 X73.085 Y147.085
;TYPE:WALL-INNER
G1 F3000 E98.87602
G1 F720 X72.655 Y147.647 E98.96428
G1 X72.385 Y148.299 E99.0523
G1 X72.292 Y149 E99.1405
G1 X72.385 Y149.701 E99.2287
G1 X72.655 Y150.353 E99.31671
G1 X73.085 Y150.915 E99.40497
G1 X73.647 Y151.345 E99.49323
G1 X74.299 Y151.615 E99.58125
G1 X75 Y151.708 E99.66945
G1 X75.701 Y151.615 E99.75765
G1 X76.353 Y151.345 E99.84567
G1 X76.915 Y150.915 E99.93393
G1 X77.345 Y150.353 E100.02219
G1 X77.615 Y149.701 E100.1102
G1 X77.708 Y149 E100.1984
G1 X77.615 Y148.299 E100.2866
G1 X77.345 Y147.647 E100.37462
G1 X76.915 Y147.085 E100.46288
G1 X76.353 Y146.655 E100.55114
G1 X75.701 Y146.385 E100.63916
G1 X75 Y146.292 E100.72736
G1 X74.299 Y146.385 E100.81556
G1 X73.647 Y146.655 E100.90357
G1 X73.085 Y147.085 E100.99183
G0 F12000 X73.513 Y147.513
;TYPE:WALL-OUTER
G1 F720 X73.179 Y147.949 E101.06034
G1 X72.969 Y148.456 E101.12878
G1 X72.897 Y149 E101.19722
G1 X72.969 Y149.544 E101.26567
G1 X73.179 Y150.051 E101.33411
G1 X73.513 Y150.487 E101.40261
G1 X73.949 Y150.821 E101.47112
G1 X74.456 Y151.031 E101.53956
G1 X75 Y151.103 E101.60801
G1 X75.544 Y151.031 E101.67645
G1 X76.051 Y150.821 E101.74489
G1 X76.487 Y150.487 E101.8134
G1 X76.821 Y150.051 E101.8819
G1 X77.031 Y149.544 E101.95035
G1 X77.103 Y149 E102.01879
G1 X77.031 Y148.456 E102.08723
G1 X76.821 Y147.949 E102.15568
G1 X76.487 Y147.513 E102.22418
G1 X76.051 Y147.179 E102.29268
G1 X75.544 Y146.969 E102.36113
G1 X75 Y146.897 E102.42957
G1 X74.456 Y146.969 E102.49801
G1 X73.949 Y147.179 E102.56646
G1 X73.513 Y147.513 E102.63496
G0 F12000 X73.047 Y147.047
G1 F3000 E92.63496
G0 F12000 X158.085 Y147.085
;TYPE:WALL-INNER
G1 F3000 E102.63496
G1 F720 X157.655 Y147.647 E102.72322
G1 X157.385 Y148.299 E102.81124
G1 X157.292 Y149 E102.89944
G1 X157.385 Y149.701 E102.98764
G1 X157.655 Y150.353 E103.07565
G1 X158.085 Y150.915 E103.16391
G1 X158.647 Y151.345 E103.25217
G1 X159.299 Y151.615 E103.34019
G1 X160 Y151.708 E103.42839
G1 X160.701 Y151.615 E103.51659
G1 X161.353 Y151.345 E103.60461
G1 X161.915 Y150.915 E103.69287
G1 X162.345 Y150.353 E103.78113
G1 X162.615 Y149.701 E103.86914
G1 X162.708 Y149 E103.95734
G1 X162.615 Y148.299 E104.04554
G1 X162.345 Y147.647 E104.13356
G1 X161.915 Y147.085 E104.22182
G1 X161.353 Y146.655 E104.31008
G1 X160.701 Y146.385 E104.3981
G1 X160 Y146.292 E104.4863
G1 X159.299 Y146.385 E104.57449
G1 X158.647 Y146.655 E104.66251
G1 X158.085 Y147.085 E104.75077
G0 F12000 X158.513 Y147.513
;TYPE:WALL-OUTER
G1 F720 X158.179 Y147.949 E104.81928
G1 X157.969 Y148.456 E104.88772
G1 X157.897 Y149 E104.95616
G1 X157.969 Y149.544 E105.02461
G1 X158.179 Y150.051 E105.09305
G1 X158.513 Y150.487 E105.16155
G1 X158.949 Y150.821 E105.23006
G1 X159.456 Y151.031 E105.2985
G1 X160 Y151.103 E105.36694
G1 X160.544 Y151.031 E105.43539
G1 X161.051 Y150.821 E105.50383
G1 X161.487 Y150.487 E105.57234
G1 X161.821 Y150.051 E105.64084
G1 X162.031 Y149.544 E105.70928
G1 X162.103 Y149 E105.77773
G1 X162.031 Y148.456 E105.84617
G1 X161.821 Y147.949 E105.91461
G1 X161.487 Y147.513 E105.98312
G1 X161.051 Y147.179 E106.05162
G1 X160.544 Y146.969 E106.12007
G1 X160 Y146.897 E106.18851
G1 X159.456 Y146.969 E106.25695
G1 X158.949 Y147.179 E106.3254
G1 X158.513 Y147.513 E106.3939
G0 F12000 X158.047 Y147.047
G1 F3000 E96.3939
G0 F12000 X158.085 Y84.085
;TYPE:WALL-INNER
G1 F3000 E106.3939
G1 F720 X157.655 Y84.647 E106.48216
G1 X157.385 Y85.299 E106.57018
G1 X157.292 Y86 E106.65838
G1 X157.385 Y86.701 E106.74657
G1 X157.655 Y87.353 E106.83459
G1 X158.085 Y87.915 E106.92285
G1 X158.647 Y88.345 E107.01111
G1 X159.299 Y88.615 E107.09913
G1 X160 Y88.708 E107.18733
G1 X160.701 Y88.615 E107.27553
G1 X161.353 Y88.345 E107.36355
G1 X161.915 Y87.915 E107.45181
G1 X162.345 Y87.353 E107.54007
G1 X162.615 Y86.701 E107.62808
G1 X162.708 Y86 E107.71628
G1 X162.615 Y85.299 E107.80448
G1 X162.345 Y84.647 E107.8925
G1 X161.915 Y84.085 E107.98076
G1 X161.353 Y83.655 E108.06902
G1 X160.701 Y83.385 E108.15704
G1 X160 Y83.292 E108.24524
G1 X159.299 Y83.385 E108.33343
G1 X158.647 Y83.655 E108.42145
G1 X158.085 Y84.085 E108.50971
G0 F12000 X158.513 Y84.513
;TYPE:WALL-OUTER
G1 F720 X158.179 Y84.949 E108.57821
G1 X157.969 Y85.456 E108.64666
G1 X157.897 Y86 E108.7151
G1 X157.969 Y86.544 E108.78354
G1 X158.179 Y87.051 E108.85199
G1 X158.513 Y87.487 E108.92049
G1 X158.949 Y87.821 E108.989
G1 X159.456 Y88.031 E109.05744
G1 X160 Y88.103 E109.12588
G1 X160.544 Y88.031 E109.19433
G1 X161.051 Y87.821 E109.26277
G1 X161.487 Y87.487 E109.33128
G1 X161.821 Y87.051 E109.39978
G1 X162.031 Y86.544 E109.46822
G1 X162.103 Y86 E109.53667
G1 X162.031 Y85.456 E109.60511
G1 X161.821 Y84.949 E109.67355
G1 X161.487 Y84.513 E109.74206
G1 X161.051 Y84.179 E109.81056
G1 X160.544 Y83.969 E109.87901
G1 X160 Y83.897 E109.94745
G1 X159.456 Y83.969 E110.01589
G1 X158.949 Y84.179 E110.08434
G1 X158.513 Y84.513 E110.15284
G0 F12000 X158.047 Y84.047
G1 F3000 E100.15284
G0 F12000 X166.048 Y79.555
;TYPE:WALL-INNER
G1 F3000 E110.15284
G1 F720 X166.272 Y79.728 E110.18814
G1 X166.445 Y79.952 E110.22344
G1 X166.555 Y80.219 E110.25946
G1 X166.6 Y80.557 E110.30199
G1 X166.6 Y154.443 E119.51746
G1 X166.555 Y154.781 E119.55998
G1 X166.445 Y155.048 E119.596
G1 X166.272 Y155.272 E119.6313
G1 X166.048 Y155.445 E119.6666
G1 X165.781 Y155.555 E119.70262
G1 X165.443 Y155.6 E119.74515
G1 X69.557 Y155.6 E131.70458
G1 X69.219 Y155.555 E131.74711
G1 X68.952 Y155.445 E131.78313
G1 X68.728 Y155.272 E131.81843
G1 X68.555 Y155.048 E131.85373
G1 X68.445 Y154.781 E131.88974
G1 X68.4 Y154.443 E131.93227
G1 X68.4 Y80.557 E141.14774
G1 X68.445 Y80.219 E141.19027
G1 X68.555 Y79.952 E141.22629
G1 X68.728 Y79.728 E141.26159
G1 X68.952 Y79.555 E141.29689
G1 X69.219 Y79.445 E141.33291
G1 X69.557 Y79.4 E141.37544
G1 X165.443 Y79.4 E153.33487
G1 X165.781 Y79.445 E153.3774
G1 X166.048 Y79.555 E153.41341
G0 F12000 X166.348 Y79.029
;TYPE:WALL-OUTER
G1 F720 X166.7 Y79.3 E153.46882
G1 X166.971 Y79.652 E153.52423
G1 X167.14 Y80.062 E153.57954
G1 X167.2 Y80.516 E153.63666
G1 X167.2 Y154.484 E162.86235
G1 X167.14 Y154.938 E162.91947
G1 X166.971 Y155.348 E162.97478
G1 X166.7 Y155.7 E163.03019
G1 X166.348 Y155.971 E163.0856
G1 X165.938 Y156.14 E163.14091
G1 X165.484 Y156.2 E163.19803
G1 X69.516 Y156.2 E175.16768
G1 X69.062 Y156.14 E175.2248
G1 X68.652 Y155.971 E175.28011
G1 X68.3 Y155.7 E175.33552
G1 X68.029 Y155.348 E175.39093
G1 X67.86 Y154.938 E175.44624
G1 X67.8 Y154.484 E175.50336
G1 X67.8 Y80.516 E184.72905
G1 X67.86 Y80.062 E184.78617
G1 X68.029 Y79.652 E184.84148
G1 X68.3 Y79.3 E184.89689
G1 X68.652 Y79.029 E184.9523
G1 X69.062 Y78.86 E185.00761
G1 X69.516 Y78.8 E185.06473
G1 X165.484 Y78.8 E197.03438
G1 X165.938 Y78.86 E197.0915
G1 X166.348 Y79.029 E197.14681
G0 F12000 X166.019 Y79.6
G0 X165.753 Y80.071
;TYPE:SKIN
G1 F720 X165.852 Y80.148 E197.16246
G1 X165.929 Y80.247 E197.1781
G1 X165.981 Y80.375 E197.19533
G1 X166.01 Y80.59 E197.22239
G1 X166.01 Y154.41 E206.42963
G1 X165.981 Y154.625 E206.45669
G1 X165.929 Y154.753 E206.47392
G1 X165.852 Y154.852 E206.48956
G1 X165.753 Y154.929 E206.5052
G1 X165.625 Y154.981 E206.52244
G1 X165.41 Y155.01 E206.54949
G1 X69.59 Y155.01 E218.50069
G1 X69.375 Y154.981 E218.52775
G1 X69.247 Y154.929 E218.54498
G1 X69.148 Y154.852 E218.56063
G1 X69.071 Y154.753 E218.57627
G1 X69.019 Y154.625 E218.5935
G1 X68.99 Y154.41 E218.62056
G1 X68.99 Y80.59 E227.8278
G1 X69.019 Y80.375 E227.85486
G1 X69.071 Y80.247 E227.87209
G1 X69.148 Y80.148 E227.88773
G1 X69.247 Y80.071 E227.90337
G1 X69.375 Y80.019 E227.92061
G1 X69.59 Y79.99 E227.94766
G1 X165.41 Y79.99 E239.89886
G1 X165.625 Y80.019 E239.92592
G1 X165.753 Y80.071 E239.94315
G0 F12000 X162.336 Y83.664
G1 F720 X161.65 Y83.14 E240.05082
G1 X160.855 Y82.811 E240.15813
G1 X160 Y82.696 E240.26573
G1 X159.145 Y82.811 E240.37333
G1 X158.35 Y83.14 E240.48065
G1 X157.664 Y83.664 E240.58831
G1 X157.14 Y84.35 E240.69598
G1 X156.811 Y85.145 E240.80329
G1 X156.696 Y86 E240.91089
G1 X156.811 Y86.855 E241.01849
G1 X157.14 Y87.65 E241.12581
G1 X157.664 Y88.336 E241.23347
G1 X158.35 Y88.86 E241.34114
G1 X159.145 Y89.189 E241.44845
G1 X160 Y89.304 E241.55605
G1 X160.855 Y89.189 E241.66365
G1 X161.65 Y88.86 E241.77097
G1 X162.336 Y88.336 E241.87863
G1 X162.86 Y87.65 E241.9863
