;FLAVOR:Marlin
;TIME:5744
;Filament used: 7.93747m
;Layer height: 0.25
;MINX:-59.7
;MINY:-49.7
;MINZ:0.25
;MAXX:59.7
;MAXY:49.7
;MAXZ:5

;POSTPROCESSED
;Generated with Cura_SteamEngine 4.4.1
M140 S90
M105
M190 S90
M104 S250
M105
M109 S250
M82 ;absolute extrusion mode
M118 X60.00 Y50.00 Z5.00 T0
M140 S90 T0
M104 S250 T0
M104 S0 T1
M107
G90
G28
M132 X Y Z A B
G1 Z50.00 F400
G161 X Y F3300
M7 T0
M6 T0
M651
M907 X100 Y100 Z40 A100 B20
M108 T0
G1 X60.00 Y50.00 F6000
G92 E0
G92 E0
G1 F1800 E-4.5
;LAYER_COUNT:20

;LAYER:0
M107
G0 F7200 X-52.793 Y49.7 Z0.25
;TYPE:SKIRT
G1 F1800 E0
G1 F720 X-52.853 Y49.7 E0.00249
G1 X-53.55 Y49.69 E0.03148
G1 X-54.029 Y49.655 E0.05144
G1 X-54.524 Y49.591 E0.07219
G1 X-55.092 Y49.478 E0.09627
G1 X-55.515 Y49.337 E0.11481
G1 X-55.929 Y49.175 E0.13329
G1 X-56.453 Y48.927 E0.15739
G1 X-56.781 Y48.723 E0.17345
G1 X-57.208 Y48.429 E0.19501
G1 X-57.661 Y48.069 E0.21906
G1 X-58.012 Y47.707 E0.24003
G1 X-58.341 Y47.324 E0.26102
G1 X-58.687 Y46.859 E0.28512
G1 X-58.936 Y46.416 E0.30624
G1 X-59.161 Y45.951 E0.32772
G1 X-59.376 Y45.414 E0.35177
G1 X-59.509 Y44.892 E0.37416
G1 X-59.609 Y44.356 E0.39683
G1 X-59.674 Y43.808 E0.41978
G1 X-59.693 Y43.449 E0.43472
G1 X-59.699 Y43.227 E0.44396
G1 X-59.7 Y-42.793 E4.02025
G1 X-59.7 Y-42.853 E4.02275
G1 X-59.69 Y-43.551 E4.05177
G1 X-59.656 Y-44.024 E4.07148
G1 X-59.593 Y-44.516 E4.09211
G1 X-59.48 Y-45.085 E4.11622
G1 X-59.336 Y-45.519 E4.13524
G1 X-59.169 Y-45.944 E4.15422
G1 X-58.92 Y-46.467 E4.1783
G1 X-58.711 Y-46.802 E4.19472
G1 X-58.421 Y-47.22 E4.21587
G1 X-58.059 Y-47.672 E4.23995
G1 X-57.716 Y-48.004 E4.25979
G1 X-57.348 Y-48.322 E4.28001
G1 X-56.885 Y-48.67 E4.30409
G1 X-56.455 Y-48.913 E4.32463
G1 X-55.975 Y-49.149 E4.34686
G1 X-55.439 Y-49.368 E4.37094
G1 X-54.892 Y-49.509 E4.39442
G1 X-54.356 Y-49.609 E4.41709
G1 X-53.818 Y-49.674 E4.43962
G1 X-53.475 Y-49.693 E4.4539
G1 X-53.243 Y-49.699 E4.46355
G1 X52.793 Y-49.7 E8.87202
G1 X52.853 Y-49.7 E8.87451
G1 X53.551 Y-49.69 E8.90353
G1 X54.031 Y-49.655 E8.92354
G1 X54.525 Y-49.591 E8.94425
G1 X55.093 Y-49.477 E8.96834
G1 X55.515 Y-49.337 E8.98682
G1 X55.929 Y-49.175 E9.00531
G1 X56.453 Y-48.927 E9.02941
G1 X56.781 Y-48.723 E9.04547
G1 X57.208 Y-48.429 E9.06702
G1 X57.661 Y-48.069 E9.09108
G1 X58.004 Y-47.716 E9.11154
G1 X58.322 Y-47.348 E9.13176
G1 X58.67 Y-46.885 E9.15584
G1 X58.913 Y-46.455 E9.17638
G1 X59.149 Y-45.975 E9.19861
G1 X59.368 Y-45.439 E9.22269
G1 X59.509 Y-44.892 E9.24617
G1 X59.609 Y-44.356 E9.26884
G1 X59.674 Y-43.818 E9.29137
G1 X59.693 Y-43.475 E9.30565
G1 X59.699 Y-43.243 E9.3153
G1 X59.7 Y42.793 E12.89226
G1 X59.7 Y42.853 E12.89476
G1 X59.69 Y43.55 E12.92374
G1 X59.656 Y44.022 E12.94341
G1 X59.593 Y44.515 E12.96408
G1 X59.48 Y45.084 E12.98819
G1 X59.338 Y45.515 E13.00706
G1 X59.175 Y45.931 E13.02564
G1 X58.926 Y46.455 E13.04976
G1 X58.723 Y46.781 E13.06572
G1 X58.429 Y47.208 E13.08728
G1 X58.069 Y47.661 E13.11133
G1 X57.716 Y48.004 E13.13179
G1 X57.348 Y48.322 E13.15202
G1 X56.885 Y48.67 E13.1761
G1 X56.455 Y48.913 E13.19663
G1 X55.981 Y49.146 E13.21859
G1 X55.445 Y49.365 E13.24266
G1 X54.912 Y49.503 E13.26555
G1 X54.37 Y49.606 E13.28849
G1 X53.818 Y49.674 E13.31161
G1 X53.475 Y49.693 E13.32589
G1 X53.243 Y49.699 E13.33554
G1 X-52.793 Y49.7 E17.74401
G1 F1800 E13.24401
;MESH:lid-00 v2.obj
G0 F7200 X-44.428 Y-37.028
G0 X-43.679 Y-35.767
G0 X-42.675 Y-37.38
;TYPE:WALL-INNER
G1 F1800 E17.74401
G1 X-42.598 Y-38.025 E17.77101
G1 X-42.685 Y-38.646 E17.79708
G1 X-42.932 Y-39.223 E17.82318
G1 X-43.319 Y-39.717 E17.84927
G1 X-43.821 Y-40.093 E17.87534
G1 X-44.403 Y-40.328 E17.90144
G1 X-45.025 Y-40.402 E17.92748
G1 X-45.646 Y-40.315 E17.95355
G1 X-46.223 Y-40.068 E17.97965
G1 X-46.717 Y-39.681 E18.00574
G1 X-47.093 Y-39.179 E18.03181
G1 X-47.328 Y-38.597 E18.05791
G1 X-47.402 Y-37.975 E18.08395
G1 X-47.315 Y-37.354 E18.11002
G1 X-47.068 Y-36.777 E18.13611
G1 X-46.681 Y-36.283 E18.1622
G1 X-46.179 Y-35.907 E18.18828
G1 X-45.597 Y-35.672 E18.21437
G1 X-44.975 Y-35.598 E18.24042
G1 X-44.354 Y-35.685 E18.26649
G1 X-43.777 Y-35.932 E18.29258
G1 X-43.283 Y-36.319 E18.31867
G1 X-42.909 Y-36.818 E18.3446
G1 X-42.675 Y-37.38 E18.36991
G0 F7200 X-43.066 Y-37.483
;TYPE:WALL-OUTER
G1 F1800 X-43.001 Y-38.021 E18.39244
G1 X-43.074 Y-38.538 E18.41415
G1 X-43.279 Y-39.018 E18.43585
G1 X-43.601 Y-39.429 E18.45755
G1 X-44.019 Y-39.742 E18.47926
G1 X-44.503 Y-39.937 E18.50096
G1 X-45.021 Y-39.999 E18.52265
G1 X-45.538 Y-39.926 E18.54435
G1 X-46.018 Y-39.721 E18.56605
G1 X-46.429 Y-39.399 E18.58776
G1 X-46.742 Y-38.981 E18.60947
G1 X-46.937 Y-38.497 E18.63117
G1 X-46.999 Y-37.979 E18.65286
G1 X-46.926 Y-37.462 E18.67456
G1 X-46.721 Y-36.982 E18.69626
G1 X-46.399 Y-36.571 E18.71797
G1 X-45.981 Y-36.258 E18.73968
G1 X-45.497 Y-36.063 E18.76137
G1 X-44.979 Y-36.001 E18.78306
G1 X-44.462 Y-36.074 E18.80477
G1 X-43.982 Y-36.279 E18.82647
G1 X-43.571 Y-36.601 E18.84818
G1 X-43.259 Y-37.018 E18.86983
G1 X-43.066 Y-37.483 E18.89076
G0 F7200 X-43.042 Y-37.681
G0 X-42.606 Y-37.628
G1 F1800 E14.39076
G0 F7200 X-42.742 Y-36.722
G0 X-44.015 Y-37.45
G0 X-10.013 Y36.872
G0 X-10.027 Y35.405
G0 X-8.901 Y36.048
G0 X-8.071 Y36.859
G0 X-7.675 Y38.62
;TYPE:WALL-INNER
G1 F1800 E18.89076
G1 X-7.598 Y37.975 E18.91777
G1 X-7.685 Y37.354 E18.94384
G1 X-7.932 Y36.777 E18.96993
G1 X-8.319 Y36.283 E18.99602
G1 X-8.821 Y35.907 E19.0221
G1 X-9.403 Y35.672 E19.04819
G1 X-10.025 Y35.598 E19.07424
G1 X-10.646 Y35.685 E19.10031
G1 X-11.223 Y35.932 E19.1264
G1 X-11.717 Y36.319 E19.15249
G1 X-12.093 Y36.821 E19.17857
G1 X-12.328 Y37.403 E19.20466
G1 X-12.402 Y38.025 E19.2307
G1 X-12.315 Y38.646 E19.25677
G1 X-12.068 Y39.223 E19.28287
G1 X-11.681 Y39.717 E19.30896
G1 X-11.179 Y40.093 E19.33504
G1 X-10.597 Y40.328 E19.36113
G1 X-9.975 Y40.402 E19.38717
G1 X-9.354 Y40.315 E19.41324
G1 X-8.777 Y40.068 E19.43934
G1 X-8.283 Y39.681 E19.46543
G1 X-7.909 Y39.182 E19.49135
G1 X-7.675 Y38.62 E19.51666
G0 F7200 X-8.066 Y38.517
;TYPE:WALL-OUTER
G1 F1800 X-8.001 Y37.979 E19.53919
G1 X-8.074 Y37.462 E19.5609
G1 X-8.279 Y36.982 E19.5826
G1 X-8.601 Y36.571 E19.60431
G1 X-9.019 Y36.258 E19.62602
G1 X-9.503 Y36.063 E19.64771
G1 X-10.021 Y36.001 E19.6694
G1 X-10.538 Y36.074 E19.69111
G1 X-11.018 Y36.279 E19.71281
G1 X-11.429 Y36.601 E19.73452
G1 X-11.742 Y37.019 E19.75623
G1 X-11.937 Y37.503 E19.77792
G1 X-11.999 Y38.021 E19.79961
G1 X-11.926 Y38.538 E19.82132
G1 X-11.721 Y39.018 E19.84302
G1 X-11.399 Y39.429 E19.86473
G1 X-10.981 Y39.742 E19.88644
G1 X-10.497 Y39.937 E19.90813
G1 X-9.979 Y39.999 E19.92982
G1 X-9.462 Y39.926 E19.95153
G1 X-8.982 Y39.721 E19.97323
G1 X-8.571 Y39.399 E19.99493
G1 X-8.259 Y38.982 E20.01659
G1 X-8.066 Y38.517 E20.03752
G0 F7200 X-8.042 Y38.319
G0 X-7.606 Y38.372
G1 F1800 E15.53752
G0 F7200 X-7.5 Y37.302
G0 X-8.914 Y37.695
G0 X47.211 Y-2.193
G0 X46.184 Y-1.146
G0 X47.444 Y-.83
G0 X48.602 Y-.842
G0 X49.513 Y-1.363
G0 X50.325 Y-2.38
;TYPE:WALL-INNER
G1 F1800 E20.03752
G1 X50.402 Y-3.025 E20.06452
G1 X50.315 Y-3.646 E20.09059
G1 X50.068 Y-4.223 E20.11669
G1 X49.681 Y-4.717 E20.14278
G1 X49.179 Y-5.093 E20.16886
G1 X48.597 Y-5.328 E20.19495
G1 X47.975 Y-5.402 E20.22099
G1 X47.354 Y-5.315 E20.24706
G1 X46.777 Y-5.068 E20.27316
G1 X46.283 Y-4.681 E20.29925
G1 X45.907 Y-4.179 E20.32532
G1 X45.672 Y-3.597 E20.35142
G1 X45.598 Y-2.975 E20.37746
G1 X45.685 Y-2.354 E20.40353
G1 X45.932 Y-1.777 E20.42962
G1 X46.319 Y-1.283 E20.45571
G1 X46.821 Y-.907 E20.48179
G1 X47.403 Y-.672 E20.50789
G1 X48.025 Y-.598 E20.53393
G1 X48.646 Y-.685 E20.56
G1 X49.223 Y-.932 E20.58609
G1 X49.717 Y-1.319 E20.61218
G1 X50.091 Y-1.818 E20.63811
G1 X50.325 Y-2.38 E20.66342
G0 F7200 X49.934 Y-2.483
;TYPE:WALL-OUTER
G1 F1800 X49.999 Y-3.021 E20.68595
G1 X49.926 Y-3.538 E20.70766
G1 X49.721 Y-4.018 E20.72936
G1 X49.399 Y-4.429 E20.75106
G1 X48.981 Y-4.742 E20.77277
G1 X48.497 Y-4.937 E20.79447
G1 X47.979 Y-4.999 E20.81616
G1 X47.462 Y-4.926 E20.83786
G1 X46.982 Y-4.721 E20.85956
G1 X46.571 Y-4.399 E20.88127
G1 X46.258 Y-3.981 E20.90298
G1 X46.063 Y-3.497 E20.92468
G1 X46.001 Y-2.979 E20.94637
G1 X46.074 Y-2.462 E20.96807
G1 X46.279 Y-1.982 E20.98977
G1 X46.601 Y-1.571 E21.01148
G1 X47.019 Y-1.258 E21.03319
G1 X47.503 Y-1.063 E21.05489
G1 X48.021 Y-1.001 E21.07657
G1 X48.538 Y-1.074 E21.09828
G1 X49.018 Y-1.279 E21.11998
G1 X49.429 Y-1.601 E21.14169
G1 X49.741 Y-2.018 E21.16334
G1 X49.934 Y-2.483 E21.18427
G0 F7200 X49.958 Y-2.681
G0 X50.394 Y-2.628
G1 F1800 E16.68427
G0 F7200 X50.158 Y-3.602
G0 X49.567 Y-4.601
G0 X48.556 Y-5.17
G0 X46.679 Y-5.233
G0 X47.428 Y-3.972
G0 X15.985 Y-37.45
G0 X17.258 Y-36.722
G0 X17.325 Y-37.38
;TYPE:WALL-INNER
G1 F1800 E21.18427
G1 X17.402 Y-38.025 E21.21128
G1 X17.315 Y-38.646 E21.23735
G1 X17.068 Y-39.223 E21.26344
G1 X16.681 Y-39.717 E21.28953
G1 X16.179 Y-40.093 E21.31561
G1 X15.597 Y-40.328 E21.34171
G1 X14.975 Y-40.402 E21.36775
G1 X14.354 Y-40.315 E21.39382
G1 X13.777 Y-40.068 E21.41991
G1 X13.283 Y-39.681 E21.446
G1 X12.907 Y-39.179 E21.47208
G1 X12.672 Y-38.597 E21.49817
G1 X12.598 Y-37.975 E21.52421
G1 X12.685 Y-37.354 E21.55029
G1 X12.932 Y-36.777 E21.57638
G1 X13.319 Y-36.283 E21.60247
G1 X13.821 Y-35.907 E21.62855
G1 X14.403 Y-35.672 E21.65464
G1 X15.025 Y-35.598 E21.68068
G1 X15.646 Y-35.685 E21.70675
G1 X16.223 Y-35.932 E21.73285
G1 X16.717 Y-36.319 E21.75894
G1 X17.091 Y-36.818 E21.78486
G1 X17.325 Y-37.38 E21.81017
G0 F7200 X16.934 Y-37.483
;TYPE:WALL-OUTER
G1 F1800 X16.999 Y-38.021 E21.8327
G1 X16.926 Y-38.538 E21.85441
G1 X16.721 Y-39.018 E21.87611
G1 X16.399 Y-39.429 E21.89782
G1 X15.981 Y-39.742 E21.91953
G1 X15.497 Y-39.937 E21.94122
G1 X14.979 Y-39.999 E21.96291
G1 X14.462 Y-39.926 E21.98462
G1 X13.982 Y-39.721 E22.00632
G1 X13.571 Y-39.399 E22.02803
G1 X13.258 Y-38.981 E22.04974
G1 X13.063 Y-38.497 E22.07143
G1 X13.001 Y-37.979 E22.09312
G1 X13.074 Y-37.462 E22.11483
G1 X13.279 Y-36.982 E22.13653
G1 X13.601 Y-36.571 E22.15824
G1 X14.019 Y-36.258 E22.17995
G1 X14.503 Y-36.063 E22.20164
G1 X15.021 Y-36.001 E22.22333
G1 X15.538 Y-36.074 E22.24504
G1 X16.018 Y-36.279 E22.26674
G1 X16.429 Y-36.601 E22.28844
G1 X16.741 Y-37.018 E22.3101
G1 X16.934 Y-37.483 E22.33103
G0 F7200 X16.958 Y-37.681
G0 X17.394 Y-37.628
G1 F1800 E17.83103
G0 F7200 X17.5 Y-38.698
G0 X16.086 Y-38.305
G0 X17.5 Y-46.165
G0 X17.5 Y-44.69
G0 X54.195 Y-44.709
;TYPE:WALL-INNER
G1 F1800 E22.33103
G1 X54.486 Y-44.486 E22.34627
G1 X54.709 Y-44.195 E22.36151
G1 X54.847 Y-43.862 E22.3765
G1 X54.9 Y-43.46 E22.39336
G1 X54.9 Y43.46 E26.00707
G1 X54.847 Y43.862 E26.02393
G1 X54.709 Y44.195 E26.03891
G1 X54.486 Y44.486 E26.05416
G1 X54.195 Y44.709 E26.0694
G1 X53.862 Y44.847 E26.08439
G1 X53.46 Y44.9 E26.10124
G1 X-53.46 Y44.9 E30.54646
G1 X-53.862 Y44.847 E30.56332
G1 X-54.195 Y44.709 E30.5783
G1 X-54.486 Y44.486 E30.59355
G1 X-54.709 Y44.195 E30.60879
G1 X-54.847 Y43.862 E30.62378
G1 X-54.9 Y43.46 E30.64063
G1 X-54.9 Y-43.46 E34.25435
G1 X-54.847 Y-43.862 E34.27121
G1 X-54.709 Y-44.195 E34.28619
G1 X-54.486 Y-44.486 E34.30143
G1 X-54.195 Y-44.709 E34.31668
G1 X-53.862 Y-44.847 E34.33166
G1 X-53.46 Y-44.9 E34.34852
G1 X53.46 Y-44.9 E38.79374
G1 X53.862 Y-44.847 E38.81059
G1 X54.195 Y-44.709 E38.82558
G0 F7200 X54.399 Y-45.057
;TYPE:WALL-OUTER
G1 F1800 X54.771 Y-44.771 E38.84509
G1 X55.057 Y-44.399 E38.8646
G1 X55.238 Y-43.963 E38.88422
G1 X55.3 Y-43.489 E38.9041
G1 X55.3 Y43.489 E42.52022
G1 X55.238 Y43.963 E42.5401
G1 X55.057 Y44.399 E42.55973
G1 X54.771 Y44.771 E42.57923
G1 X54.399 Y45.057 E42.59874
G1 X53.963 Y45.238 E42.61837
G1 X53.489 Y45.3 E42.63824
G1 X-53.489 Y45.3 E47.08587
G1 X-53.963 Y45.238 E47.10575
G1 X-54.399 Y45.057 E47.12537
G1 X-54.771 Y44.771 E47.14488
G1 X-55.057 Y44.399 E47.16439
G1 X-55.238 Y43.963 E47.18402
G1 X-55.3 Y43.489 E47.20389
G1 X-55.3 Y-43.489 E50.82002
G1 X-55.238 Y-43.963 E50.83989
G1 X-55.057 Y-44.399 E50.85952
G1 X-54.771 Y-44.771 E50.87903
G1 X-54.399 Y-45.057 E50.89853
G1 X-53.963 Y-45.238 E50.91816
G1 X-53.489 Y-45.3 E50.93804
G1 X53.489 Y-45.3 E55.38566
G1 X53.963 Y-45.238 E55.40554
G1 X54.399 Y-45.057 E55.42517
G0 F7200 X54.557 Y-44.936
G0 X54.288 Y-44.588
G0 X53.998 Y-44.367
;TYPE:SKIN
G1 F1800 X54.207 Y-44.207 E55.43611
G1 X54.367 Y-43.998 E55.44705
G1 X54.469 Y-43.754 E55.45805
G1 X54.51 Y-43.439 E55.47125
G1 X54.51 Y43.439 E59.08322
G1 X54.469 Y43.754 E59.09643
G1 X54.367 Y43.998 E59.10742
G1 X54.207 Y44.207 E59.11837
G1 X53.998 Y44.367 E59.12931
G1 X53.754 Y44.469 E59.1403
G1 X53.439 Y44.51 E59.15351
G1 X-53.439 Y44.51 E63.59698
G1 X-53.754 Y44.469 E63.61019
G1 X-53.998 Y44.367 E63.62118
G1 X-54.207 Y44.207 E63.63213
G1 X-54.367 Y43.998 E63.64307
G1 X-54.469 Y43.754 E63.65406
G1 X-54.51 Y43.439 E63.66727
G1 X-54.51 Y-43.439 E67.27924
G1 X-54.469 Y-43.754 E67.29244
G1 X-54.367 Y-43.998 E67.30344
G1 X-54.207 Y-44.207 E67.31438
G1 X-53.998 Y-44.367 E67.32533
G1 X-53.754 Y-44.469 E67.33632
G1 X-53.439 Y-44.51 E67.34953
G1 X53.439 Y-44.51 E71.793
G1 X53.754 Y-44.469 E71.80621
G1 X53.998 Y-44.367 E71.8172
G1 F1800 E67.3172
G0 F7200 X54.171 Y-44.588
G0 X17.421 Y-44.69
G0 X17.421 Y-46.165
G0 X15.551 Y-38.984
G0 X16.274 Y-40.26
G0 X17.421 Y-38.678
G0 X17.694 Y-38.751
G1 F1800 E71.8172
G1 X17.407 Y-39.424 E71.84762
G1 X16.956 Y-39.998 E71.87797
G1 X16.372 Y-40.436 E71.90832
G1 X15.695 Y-40.709 E71.93867
G1 X14.971 Y-40.796 E71.96898
G1 X14.249 Y-40.694 E71.9993
G1 X13.576 Y-40.407 E72.02972
G1 X13.002 Y-39.956 E72.06007
G1 X12.564 Y-39.372 E72.09042
G1 X12.291 Y-38.695 E72.12076
G1 X12.204 Y-37.971 E72.15108
G1 X12.306 Y-37.249 E72.1814
G1 X12.593 Y-36.576 E72.21181
G1 X13.044 Y-36.002 E72.24216
G1 X13.628 Y-35.564 E72.27251
G1 X14.305 Y-35.291 E72.30286
G1 X15.029 Y-35.204 E72.33318
G1 X15.751 Y-35.306 E72.36349
G1 X16.424 Y-35.593 E72.39391
G1 X16.998 Y-36.044 E72.42426
G1 X17.432 Y-36.623 E72.45435
G1 X17.706 Y-37.28 E72.48394
G1 X17.796 Y-38.029 E72.5153
G1 X17.694 Y-38.751 E72.54562
G1 F1800 E68.04562
G0 F7200 X17.421 Y-38.678
G0 X17.511 Y-37.331
G0 X16.09 Y-37.702
G0 X47.695 Y-4.086
G0 X47.302 Y-5.5
G0 X48.625 Y-5.436
G0 X48.695 Y-5.709
G1 F1800 E72.54562
G1 X47.971 Y-5.796 E72.57594
G1 X47.249 Y-5.694 E72.60625
G1 X46.576 Y-5.407 E72.63667
G1 X46.002 Y-4.956 E72.66702
G1 X45.564 Y-4.372 E72.69737
G1 X45.291 Y-3.695 E72.72772
G1 X45.204 Y-2.971 E72.75804
G1 X45.306 Y-2.249 E72.78835
G1 X45.593 Y-1.576 E72.81877
G1 X46.044 Y-1.002 E72.84912
G1 X46.628 Y-.564 E72.87947
G1 X47.305 Y-.291 E72.90982
G1 X48.029 Y-.204 E72.94013
G1 X48.751 Y-.306 E72.97045
G1 X49.424 Y-.593 E73.00087
G1 X49.998 Y-1.044 E73.03122
G1 X50.432 Y-1.623 E73.0613
G1 X50.706 Y-2.28 E73.0909
G1 X50.796 Y-3.029 E73.12226
G1 X50.694 Y-3.751 E73.15257
G1 X50.407 Y-4.424 E73.18299
G1 X49.956 Y-4.998 E73.21334
G1 X49.372 Y-5.436 E73.24369
G1 X48.695 Y-5.709 E73.27404
G1 F1800 E68.77404
G0 F7200 X48.625 Y-5.436
G0 X47.398 Y-5.158
G0 X46.399 Y-4.567
G0 X45.925 Y-3.792
G0 X45.5 Y-2.302
G0 X46.914 Y-2.695
G0 X-9.028 Y37.428
G0 X-7.767 Y36.679
G0 X-8.044 Y36.002
G1 F1800 E73.27404
G1 X-8.628 Y35.564 E73.30439
G1 X-9.305 Y35.291 E73.33474
G1 X-10.029 Y35.204 E73.36506
G1 X-10.751 Y35.306 E73.39537
G1 X-11.424 Y35.593 E73.42579
G1 X-11.998 Y36.044 E73.45614
G1 X-12.436 Y36.628 E73.48649
G1 X-12.709 Y37.305 E73.51684
G1 X-12.796 Y38.029 E73.54715
G1 X-12.694 Y38.751 E73.57747
G1 X-12.407 Y39.424 E73.60789
G1 X-11.956 Y39.998 E73.63824
G1 X-11.372 Y40.436 E73.66859
G1 X-10.695 Y40.709 E73.69893
G1 X-9.971 Y40.796 E73.72925
G1 X-9.249 Y40.694 E73.75957
G1 X-8.576 Y40.407 E73.78999
G1 X-8.002 Y39.956 E73.82033
G1 X-7.568 Y39.377 E73.85042
G1 X-7.294 Y38.72 E73.88001
G1 X-7.204 Y37.971 E73.91138
G1 X-7.306 Y37.249 E73.94169
G1 X-7.593 Y36.576 E73.97211
G1 X-8.044 Y36.002 E74.00246
G1 F1800 E69.50246
G0 F7200 X-8.241 Y36.204
G0 X-9.354 Y35.486
G0 X-9.716 Y36.907
G0 X-43.91 Y-37.702
G0 X-42.489 Y-37.331
G0 X-42.204 Y-38.029
G1 F1800 E74.00246
G1 X-42.306 Y-38.751 E74.03278
G1 X-42.593 Y-39.424 E74.06319
G1 X-43.044 Y-39.998 E74.09354
G1 X-43.628 Y-40.436 E74.12389
G1 X-44.305 Y-40.709 E74.15424
G1 X-45.029 Y-40.796 E74.18456
G1 X-45.751 Y-40.694 E74.21487
G1 X-46.424 Y-40.407 E74.24529
G1 X-46.998 Y-39.956 E74.27564
G1 X-47.436 Y-39.372 E74.30599
