;FLAVOR:Marlin
;TIME:5550
;Filament used: 4.93733m
;Layer height: 0.2
;MINX:-58.7
;MINY:-48.7
;MINZ:0.2
;MAXX:58.7
;MAXY:48.7
;MAXZ:5
;Generated with Cura_SteamEngine 4.4.1
M140 S80
M105
M190 S80
M104 S235
M105
M109 S235
M82 ;absolute extrusion mode
M118 X60.00 Y50.00 Z5.00 T0
M140 S80 T0
M104 S235 T0
M104 S0 T1
M107
G90
G28
M132 X Y Z A B
G1 Z50.00 F400
G161 X Y F3300
M7 T0
M6 T0
M651
M907 X100 Y100 Z40 A100 B20
M108 T0
G1 X60.00 Y50.00 F6000
G92 E0
G92 E0
G1 F2400 E-3.5
;LAYER_COUNT:25
;LAYER:0
M107
G0 F7200 X-52.793 Y48.7 Z0.2
;TYPE:SKIRT
G1 F2400 E0
G1 F1800 X-52.839 Y48.7 E0.00102
G1 X-53.536 Y48.69 E0.01656
G1 X-53.9 Y48.664 E0.02469
G1 X-54.395 Y48.6 E0.03581
G1 X-54.89 Y48.495 E0.04708
G1 X-55.151 Y48.406 E0.05323
G1 X-55.565 Y48.244 E0.06313
G1 X-56.214 Y47.9 E0.0795
G1 X-56.641 Y47.606 E0.09105
G1 X-57.033 Y47.287 E0.10231
G1 X-57.253 Y47.055 E0.10943
G1 X-57.582 Y46.672 E0.12068
G1 X-57.88 Y46.264 E0.13194
G1 X-58.036 Y45.981 E0.13914
G1 X-58.261 Y45.516 E0.15065
G1 X-58.444 Y45.045 E0.16191
G1 X-58.526 Y44.709 E0.16962
G1 X-58.626 Y44.173 E0.18176
G1 X-58.676 Y43.755 E0.19114
G1 X-58.695 Y43.396 E0.19915
G1 X-58.699 Y43.227 E0.20292
G1 X-58.7 Y-42.793 E2.11953
G1 X-58.7 Y-42.839 E2.12055
G1 X-58.69 Y-43.537 E2.13611
G1 X-58.664 Y-43.897 E2.14415
G1 X-58.601 Y-44.389 E2.1552
G1 X-58.497 Y-44.884 E2.16647
G1 X-58.405 Y-45.153 E2.17281
G1 X-58.238 Y-45.578 E2.18298
G1 X-57.889 Y-46.232 E2.1995
G1 X-57.599 Y-46.65 E2.21083
G1 X-57.279 Y-47.041 E2.22209
G1 X-57.062 Y-47.247 E2.22876
G1 X-56.694 Y-47.565 E2.23959
G1 X-56.287 Y-47.865 E2.25086
G1 X-56.014 Y-48.016 E2.25781
G1 X-55.534 Y-48.252 E2.26973
G1 X-55.064 Y-48.438 E2.28099
G1 X-54.709 Y-48.526 E2.28914
G1 X-54.173 Y-48.626 E2.30129
G1 X-53.763 Y-48.675 E2.31049
G1 X-53.42 Y-48.694 E2.31814
G1 X-53.243 Y-48.699 E2.32209
G1 X52.793 Y-48.7 E4.68467
G1 X52.839 Y-48.7 E4.6857
G1 X53.537 Y-48.69 E4.70125
G1 X53.902 Y-48.663 E4.7094
G1 X54.396 Y-48.599 E4.7205
G1 X54.891 Y-48.495 E4.73177
G1 X55.151 Y-48.406 E4.7379
G1 X55.565 Y-48.244 E4.7478
G1 X56.214 Y-47.9 E4.76417
G1 X56.641 Y-47.606 E4.77572
G1 X57.033 Y-47.287 E4.78698
G1 X57.247 Y-47.062 E4.7939
G1 X57.565 Y-46.694 E4.80473
G1 X57.865 Y-46.287 E4.816
G1 X58.016 Y-46.014 E4.82295
G1 X58.252 Y-45.534 E4.83487
G1 X58.438 Y-45.064 E4.84613
G1 X58.526 Y-44.709 E4.85428
G1 X58.626 Y-44.173 E4.86643
G1 X58.675 Y-43.763 E4.87563
G1 X58.694 Y-43.42 E4.88328
G1 X58.699 Y-43.243 E4.88723
G1 X58.7 Y42.793 E6.80419
G1 X58.7 Y42.839 E6.80522
G1 X58.69 Y43.536 E6.82075
G1 X58.664 Y43.896 E6.82879
G1 X58.601 Y44.389 E6.83987
G1 X58.498 Y44.883 E6.85111
G1 X58.406 Y45.15 E6.8574
G1 X58.243 Y45.566 E6.86736
G1 X57.9 Y46.214 E6.88369
G1 X57.606 Y46.641 E6.89524
G1 X57.287 Y47.033 E6.9065
G1 X57.062 Y47.247 E6.91342
G1 X56.694 Y47.565 E6.92426
G1 X56.287 Y47.865 E6.93553
G1 X56.014 Y48.016 E6.94248
G1 X55.54 Y48.249 E6.95424
G1 X55.07 Y48.435 E6.96551
G1 X54.725 Y48.521 E6.97343
G1 X54.183 Y48.624 E6.98572
G1 X53.763 Y48.675 E6.99515
G1 X53.42 Y48.694 E7.0028
G1 X53.243 Y48.699 E7.00675
G1 X-51.993 Y48.7 E9.35151
G0 F1620 X-52.793 Y48.7
G1 F2400 E5.85151
;MESH:van-tracker-lid-01 v8.obj
G0 F7200 X-44.431 Y-37.026
G0 X-43.48 Y-35.414
G0 X-42.285 Y-37.278
;TYPE:WALL-INNER
G1 F2400 E9.35151
G1 F1800 X-42.194 Y-38.024 E9.36825
G1 X-42.295 Y-38.748 E9.38454
G1 X-42.58 Y-39.423 E9.40087
G1 X-43.031 Y-40.002 E9.41722
G1 X-43.616 Y-40.443 E9.43354
G1 X-44.297 Y-40.718 E9.4499
G1 X-45.024 Y-40.806 E9.46622
G1 X-45.748 Y-40.705 E9.48251
G1 X-46.423 Y-40.42 E9.49883
G1 X-47.002 Y-39.969 E9.51519
G1 X-47.443 Y-39.384 E9.53151
G1 X-47.718 Y-38.703 E9.54787
G1 X-47.806 Y-37.976 E9.56419
G1 X-47.705 Y-37.252 E9.58048
G1 X-47.42 Y-36.577 E9.5968
G1 X-46.969 Y-35.998 E9.61316
G1 X-46.384 Y-35.557 E9.62948
G1 X-45.703 Y-35.282 E9.64584
G1 X-44.976 Y-35.194 E9.66216
G1 X-44.252 Y-35.295 E9.67845
G1 X-43.577 Y-35.58 E9.69477
G1 X-42.998 Y-36.031 E9.71112
G1 X-42.608 Y-36.549 E9.72557
G0 F1620 X-42.559 Y-36.614
G0 X-42.285 Y-37.278
G0 F7200 X-42.675 Y-37.38
G1 F1800 X-42.597 Y-38.02 E9.73994
G1 X-42.684 Y-38.641 E9.75391
G1 X-42.928 Y-39.219 E9.76789
G1 X-43.314 Y-39.714 E9.78187
G1 X-43.815 Y-40.092 E9.79586
G1 X-44.398 Y-40.327 E9.80986
G1 X-45.02 Y-40.403 E9.82382
G1 X-45.641 Y-40.316 E9.8378
G1 X-46.219 Y-40.072 E9.85177
G1 X-46.714 Y-39.686 E9.86576
G1 X-47.092 Y-39.185 E9.87974
G1 X-47.327 Y-38.602 E9.89375
G1 X-47.403 Y-37.98 E9.90771
G1 X-47.316 Y-37.359 E9.92168
G1 X-47.072 Y-36.781 E9.93566
G1 X-46.686 Y-36.286 E9.94965
G1 X-46.185 Y-35.908 E9.96363
G1 X-45.602 Y-35.673 E9.97764
G1 X-44.98 Y-35.597 E9.9916
G1 X-44.359 Y-35.684 E10.00557
G1 X-43.781 Y-35.928 E10.01955
G1 X-43.286 Y-36.314 E10.03353
G1 X-43.022 Y-36.664 E10.0433
G0 F1620 X-42.909 Y-36.814
G0 X-42.675 Y-37.38
G0 F7200 X-42.773 Y-37.406
;TYPE:WALL-OUTER
G1 F1800 X-42.698 Y-38.019 E10.05706
G1 X-42.781 Y-38.614 E10.07045
G1 X-43.015 Y-39.168 E10.08385
G1 X-43.385 Y-39.642 E10.09725
G1 X-43.865 Y-40.004 E10.11064
G1 X-44.423 Y-40.229 E10.12405
G1 X-45.019 Y-40.302 E10.13743
G1 X-45.614 Y-40.219 E10.15081
G1 X-46.168 Y-39.985 E10.16421
G1 X-46.642 Y-39.615 E10.17761
G1 X-47.004 Y-39.135 E10.191
G1 X-47.229 Y-38.577 E10.20441
G1 X-47.302 Y-37.981 E10.21779
G1 X-47.219 Y-37.386 E10.23117
G1 X-46.985 Y-36.832 E10.24457
G1 X-46.615 Y-36.358 E10.25797
G1 X-46.135 Y-35.996 E10.27137
G1 X-45.577 Y-35.771 E10.28477
G1 X-44.981 Y-35.698 E10.29815
G1 X-44.386 Y-35.781 E10.31154
G1 X-43.832 Y-36.015 E10.32494
G1 X-43.358 Y-36.385 E10.33833
G1 X-43.125 Y-36.693 E10.34694
G0 F1620 X-42.997 Y-36.864
G0 X-42.773 Y-37.406
G0 F7200 X-42.749 Y-37.604
G0 X-42.312 Y-37.55
G1 F2400 E6.84694
G0 F7200 X-42.861 Y-35.896
G0 X-44.194 Y-37.211
G0 X-10.008 Y36.872
G0 X-10.026 Y35.002
G0 X-8.747 Y35.786
G0 X-7.807 Y36.71
G0 X-7.285 Y38.722
;TYPE:WALL-INNER
G1 F2400 E10.34694
G1 F1800 X-7.194 Y37.976 E10.36368
G1 X-7.295 Y37.252 E10.37997
G1 X-7.58 Y36.577 E10.3963
G1 X-8.031 Y35.998 E10.41265
G1 X-8.616 Y35.557 E10.42897
G1 X-9.297 Y35.282 E10.44534
G1 X-10.024 Y35.194 E10.46165
G1 X-10.748 Y35.295 E10.47794
G1 X-11.423 Y35.58 E10.49426
G1 X-12.002 Y36.031 E10.51062
G1 X-12.443 Y36.616 E10.52694
G1 X-12.718 Y37.297 E10.5433
G1 X-12.806 Y38.024 E10.55962
G1 X-12.705 Y38.748 E10.57591
G1 X-12.42 Y39.423 E10.59223
G1 X-11.969 Y40.002 E10.60859
G1 X-11.384 Y40.443 E10.62491
G1 X-10.703 Y40.718 E10.64127
G1 X-9.976 Y40.806 E10.65759
G1 X-9.252 Y40.705 E10.67388
G1 X-8.577 Y40.42 E10.6902
G1 X-7.998 Y39.969 E10.70655
G1 X-7.608 Y39.451 E10.721
G0 F1620 X-7.559 Y39.386
G0 X-7.285 Y38.722
G0 F7200 X-7.675 Y38.62
G1 F1800 X-7.597 Y37.98 E10.73537
G1 X-7.684 Y37.359 E10.74934
G1 X-7.928 Y36.781 E10.76332
G1 X-8.314 Y36.286 E10.7773
G1 X-8.815 Y35.908 E10.79129
G1 X-9.398 Y35.673 E10.80529
G1 X-10.02 Y35.597 E10.81925
G1 X-10.641 Y35.684 E10.83323
G1 X-11.219 Y35.928 E10.8472
G1 X-11.714 Y36.314 E10.86119
G1 X-12.092 Y36.815 E10.87517
G1 X-12.327 Y37.398 E10.88918
G1 X-12.403 Y38.02 E10.90314
G1 X-12.316 Y38.641 E10.91711
G1 X-12.072 Y39.219 E10.93109
G1 X-11.686 Y39.714 E10.94508
G1 X-11.185 Y40.092 E10.95906
G1 X-10.602 Y40.327 E10.97307
G1 X-9.98 Y40.403 E10.98703
G1 X-9.359 Y40.316 E11.001
G1 X-8.781 Y40.072 E11.01498
G1 X-8.286 Y39.686 E11.02897
G1 X-8.022 Y39.336 E11.03873
G0 F1620 X-7.909 Y39.186
G0 X-7.675 Y38.62
G0 F7200 X-7.773 Y38.594
;TYPE:WALL-OUTER
G1 F1800 X-7.698 Y37.981 E11.05249
G1 X-7.781 Y37.386 E11.06588
G1 X-8.015 Y36.832 E11.07928
G1 X-8.385 Y36.358 E11.09268
G1 X-8.865 Y35.996 E11.10607
G1 X-9.423 Y35.771 E11.11948
G1 X-10.019 Y35.698 E11.13286
G1 X-10.614 Y35.781 E11.14624
G1 X-11.168 Y36.015 E11.15964
G1 X-11.642 Y36.385 E11.17304
G1 X-12.004 Y36.865 E11.18643
G1 X-12.229 Y37.423 E11.19984
G1 X-12.302 Y38.019 E11.21322
G1 X-12.219 Y38.614 E11.2266
G1 X-11.985 Y39.168 E11.24
G1 X-11.615 Y39.642 E11.2534
G1 X-11.135 Y40.004 E11.2668
G1 X-10.577 Y40.229 E11.2802
G1 X-9.981 Y40.302 E11.29358
G1 X-9.386 Y40.219 E11.30697
G1 X-8.832 Y39.985 E11.32037
G1 X-8.358 Y39.615 E11.33376
G1 X-8.125 Y39.307 E11.34237
G0 F1620 X-7.997 Y39.136
G0 X-7.773 Y38.594
G0 F7200 X-7.749 Y38.396
G0 X-7.312 Y38.45
G1 F2400 E7.84237
G0 F7200 X-7.414 Y36.48
G0 X-9.026 Y37.431
G0 X2.872 Y24.882
G0 X1.037 Y24.882
G0 X1.207 Y26.809
;TYPE:WALL-INNER
G1 F2400 E11.34237
G1 F1800 X38.454 Y26.809 E12.17227
G1 X38.454 Y-23.964 E13.30354
G1 X38.454 Y-24.163 E13.30797
G1 X38.255 Y-24.163 E13.31084
G1 X1.207 Y-24.162 E14.13631
G1 X1.207 Y26.009 E15.25417
G0 F1620 X1.207 Y26.809
G0 F7200 X1.607 Y26.409
G1 F1800 X38.054 Y26.409 E16.06624
G1 X38.054 Y-23.564 E17.17969
G1 X38.054 Y-23.763 E17.18412
G1 X37.855 Y-23.763 E17.18699
G1 X1.607 Y-23.762 E17.99463
G1 X1.607 Y25.609 E19.09466
G0 F1620 X1.607 Y26.409
G0 F7200 X1.707 Y26.309
;TYPE:WALL-OUTER
G1 F1800 X37.954 Y26.309 E19.90228
G1 X37.954 Y-23.463 E21.01125
G1 X37.954 Y-23.663 E21.01571
G1 X37.754 Y-23.663 E21.01859
G1 X1.707 Y-23.662 E21.82175
G1 X1.707 Y25.509 E22.91733
G0 F1620 X1.707 Y26.309
G0 F7200 X1.907 Y26.309
G0 X1.907 Y26.749
G1 F2400 E19.41733
G0 F7200 X38.182 Y26.537
G0 X38.644 Y-2.278
G0 X36.789 Y-2.278
G0 X46.872 Y-2.992
G0 X45.002 Y-2.974
G0 X45.807 Y-1.71
G0 X46.747 Y-.786
G0 X48.021 Y-.456
G0 X49.29 Y-.807
G0 X50.715 Y-2.278
;TYPE:WALL-INNER
G1 F2400 E22.91733
G1 F1800 X50.806 Y-3.024 E22.93407
G1 X50.705 Y-3.748 E22.95036
G1 X50.42 Y-4.423 E22.96669
G1 X49.969 Y-5.002 E22.98304
G1 X49.384 Y-5.443 E22.99936
G1 X48.703 Y-5.718 E23.01573
G1 X47.976 Y-5.806 E23.03204
G1 X47.252 Y-5.705 E23.04833
G1 X46.577 Y-5.42 E23.06466
G1 X45.998 Y-4.969 E23.08101
G1 X45.557 Y-4.384 E23.09733
G1 X45.282 Y-3.703 E23.1137
G1 X45.194 Y-2.976 E23.13001
G1 X45.295 Y-2.252 E23.1463
G1 X45.58 Y-1.577 E23.16263
G1 X46.031 Y-.998 E23.17898
G1 X46.616 Y-.557 E23.1953
G1 X47.297 Y-.282 E23.21166
G1 X48.024 Y-.194 E23.22798
G1 X48.748 Y-.295 E23.24427
G1 X49.423 Y-.58 E23.26059
G1 X50.002 Y-1.031 E23.27695
G1 X50.392 Y-1.549 E23.29139
G0 F1620 X50.441 Y-1.614
G0 X50.715 Y-2.278
G0 F7200 X50.325 Y-2.38
G1 F1800 X50.403 Y-3.02 E23.30576
G1 X50.316 Y-3.641 E23.31973
G1 X50.072 Y-4.219 E23.33371
G1 X49.686 Y-4.714 E23.3477
G1 X49.185 Y-5.092 E23.36168
G1 X48.602 Y-5.327 E23.37568
G1 X47.98 Y-5.403 E23.38965
G1 X47.359 Y-5.316 E23.40362
G1 X46.781 Y-5.072 E23.4176
G1 X46.286 Y-4.686 E23.43158
G1 X45.908 Y-4.185 E23.44557
G1 X45.673 Y-3.602 E23.45957
G1 X45.597 Y-2.98 E23.47353
G1 X45.684 Y-2.359 E23.4875
G1 X45.928 Y-1.781 E23.50148
G1 X46.314 Y-1.286 E23.51547
G1 X46.815 Y-.908 E23.52945
G1 X47.398 Y-.673 E23.54346
G1 X48.02 Y-.597 E23.55742
G1 X48.641 Y-.684 E23.57139
G1 X49.219 Y-.928 E23.58537
G1 X49.714 Y-1.314 E23.59936
G1 X49.978 Y-1.664 E23.60913
G0 F1620 X50.091 Y-1.814
G0 X50.325 Y-2.38
G0 F7200 X50.227 Y-2.406
;TYPE:WALL-OUTER
G1 F1800 X50.302 Y-3.019 E23.62289
G1 X50.219 Y-3.614 E23.63627
G1 X49.985 Y-4.168 E23.64967
G1 X49.615 Y-4.642 E23.66307
G1 X49.135 Y-5.004 E23.67646
G1 X48.577 Y-5.229 E23.68987
G1 X47.981 Y-5.302 E23.70325
G1 X47.386 Y-5.219 E23.71663
G1 X46.832 Y-4.985 E23.73003
G1 X46.358 Y-4.615 E23.74343
G1 X45.996 Y-4.135 E23.75683
G1 X45.771 Y-3.577 E23.77023
G1 X45.698 Y-2.981 E23.78361
G1 X45.781 Y-2.386 E23.797
G1 X46.015 Y-1.832 E23.8104
G1 X46.385 Y-1.358 E23.82379
G1 X46.865 Y-.996 E23.83719
G1 X47.423 Y-.771 E23.85059
G1 X48.019 Y-.698 E23.86397
G1 X48.614 Y-.781 E23.87736
G1 X49.168 Y-1.015 E23.89076
G1 X49.642 Y-1.385 E23.90416
G1 X49.875 Y-1.693 E23.91276
G0 F1620 X50.003 Y-1.864
G0 X50.227 Y-2.406
G0 F7200 X50.251 Y-2.604
G0 X50.688 Y-2.55
G1 F2400 E20.41276
G0 F7200 X50.451 Y-3.678
G0 X49.784 Y-4.814
G0 X48.636 Y-5.462
G0 X47.794 Y-5.519
G0 X45.861 Y-5.104
G0 X47.194 Y-3.789
G0 X36.855 Y-14.796
G0 X36.801 Y-22.51
G0 X29.558 Y-22.566
G0 X15.806 Y-37.211
G0 X17.139 Y-35.896
G0 X17.715 Y-37.278
;TYPE:WALL-INNER
G1 F2400 E23.91276
G1 F1800 X17.806 Y-38.024 E23.92951
G1 X17.705 Y-38.748 E23.94579
G1 X17.42 Y-39.423 E23.96212
G1 X16.969 Y-40.002 E23.97847
G1 X16.384 Y-40.443 E23.99479
G1 X15.703 Y-40.718 E24.01116
G1 X14.976 Y-40.806 E24.02747
G1 X14.252 Y-40.705 E24.04376
G1 X13.577 Y-40.42 E24.06009
G1 X12.998 Y-39.969 E24.07644
G1 X12.557 Y-39.384 E24.09276
G1 X12.282 Y-38.703 E24.10913
G1 X12.194 Y-37.976 E24.12544
G1 X12.295 Y-37.252 E24.14173
G1 X12.58 Y-36.577 E24.15806
G1 X13.031 Y-35.998 E24.17441
G1 X13.616 Y-35.557 E24.19073
G1 X14.297 Y-35.282 E24.2071
G1 X15.024 Y-35.194 E24.22341
G1 X15.748 Y-35.295 E24.2397
G1 X16.423 Y-35.58 E24.25602
G1 X17.002 Y-36.031 E24.27238
G1 X17.392 Y-36.549 E24.28682
G0 F1620 X17.441 Y-36.614
G0 X17.715 Y-37.278
G0 F7200 X17.325 Y-37.38
G1 F1800 X17.403 Y-38.02 E24.30119
G1 X17.316 Y-38.641 E24.31516
G1 X17.072 Y-39.219 E24.32914
G1 X16.686 Y-39.714 E24.34313
G1 X16.185 Y-40.092 E24.35711
G1 X15.602 Y-40.327 E24.37111
G1 X14.98 Y-40.403 E24.38508
G1 X14.359 Y-40.316 E24.39905
G1 X13.781 Y-40.072 E24.41303
G1 X13.286 Y-39.686 E24.42701
G1 X12.908 Y-39.185 E24.441
G1 X12.673 Y-38.602 E24.455
G1 X12.597 Y-37.98 E24.46896
G1 X12.684 Y-37.359 E24.48294
G1 X12.928 Y-36.781 E24.49691
G1 X13.314 Y-36.286 E24.5109
G1 X13.815 Y-35.908 E24.52488
G1 X14.398 Y-35.673 E24.53889
G1 X15.02 Y-35.597 E24.55285
G1 X15.641 Y-35.684 E24.56682
G1 X16.219 Y-35.928 E24.5808
G1 X16.714 Y-36.314 E24.59479
G1 X16.978 Y-36.664 E24.60456
G0 F1620 X17.091 Y-36.814
G0 X17.325 Y-37.38
G0 F7200 X17.227 Y-37.406
;TYPE:WALL-OUTER
G1 F1800 X17.302 Y-38.019 E24.61832
G1 X17.219 Y-38.614 E24.6317
G1 X16.985 Y-39.168 E24.6451
G1 X16.615 Y-39.642 E24.6585
G1 X16.135 Y-40.004 E24.67189
G1 X15.577 Y-40.229 E24.6853
G1 X14.981 Y-40.302 E24.69868
G1 X14.386 Y-40.219 E24.71206
G1 X13.832 Y-39.985 E24.72546
G1 X13.358 Y-39.615 E24.73886
G1 X12.996 Y-39.135 E24.75226
G1 X12.771 Y-38.577 E24.76566
G1 X12.698 Y-37.981 E24.77904
G1 X12.781 Y-37.386 E24.79243
G1 X13.015 Y-36.832 E24.80583
G1 X13.385 Y-36.358 E24.81922
G1 X13.865 Y-35.996 E24.83262
G1 X14.423 Y-35.771 E24.84602
G1 X15.019 Y-35.698 E24.8594
G1 X15.614 Y-35.781 E24.87279
G1 X16.168 Y-36.015 E24.88619
G1 X16.642 Y-36.385 E24.89959
G1 X16.875 Y-36.693 E24.90819
G0 F1620 X17.003 Y-36.864
G0 X17.227 Y-37.406
G0 F7200 X17.251 Y-37.604
G0 X17.688 Y-37.55
G1 F2400 E21.40819
G0 F7200 X17.89 Y-38.799
G0 X16.087 Y-38.304
G0 X17.89 Y-46.165
G0 X17.89 Y-44.29
G0 X53.995 Y-44.359
;TYPE:WALL-INNER
G1 F2400 E24.90819
G1 F1800 X54.201 Y-44.201 E24.91398
G1 X54.359 Y-43.995 E24.91976
G1 X54.458 Y-43.759 E24.92546
G1 X54.5 Y-43.432 E24.93281
G1 X54.5 Y43.432 E26.86822
G1 X54.458 Y43.759 E26.87557
G1 X54.359 Y43.995 E26.88127
G1 X54.201 Y44.201 E26.88705
G1 X53.995 Y44.359 E26.89284
G1 X53.759 Y44.458 E26.89854
G1 X53.432 Y44.5 E26.90589
G1 X-53.432 Y44.5 E29.28692
G1 X-53.759 Y44.458 E29.29427
G1 X-53.995 Y44.359 E29.29997
G1 X-54.201 Y44.201 E29.30575
G1 X-54.359 Y43.995 E29.31154
G1 X-54.458 Y43.759 E29.31724
G1 X-54.5 Y43.432 E29.32458
G1 X-54.5 Y-43.432 E31.26
G1 X-54.458 Y-43.759 E31.26734
G1 X-54.359 Y-43.995 E31.27305
G1 X-54.201 Y-44.201 E31.27883
G1 X-53.995 Y-44.359 E31.28462
G1 X-53.759 Y-44.458 E31.29032
G1 X-53.432 Y-44.5 E31.29766
G1 X53.216 Y-44.5 E33.67388
G0 F1620 X53.432 Y-44.5
G0 X53.759 Y-44.458
G0 X53.995 Y-44.359
G0 F7200 X54.195 Y-44.709
G1 F1800 X54.486 Y-44.486 E33.68205
G1 X54.709 Y-44.195 E33.69022
G1 X54.826 Y-43.913 E33.69702
G1 X54.848 Y-43.862 E33.69826
G1 X54.9 Y-43.46 E33.70729
G1 X54.9 Y43.46 E35.64395
G1 X54.848 Y43.862 E35.65299
G1 X54.709 Y44.195 E35.66103
G1 X54.486 Y44.486 E35.66919
G1 X54.195 Y44.709 E35.67736
G1 X53.913 Y44.826 E35.68417
G1 X53.862 Y44.848 E35.6854
G1 X53.46 Y44.9 E35.69443
G1 X-53.46 Y44.9 E38.07671
G1 X-53.862 Y44.848 E38.08575
G1 X-54.195 Y44.709 E38.09379
G1 X-54.486 Y44.486 E38.10196
G1 X-54.709 Y44.195 E38.11012
G1 X-54.826 Y43.913 E38.11693
G1 X-54.848 Y43.862 E38.11816
G1 X-54.9 Y43.46 E38.1272
G1 X-54.9 Y-43.46 E40.06386
G1 X-54.848 Y-43.862 E40.07289
G1 X-54.709 Y-44.195 E40.08093
G1 X-54.486 Y-44.486 E40.0891
G1 X-54.195 Y-44.709 E40.09727
G1 X-53.913 Y-44.826 E40.10407
G1 X-53.862 Y-44.848 E40.10531
G1 X-53.46 Y-44.9 E40.11434
G1 X53.425 Y-44.9 E42.49584
G0 F1620 X53.46 Y-44.9
G0 X53.862 Y-44.848
G0 X54.195 Y-44.709
