;FLAVOR:Marlin
;TIME:4877
;Filament used: 6.3844m
;Layer height: 0.3
;MINX:-56.165
;MINY:-46.165
;MINZ:0.3
;MAXX:56.165
;MAXY:45.3
;MAXZ:4.8

;POSTPROCESSED
;Generated with Cura_SteamEngine 4.4.1
M140 S80
M105
M190 S80
M104 S230
M105
M109 S230
M82 ;absolute extrusion mode
M118 X60.00 Y50.00 Z5.00 T0
M140 S80 T0
M104 S230 T0
M104 S0 T1
M107
G90
G28
M132 X Y Z A B
G1 Z50.00 F400
G161 X Y F3300
M7 T0
M6 T0
M651
M907 X100 Y100 Z40 A100 B20
M108 T0
G1 X60.00 Y50.00 F6000
G92 E0
G92 E0
G1 F2700 E-10
;LAYER_COUNT:16

;LAYER:0
M107
;MESH:lid-01 v8.obj
G0 F7200 X-42.675 Y-37.381 Z0.3
;TYPE:WALL-INNER
G1 F2700 E0
G1 F1200 X-42.598 Y-38.031 E0.03266
G1 X-42.688 Y-38.652 E0.06396
G1 X-42.935 Y-39.227 E0.09518
G1 X-43.322 Y-39.72 E0.12645
G1 X-43.824 Y-40.096 E0.15774
G1 X-44.408 Y-40.329 E0.18911
G1 X-45.032 Y-40.402 E0.22046
G1 X-45.652 Y-40.312 E0.25171
G1 X-46.227 Y-40.065 E0.28293
G1 X-46.72 Y-39.678 E0.3142
G1 X-47.096 Y-39.176 E0.34549
G1 X-47.329 Y-38.592 E0.37686
G1 X-47.402 Y-37.968 E0.40821
G1 X-47.312 Y-37.348 E0.43946
G1 X-47.065 Y-36.773 E0.47068
G1 X-46.678 Y-36.28 E0.50195
G1 X-46.176 Y-35.904 E0.53324
G1 X-45.592 Y-35.671 E0.56461
G1 X-44.968 Y-35.598 E0.59596
G1 X-44.348 Y-35.688 E0.62721
G1 X-43.773 Y-35.935 E0.65843
G1 X-43.28 Y-36.322 E0.6897
G1 X-42.907 Y-36.822 E0.72082
G1 X-42.675 Y-37.381 E0.75102
G0 F7200 X-43.066 Y-37.483
;TYPE:WALL-OUTER
G1 F1200 X-43.001 Y-38.026 E0.7783
G1 X-43.076 Y-38.542 E0.80432
G1 X-43.282 Y-39.021 E0.83033
G1 X-43.604 Y-39.431 E0.85634
G1 X-44.022 Y-39.744 E0.88239
G1 X-44.507 Y-39.938 E0.90845
G1 X-45.026 Y-39.999 E0.93453
G1 X-45.542 Y-39.924 E0.96054
G1 X-46.021 Y-39.718 E0.98655
G1 X-46.431 Y-39.396 E1.01256
G1 X-46.744 Y-38.978 E1.03861
G1 X-46.938 Y-38.493 E1.06468
G1 X-46.999 Y-37.974 E1.09075
G1 X-46.924 Y-37.458 E1.11676
G1 X-46.718 Y-36.979 E1.14277
G1 X-46.396 Y-36.569 E1.16878
G1 X-45.978 Y-36.256 E1.19484
G1 X-45.493 Y-36.062 E1.2209
G1 X-44.974 Y-36.001 E1.24697
G1 X-44.458 Y-36.076 E1.27298
G1 X-43.979 Y-36.282 E1.299
G1 X-43.569 Y-36.604 E1.325
G1 X-43.257 Y-37.021 E1.35099
G1 X-43.066 Y-37.483 E1.37593
G0 F7200 X-43.043 Y-37.681
G0 X-42.606 Y-37.628
G1 F2700 E-8.62407
G0 F7200 X-42.74 Y-36.726
G0 X-44.012 Y-37.454
G0 X-10.014 Y36.873
G0 X-10.035 Y35.405
G0 X-8.904 Y36.046
G0 X-8.075 Y36.856
G0 X-7.675 Y38.619
;TYPE:WALL-INNER
G1 F2700 E1.37593
G1 F1200 X-7.598 Y37.969 E1.40858
G1 X-7.688 Y37.348 E1.43989
G1 X-7.935 Y36.773 E1.47111
G1 X-8.322 Y36.28 E1.50238
G1 X-8.824 Y35.904 E1.53367
G1 X-9.408 Y35.671 E1.56504
G1 X-10.032 Y35.598 E1.59638
G1 X-10.652 Y35.688 E1.62764
G1 X-11.227 Y35.935 E1.65886
G1 X-11.72 Y36.322 E1.69013
G1 X-12.096 Y36.824 E1.72142
G1 X-12.329 Y37.408 E1.75279
G1 X-12.402 Y38.032 E1.78413
G1 X-12.312 Y38.652 E1.81539
G1 X-12.065 Y39.227 E1.84661
G1 X-11.678 Y39.72 E1.87788
G1 X-11.176 Y40.096 E1.90917
G1 X-10.592 Y40.329 E1.94054
G1 X-9.968 Y40.402 E1.97189
G1 X-9.348 Y40.312 E2.00314
G1 X-8.773 Y40.065 E2.03436
G1 X-8.28 Y39.678 E2.06563
G1 X-7.907 Y39.178 E2.09675
G1 X-7.675 Y38.619 E2.12695
G0 F7200 X-8.066 Y38.517
;TYPE:WALL-OUTER
G1 F1200 X-8.001 Y37.974 E2.15423
G1 X-8.076 Y37.458 E2.18025
G1 X-8.282 Y36.979 E2.20626
G1 X-8.604 Y36.569 E2.23227
G1 X-9.022 Y36.256 E2.25832
G1 X-9.507 Y36.062 E2.28438
G1 X-10.026 Y36.001 E2.31045
G1 X-10.542 Y36.076 E2.33647
G1 X-11.021 Y36.282 E2.36248
G1 X-11.431 Y36.604 E2.38849
G1 X-11.744 Y37.022 E2.41454
G1 X-11.938 Y37.507 E2.4406
G1 X-11.999 Y38.026 E2.46668
G1 X-11.924 Y38.542 E2.49269
G1 X-11.718 Y39.021 E2.5187
G1 X-11.396 Y39.431 E2.54471
G1 X-10.978 Y39.744 E2.57076
G1 X-10.493 Y39.938 E2.59683
G1 X-9.974 Y39.999 E2.6229
G1 X-9.458 Y39.924 E2.64891
G1 X-8.979 Y39.718 E2.67492
G1 X-8.569 Y39.396 E2.70093
G1 X-8.257 Y38.979 E2.72692
G1 X-8.066 Y38.517 E2.75186
G0 F7200 X-8.043 Y38.319
G0 X-7.606 Y38.372
G1 F2700 E-7.24814
G0 F7200 X-7.503 Y37.296
G0 X-8.915 Y37.692
G0 X2.837 Y24.517
G0 X1.402 Y24.517
G0 X1.572 Y26.444
;TYPE:WALL-INNER
G1 F2700 E2.75186
G1 F1200 X38.089 Y26.444 E4.5737
G1 X38.089 Y-23.798 E7.08028
G1 X1.572 Y-23.798 E8.90212
G1 X1.572 Y26.444 E11.40871
G0 F7200 X1.972 Y26.044
;TYPE:WALL-OUTER
G1 F1200 X37.689 Y26.044 E13.19063
G1 X37.689 Y-23.398 E15.65731
G1 X1.972 Y-23.398 E17.43923
G1 X1.972 Y26.044 E19.90591
G0 F7200 X2.172 Y26.044
G0 X2.172 Y26.484
G1 F2700 E9.90591
G0 F7200 X37.917 Y26.272
G0 X38.279 Y-2.381
G0 X36.824 Y-2.381
G0 X46.873 Y-2.986
G0 X45.405 Y-2.965
G0 X46.075 Y-1.856
G0 X46.904 Y-1.046
G0 X48.029 Y-.76
G0 X49.144 Y-1.075
G0 X50.325 Y-2.381
;TYPE:WALL-INNER
G1 F2700 E19.90591
G1 F1200 X50.402 Y-3.031 E19.93856
G1 X50.312 Y-3.652 E19.96987
G1 X50.065 Y-4.227 E20.00109
G1 X49.678 Y-4.72 E20.03236
G1 X49.176 Y-5.096 E20.06365
G1 X48.592 Y-5.329 E20.09502
G1 X47.968 Y-5.402 E20.12636
G1 X47.348 Y-5.312 E20.15762
G1 X46.773 Y-5.065 E20.18884
G1 X46.28 Y-4.678 E20.22011
G1 X45.904 Y-4.176 E20.2514
G1 X45.671 Y-3.592 E20.28277
G1 X45.598 Y-2.968 E20.31411
G1 X45.688 Y-2.348 E20.34537
G1 X45.935 Y-1.773 E20.37659
G1 X46.322 Y-1.28 E20.40786
G1 X46.824 Y-.904 E20.43915
G1 X47.408 Y-.671 E20.47052
G1 X48.032 Y-.598 E20.50186
G1 X48.652 Y-.688 E20.53312
G1 X49.227 Y-.935 E20.56434
G1 X49.72 Y-1.322 E20.59561
G1 X50.093 Y-1.822 E20.62673
G1 X50.325 Y-2.381 E20.65693
G0 F7200 X49.934 Y-2.483
;TYPE:WALL-OUTER
G1 F1200 X49.999 Y-3.026 E20.68421
G1 X49.924 Y-3.542 E20.71022
G1 X49.718 Y-4.021 E20.73624
G1 X49.396 Y-4.431 E20.76225
G1 X48.978 Y-4.744 E20.7883
G1 X48.493 Y-4.938 E20.81436
G1 X47.974 Y-4.999 E20.84043
G1 X47.458 Y-4.924 E20.86644
G1 X46.979 Y-4.718 E20.89246
G1 X46.569 Y-4.396 E20.91847
G1 X46.256 Y-3.978 E20.94452
G1 X46.062 Y-3.493 E20.97058
G1 X46.001 Y-2.974 E20.99665
G1 X46.076 Y-2.458 E21.02267
G1 X46.282 Y-1.979 E21.04868
G1 X46.604 Y-1.569 E21.07469
G1 X47.022 Y-1.256 E21.10074
G1 X47.507 Y-1.062 E21.1268
G1 X48.026 Y-1.001 E21.15287
G1 X48.542 Y-1.076 E21.17889
G1 X49.021 Y-1.282 E21.2049
G1 X49.431 Y-1.604 E21.23091
G1 X49.743 Y-2.021 E21.25689
G1 X49.934 Y-2.483 E21.28183
G0 F7200 X49.957 Y-2.681
G0 X50.394 Y-2.628
G1 F2700 E11.28183
G0 F7200 X50.156 Y-3.607
G0 X49.564 Y-4.603
G0 X48.552 Y-5.172
G0 X46.675 Y-5.23
G0 X47.423 Y-3.969
G0 X36.891 Y-15.187
G0 X36.836 Y-22.545
G0 X29.93 Y-22.601
G0 X15.988 Y-37.454
G0 X17.26 Y-36.726
G0 X17.325 Y-37.381
;TYPE:WALL-INNER
G1 F2700 E21.28183
G1 F1200 X17.402 Y-38.031 E21.31449
G1 X17.312 Y-38.652 E21.34579
G1 X17.065 Y-39.227 E21.37702
G1 X16.678 Y-39.72 E21.40829
G1 X16.176 Y-40.096 E21.43958
G1 X15.592 Y-40.329 E21.47095
G1 X14.968 Y-40.402 E21.50229
G1 X14.348 Y-40.312 E21.53355
G1 X13.773 Y-40.065 E21.56477
G1 X13.28 Y-39.678 E21.59604
G1 X12.904 Y-39.176 E21.62733
G1 X12.671 Y-38.592 E21.6587
G1 X12.598 Y-37.968 E21.69004
G1 X12.688 Y-37.348 E21.7213
G1 X12.935 Y-36.773 E21.75252
G1 X13.322 Y-36.28 E21.78379
G1 X13.824 Y-35.904 E21.81508
G1 X14.408 Y-35.671 E21.84645
G1 X15.032 Y-35.598 E21.87779
G1 X15.652 Y-35.688 E21.90905
G1 X16.227 Y-35.935 E21.94027
G1 X16.72 Y-36.322 E21.97154
G1 X17.093 Y-36.822 E22.00266
G1 X17.325 Y-37.381 E22.03285
G0 F7200 X16.934 Y-37.483
;TYPE:WALL-OUTER
G1 F1200 X16.999 Y-38.026 E22.06014
G1 X16.924 Y-38.542 E22.08615
G1 X16.718 Y-39.021 E22.11217
G1 X16.396 Y-39.431 E22.13817
G1 X15.978 Y-39.744 E22.16423
G1 X15.493 Y-39.938 E22.19029
G1 X14.974 Y-39.999 E22.21636
G1 X14.458 Y-39.924 E22.24237
G1 X13.979 Y-39.718 E22.26839
G1 X13.569 Y-39.396 E22.2944
G1 X13.256 Y-38.978 E22.32045
G1 X13.062 Y-38.493 E22.34651
G1 X13.001 Y-37.974 E22.37258
G1 X13.076 Y-37.458 E22.39859
G1 X13.282 Y-36.979 E22.42461
G1 X13.604 Y-36.569 E22.45062
G1 X14.022 Y-36.256 E22.47667
G1 X14.507 Y-36.062 E22.50273
G1 X15.026 Y-36.001 E22.5288
G1 X15.542 Y-36.076 E22.55482
G1 X16.021 Y-36.282 E22.58083
G1 X16.431 Y-36.604 E22.60684
G1 X16.743 Y-37.021 E22.63282
G1 X16.934 Y-37.483 E22.65776
G0 F7200 X16.957 Y-37.681
G0 X17.394 Y-37.628
G1 F2700 E12.65776
G0 F7200 X17.497 Y-38.704
G0 X16.085 Y-38.308
G0 X17.497 Y-46.165
G0 X17.497 Y-44.69
G0 X54.195 Y-44.709
;TYPE:WALL-INNER
G1 F2700 E22.65776
G1 F1200 X54.486 Y-44.486 E22.67605
G1 X54.709 Y-44.195 E22.69434
G1 X54.847 Y-43.862 E22.71233
G1 X54.9 Y-43.46 E22.73256
G1 X54.9 Y43.46 E27.06901
G1 X54.847 Y43.862 E27.08924
G1 X54.709 Y44.195 E27.10723
G1 X54.486 Y44.486 E27.12552
G1 X54.195 Y44.709 E27.14381
G1 X53.862 Y44.847 E27.16179
G1 X53.46 Y44.9 E27.18202
G1 X-53.46 Y44.9 E32.51628
G1 X-53.862 Y44.847 E32.53651
G1 X-54.195 Y44.709 E32.55449
G1 X-54.486 Y44.486 E32.57278
G1 X-54.709 Y44.195 E32.59108
G1 X-54.847 Y43.862 E32.60906
G1 X-54.9 Y43.46 E32.62929
G1 X-54.9 Y-43.46 E36.96574
G1 X-54.847 Y-43.862 E36.98597
G1 X-54.709 Y-44.195 E37.00396
G1 X-54.486 Y-44.486 E37.02225
G1 X-54.195 Y-44.709 E37.04054
G1 X-53.862 Y-44.847 E37.05852
G1 X-53.46 Y-44.9 E37.07875
G1 X53.46 Y-44.9 E42.41301
G1 X53.862 Y-44.847 E42.43324
G1 X54.195 Y-44.709 E42.45123
G0 F7200 X54.399 Y-45.057
;TYPE:WALL-OUTER
G1 F1200 X54.771 Y-44.771 E42.47464
G1 X55.057 Y-44.399 E42.49805
G1 X55.238 Y-43.963 E42.5216
G1 X55.3 Y-43.489 E42.54545
G1 X55.3 Y43.489 E46.8848
G1 X55.238 Y43.963 E46.90865
G1 X55.057 Y44.399 E46.9322
G1 X54.771 Y44.771 E46.95561
G1 X54.399 Y45.057 E46.97902
G1 X53.963 Y45.238 E47.00257
G1 X53.489 Y45.3 E47.02642
G1 X-53.489 Y45.3 E52.36357
G1 X-53.963 Y45.238 E52.38742
G1 X-54.399 Y45.057 E52.41098
G1 X-54.771 Y44.771 E52.43439
G1 X-55.057 Y44.399 E52.4578
G1 X-55.238 Y43.963 E52.48135
G1 X-55.3 Y43.489 E52.5052
G1 X-55.3 Y-43.489 E56.84455
G1 X-55.238 Y-43.963 E56.8684
G1 X-55.057 Y-44.399 E56.89195
G1 X-54.771 Y-44.771 E56.91536
G1 X-54.399 Y-45.057 E56.93877
G1 X-53.963 Y-45.238 E56.96232
G1 X-53.489 Y-45.3 E56.98617
G1 X53.489 Y-45.3 E62.32333
G1 X53.963 Y-45.238 E62.34717
G1 X54.399 Y-45.057 E62.37073
G0 F7200 X54.557 Y-44.936
G0 X54.288 Y-44.588
G0 X53.998 Y-44.367
;TYPE:SKIN
G1 F1200 X54.207 Y-44.207 E62.38386
G1 X54.367 Y-43.998 E62.39699
G1 X54.469 Y-43.754 E62.41018
G1 X54.51 Y-43.439 E62.42603
G1 X54.51 Y43.439 E66.76039
G1 X54.469 Y43.754 E66.77624
G1 X54.367 Y43.998 E66.78944
G1 X54.207 Y44.207 E66.80257
G1 X53.998 Y44.367 E66.8157
G1 X53.754 Y44.469 E66.82889
G1 X53.439 Y44.51 E66.84474
G1 X-53.439 Y44.51 E72.17691
G1 X-53.754 Y44.469 E72.19275
G1 X-53.998 Y44.367 E72.20595
G1 X-54.207 Y44.207 E72.21908
G1 X-54.367 Y43.998 E72.23221
G1 X-54.469 Y43.754 E72.24541
G1 X-54.51 Y43.439 E72.26125
G1 X-54.51 Y-43.439 E76.59561
G1 X-54.469 Y-43.754 E76.61146
G1 X-54.367 Y-43.998 E76.62466
G1 X-54.207 Y-44.207 E76.63779
G1 X-53.998 Y-44.367 E76.65092
G1 X-53.754 Y-44.469 E76.66411
G1 X-53.439 Y-44.51 E76.67996
G1 X53.439 Y-44.51 E82.01213
G1 X53.754 Y-44.469 E82.02797
G1 X53.998 Y-44.367 E82.04117
G1 F2700 E72.04117
G0 F7200 X54.171 Y-44.588
G0 X53.448 Y-46.165
G0 X36.824 Y-21.871
G0 X38.259 Y-21.871
G0 X38.229 Y-23.908
G0 X38.479 Y-24.188
G1 F2700 E82.04117
G1 F1200 X1.182 Y-24.188 E83.90192
G1 X1.182 Y26.834 E86.44742
G1 X38.479 Y26.834 E88.30818
G1 X38.479 Y-24.188 E90.85367
G1 F2700 E80.85367
G0 F7200 X38.229 Y-23.908
G0 X38.279 Y-5.437
G0 X36.824 Y-5.437
G0 X47.015 Y-3.55
G0 X45.736 Y-4.271
G0 X46.856 Y-4.925
G0 X48.62 Y-5.437
G0 X48.689 Y-5.711
G1 F2700 E90.85367
G1 F1200 X47.962 Y-5.796 E90.89019
G1 X47.241 Y-5.69 E90.92655
G1 X46.572 Y-5.403 E90.96287
G1 X45.999 Y-4.953 E90.99922
G1 X45.561 Y-4.369 E91.03564
G1 X45.289 Y-3.689 E91.07218
G1 X45.204 Y-2.962 E91.10869
G1 X45.31 Y-2.241 E91.14505
G1 X45.597 Y-1.572 E91.18137
G1 X46.047 Y-.999 E91.21772
G1 X46.631 Y-.561 E91.25414
G1 X47.311 Y-.289 E91.29068
G1 X48.038 Y-.204 E91.32719
G1 X48.759 Y-.31 E91.36355
G1 X49.428 Y-.597 E91.39987
G1 X50.001 Y-1.047 E91.43622
G1 X50.434 Y-1.627 E91.47233
G1 X50.706 Y-2.281 E91.50767
G1 X50.796 Y-3.036 E91.5456
G1 X50.69 Y-3.759 E91.58206
G1 X50.403 Y-4.428 E91.61837
G1 X49.953 Y-5.001 E91.65472
G1 X49.369 Y-5.439 E91.69114
G1 X48.689 Y-5.711 E91.72768
G1 F2700 E81.72768
G0 F7200 X48.62 Y-5.437
G0 X47.295 Y-5.497
G0 X47.692 Y-4.085
G0 X36.891 Y-15.572
G0 X36.836 Y-22.545
G0 X30.282 Y-22.601
G0 X16.09 Y-37.7
G0 X17.511 Y-37.332
G0 X17.419 Y-38.683
G0 X17.69 Y-38.759
G1 F2700 E91.72768
G1 F1200 X17.403 Y-39.428 E91.764
G1 X16.953 Y-40.001 E91.80035
G1 X16.369 Y-40.439 E91.83677
G1 X15.689 Y-40.711 E91.87331
G1 X14.962 Y-40.796 E91.90982
G1 X14.241 Y-40.69 E91.94618
G1 X13.572 Y-40.403 E91.9825
G1 X12.999 Y-39.953 E92.01885
G1 X12.561 Y-39.369 E92.05527
G1 X12.289 Y-38.689 E92.09181
G1 X12.204 Y-37.962 E92.12833
G1 X12.31 Y-37.241 E92.16468
G1 X12.597 Y-36.572 E92.201
G1 X13.047 Y-35.999 E92.23735
G1 X13.631 Y-35.561 E92.27377
G1 X14.311 Y-35.289 E92.31031
G1 X15.038 Y-35.204 E92.34683
G1 X15.759 Y-35.31 E92.38318
G1 X16.428 Y-35.597 E92.4195
G1 X17.001 Y-36.047 E92.45585
G1 X17.434 Y-36.627 E92.49196
G1 X17.706 Y-37.281 E92.5273
G1 X17.796 Y-38.036 E92.56523
G1 X17.69 Y-38.759 E92.60169
G1 F2700 E82.60169
G0 F7200 X17.419 Y-38.683
G0 X16.564 Y-39.603
G0 X15.552 Y-40.172
G0 X14.393 Y-40.156
G0 X13.397 Y-39.564
G0 X12.405 Y-37.965
G0 X13.873 Y-37.986
G0 X-43.873 Y-38.015
G0 X-42.405 Y-38.034
G0 X-42.204 Y-38.036
G1 F2700 E92.60169
G1 F1200 X-42.31 Y-38.759 E92.63814
G1 X-42.597 Y-39.428 E92.67446
G1 X-43.047 Y-40.001 E92.71081
G1 X-43.631 Y-40.439 E92.74723
G1 X-44.311 Y-40.711 E92.78377
G1 X-45.038 Y-40.796 E92.82029
G1 X-45.759 Y-40.69 E92.85665
G1 X-46.428 Y-40.403 E92.89296
G1 X-47.001 Y-39.953 E92.92931
G1 X-47.439 Y-39.369 E92.96573
G1 X-47.711 Y-38.689 E93.00227
G1 X-47.796 Y-37.962 E93.03879
G1 X-47.69 Y-37.241 E93.07515
G1 X-47.403 Y-36.572 E93.11146
G1 X-46.953 Y-35.999 E93.14781
G1 X-46.369 Y-35.561 E93.18423
G1 X-45.689 Y-35.289 E93.22077
G1 X-44.962 Y-35.204 E93.25729
G1 X-44.241 Y-35.31 E93.29365
G1 X-43.572 Y-35.597 E93.32996
G1 X-42.999 Y-36.047 E93.36631
G1 X-42.566 Y-36.627 E93.40242
G1 X-42.294 Y-37.281 E93.43776
G1 X-42.204 Y-38.036 E93.4757
G1 F2700 E83.4757
G0 F7200 X-42.486 Y-38.034
G0 X-43.91 Y-37.7
G0 X-9.719 Y36.908
G0 X-9.36 Y35.485
G0 X-8.245 Y36.201
G0 X-8.047 Y35.999
G1 F2700 E93.4757
G1 F1200 X-8.631 Y35.561 E93.51212
G1 X-9.311 Y35.289 E93.54865
G1 X-10.038 Y35.204 E93.58517
G1 X-10.759 Y35.31 E93.62153
G1 X-11.428 Y35.597 E93.65785
G1 X-12.001 Y36.047 E93.6942
G1 X-12.439 Y36.631 E93.73062
G1 X-12.711 Y37.311 E93.76715
G1 X-12.796 Y38.038 E93.80367
G1 X-12.69 Y38.759 E93.84003
G1 X-12.403 Y39.428 E93.87635
G1 X-11.953 Y40.001 E93.9127
G1 X-11.369 Y40.439 E93.94912
G1 X-10.689 Y40.711 E93.98566
G1 X-9.962 Y40.796 E94.02217
G1 X-9.241 Y40.69 E94.05853
G1 X-8.572 Y40.403 E94.09485
G1 X-7.999 Y39.953 E94.1312
G1 X-7.566 Y39.373 E94.16731
G1 X-7.294 Y38.719 E94.20265
G1 X-7.204 Y37.964 E94.24058
G1 X-7.31 Y37.241 E94.27704
G1 X-7.597 Y36.572 E94.31335
G1 X-8.047 Y35.999 E94.3497
G1 F2700 E84.3497
G0 F7200 X-8.245 Y36.201
G0 X-9.448 Y35.828
G0 X-10.607 Y35.844
G0 X-11.603 Y36.436
G0 X-12.595 Y38.035
G0 X-11.127 Y38.014
G0 X-56.165 Y38.035
G0 X-54.69 Y38.035
G0 X-54.77 Y43.606
G0 X-54.314 Y43.549
G1 F2700 E94.3497
G1 F1200 X-53.549 Y44.314 E94.40368
G0 F7200 X-52.967 Y44.33
G1 F1200 X-54.329 Y42.968 E94.49977
G0 F7200 X-54.329 Y42.402
G1 F1200 X-52.401 Y44.33 E94.6358
G0 F7200 X-51.835 Y44.33
G1 F1200 X-54.329 Y41.836 E94.81177
G0 F7200 X-54.329 Y41.27
G1 F1200 X-51.27 Y44.33 E95.02763
G0 F7200 X-50.704 Y44.33
G1 F1200 X-54.329 Y40.705 E95.2834
G0 F7200 X-54.329 Y40.139
G1 F1200 X-50.138 Y44.33 E95.5791
G0 F7200 X-49.573 Y44.33
G1 F1200 X-54.329 Y39.573 E95.91469
G0 F7200 X-54.329 Y39.008
G1 F1200 X-49.007 Y44.33 E96.29019
G0 F7200 X-48.441 Y44.33
G1 F1200 X-54.329 Y38.442 E96.70562
G0 F7200 X-54.329 Y37.876
G1 F1200 X-47.876 Y44.33 E97.16095
G0 F7200 X-47.31 Y44.33
G1 F1200 X-54.329 Y37.311 E97.65618
G0 F7200 X-54.329 Y36.745
G1 F1200 X-46.744 Y44.33 E98.19134
G0 F7200 X-46.179 Y44.33
G1 F1200 X-54.329 Y36.179 E98.7664
G0 F7200 X-54.329 Y35.614
G1 F1200 X-45.613 Y44.33 E99.38136
G0 F7200 X-45.047 Y44.33
G1 F1200 X-54.329 Y35.048 E100.03626
G0 F7200 X-54.329 Y34.482
G1 F1200 X-44.481 Y44.33 E100.73109
G0 F7200 X-43.916 Y44.33
G1 F1200 X-54.329 Y33.917 E101.46578
G0 F7200 X-54.329 Y33.351
G1 F1200 X-43.35 Y44.33 E102.24041
G0 F7200 X-42.784 Y44.33
G1 F1200 X-54.329 Y32.785 E103.05497
