;FLAVOR:Marlin
;TIME:5651
;Filament used: 7.24251m
;Layer height: 0.3
;MINX:-57.3
;MINY:-47.3
;MINZ:0.3
;MAXX:57.3
;MAXY:47.3
;MAXZ:4.8

;POSTPROCESSED
;Generated with Cura_SteamEngine 4.4.1
M140 S80
M105
M190 S80
M104 S240
M105
M109 S240
M82 ;absolute extrusion mode
M118 X60.00 Y50.00 Z5.00 T0
M140 S80 T0
M104 S240 T0
M104 S0 T1
M107
G90
G28
M132 X Y Z A B
G1 Z50.00 F400
G161 X Y F3300
M7 T0
M6 T0
M651
M907 X100 Y100 Z40 A100 B20
M108 T0
G1 X60.00 Y50.00 F6000
G92 E0
G92 E0
G1 F2700 E-10
;LAYER_COUNT:16

;LAYER:0
M107
G0 F7200 X53.498 Y47.3 Z0.3
;TYPE:SKIRT
G1 F2700 E0
G1 F1200 X-53.498 Y47.3 E5.33805
G1 X-53.734 Y47.284 E5.34985
G1 X-54.256 Y47.215 E5.37612
G1 X-54.711 Y47.093 E5.39962
G1 X-55.19 Y46.894 E5.4255
G1 X-55.594 Y46.661 E5.44877
G1 X-56.009 Y46.343 E5.47485
G1 X-56.342 Y46.009 E5.49838
G1 X-56.661 Y45.593 E5.52454
G1 X-56.896 Y45.187 E5.54794
G1 X-57.094 Y44.709 E5.57375
G1 X-57.215 Y44.257 E5.5971
G1 X-57.284 Y43.738 E5.62322
G1 X-57.3 Y43.501 E5.63507
G1 X-57.3 Y-43.498 E9.97547
G1 X-57.284 Y-43.734 E9.98727
G1 X-57.215 Y-44.256 E10.01354
G1 X-57.094 Y-44.709 E10.03693
G1 X-56.896 Y-45.187 E10.06274
G1 X-56.661 Y-45.593 E10.08615
G1 X-56.342 Y-46.009 E10.1123
G1 X-56.009 Y-46.343 E10.13583
G1 X-55.594 Y-46.661 E10.16192
G1 X-55.19 Y-46.894 E10.18518
G1 X-54.711 Y-47.093 E10.21106
G1 X-54.256 Y-47.215 E10.23456
G1 X-53.734 Y-47.284 E10.26083
G1 X-53.498 Y-47.3 E10.27263
G1 X53.498 Y-47.3 E15.61068
G1 X53.734 Y-47.284 E15.62249
G1 X54.256 Y-47.215 E15.64876
G1 X54.711 Y-47.093 E15.67226
G1 X55.19 Y-46.894 E15.69813
G1 X55.594 Y-46.661 E15.7214
G1 X56.009 Y-46.343 E15.74749
G1 X56.342 Y-46.009 E15.77102
G1 X56.661 Y-45.593 E15.79717
G1 X56.896 Y-45.187 E15.82057
G1 X57.094 Y-44.709 E15.84639
G1 X57.215 Y-44.257 E15.86973
G1 X57.284 Y-43.738 E15.89585
G1 X57.3 Y-43.501 E15.9077
G1 X57.3 Y43.498 E20.2481
G1 X57.284 Y43.734 E20.2599
G1 X57.215 Y44.256 E20.28617
G1 X57.094 Y44.709 E20.30956
G1 X56.896 Y45.187 E20.33538
G1 X56.661 Y45.593 E20.35878
G1 X56.342 Y46.009 E20.38493
G1 X56.009 Y46.343 E20.40846
G1 X55.594 Y46.661 E20.43455
G1 X55.19 Y46.894 E20.45782
G1 X54.711 Y47.093 E20.48369
G1 X54.256 Y47.215 E20.5072
G1 X53.734 Y47.284 E20.53346
G1 X53.498 Y47.3 E20.54527
G0 F7200 X53.498 Y46.9
G1 F1200 X-53.498 Y46.9 E25.88332
G1 X-53.681 Y46.888 E25.89247
G1 X-54.203 Y46.819 E25.91874
G1 X-54.557 Y46.724 E25.93702
G1 X-55.036 Y46.525 E25.9629
G1 X-55.351 Y46.343 E25.98105
G1 X-55.766 Y46.025 E26.00713
G1 X-56.025 Y45.766 E26.02541
G1 X-56.344 Y45.35 E26.05156
G1 X-56.526 Y45.034 E26.06975
G1 X-56.724 Y44.556 E26.09557
G1 X-56.819 Y44.205 E26.11371
G1 X-56.888 Y43.686 E26.13983
G1 X-56.9 Y43.501 E26.14908
G1 X-56.9 Y-43.498 E30.48948
G1 X-56.888 Y-43.681 E30.49863
G1 X-56.819 Y-44.203 E30.5249
G1 X-56.724 Y-44.556 E30.54313
G1 X-56.526 Y-45.034 E30.56895
G1 X-56.344 Y-45.35 E30.58714
G1 X-56.025 Y-45.766 E30.61329
G1 X-55.766 Y-46.025 E30.63157
G1 X-55.351 Y-46.343 E30.65765
G1 X-55.036 Y-46.525 E30.6758
G1 X-54.557 Y-46.724 E30.70168
G1 X-54.203 Y-46.819 E30.71996
G1 X-53.681 Y-46.888 E30.74623
G1 X-53.498 Y-46.9 E30.75538
G1 X53.498 Y-46.9 E36.09344
G1 X53.681 Y-46.888 E36.10258
G1 X54.203 Y-46.819 E36.12885
G1 X54.557 Y-46.724 E36.14714
G1 X55.036 Y-46.525 E36.17302
G1 X55.351 Y-46.343 E36.19117
G1 X55.766 Y-46.025 E36.21725
G1 X56.025 Y-45.766 E36.23553
G1 X56.344 Y-45.35 E36.26168
G1 X56.526 Y-45.034 E36.27987
G1 X56.724 Y-44.556 E36.30568
G1 X56.819 Y-44.205 E36.32383
G1 X56.888 Y-43.686 E36.34995
G1 X56.9 Y-43.501 E36.3592
G1 X56.9 Y43.498 E40.69959
G1 X56.888 Y43.681 E40.70874
G1 X56.819 Y44.203 E40.73501
G1 X56.724 Y44.556 E40.75325
G1 X56.526 Y45.034 E40.77906
G1 X56.344 Y45.35 E40.79726
G1 X56.025 Y45.766 E40.82341
G1 X55.766 Y46.025 E40.84168
G1 X55.351 Y46.343 E40.86777
G1 X55.036 Y46.525 E40.88592
G1 X54.557 Y46.724 E40.9118
G1 X54.203 Y46.819 E40.93008
G1 X53.681 Y46.888 E40.95635
G1 X53.498 Y46.9 E40.9655
G0 F7200 X53.498 Y46.5
G1 F1200 X-53.498 Y46.5 E46.30355
G1 X-53.629 Y46.491 E46.3101
G1 X-54.151 Y46.422 E46.33637
G1 X-54.404 Y46.354 E46.34944
G1 X-54.883 Y46.155 E46.37532
G1 X-55.107 Y46.026 E46.38822
G1 X-55.522 Y45.708 E46.4143
G1 X-55.708 Y45.523 E46.42739
G1 X-56.027 Y45.107 E46.45354
G1 X-56.157 Y44.881 E46.46655
G1 X-56.355 Y44.403 E46.49236
G1 X-56.422 Y44.152 E46.50532
G1 X-56.491 Y43.633 E46.53144
G1 X-56.5 Y43.501 E46.53805
G1 X-56.5 Y-43.498 E50.87844
G1 X-56.491 Y-43.629 E50.88499
G1 X-56.422 Y-44.151 E50.91126
G1 X-56.355 Y-44.403 E50.92427
G1 X-56.157 Y-44.881 E50.95008
G1 X-56.027 Y-45.107 E50.96309
G1 X-55.708 Y-45.523 E50.98925
G1 X-55.522 Y-45.708 E51.00233
G1 X-55.107 Y-46.026 E51.02842
G1 X-54.883 Y-46.155 E51.04131
G1 X-54.404 Y-46.354 E51.06719
G1 X-54.151 Y-46.422 E51.08026
G1 X-53.629 Y-46.491 E51.10653
G1 X-53.498 Y-46.5 E51.11308
G1 X53.498 Y-46.5 E56.45113
G1 X53.629 Y-46.491 E56.45769
G1 X54.151 Y-46.422 E56.48395
G1 X54.404 Y-46.354 E56.49703
G1 X54.883 Y-46.155 E56.5229
G1 X55.107 Y-46.026 E56.5358
G1 X55.522 Y-45.708 E56.56188
G1 X55.708 Y-45.523 E56.57497
G1 X56.027 Y-45.107 E56.60112
G1 X56.157 Y-44.881 E56.61413
G1 X56.355 Y-44.403 E56.63994
G1 X56.422 Y-44.152 E56.65291
G1 X56.491 Y-43.633 E56.67903
G1 X56.5 Y-43.501 E56.68563
G1 X56.5 Y43.498 E61.02603
G1 X56.491 Y43.629 E61.03258
G1 X56.422 Y44.151 E61.05885
G1 X56.355 Y44.403 E61.07185
G1 X56.157 Y44.881 E61.09767
G1 X56.027 Y45.107 E61.11067
G1 X55.708 Y45.523 E61.13683
G1 X55.522 Y45.708 E61.14992
G1 X55.107 Y46.026 E61.176
G1 X54.883 Y46.155 E61.1889
G1 X54.404 Y46.354 E61.21477
G1 X54.151 Y46.422 E61.22784
G1 X53.629 Y46.491 E61.25411
G1 X53.498 Y46.5 E61.26066
G0 F7200 X53.498 Y46.1
G1 F1200 X-53.498 Y46.1 E66.59872
G1 X-53.577 Y46.095 E66.60267
G1 X-54.099 Y46.026 E66.62894
G1 X-54.25 Y45.985 E66.63674
G1 X-54.729 Y45.786 E66.66262
G1 X-54.864 Y45.708 E66.6704
G1 X-55.279 Y45.39 E66.69648
G1 X-55.39 Y45.279 E66.70431
G1 X-55.709 Y44.863 E66.73047
G1 X-55.787 Y44.728 E66.73825
G1 X-55.985 Y44.25 E66.76406
G1 X-56.026 Y44.099 E66.77186
G1 X-56.095 Y43.58 E66.79799
G1 X-56.1 Y43.501 E66.80193
G1 X-56.1 Y-43.498 E71.14233
G1 X-56.095 Y-43.577 E71.14628
G1 X-56.026 Y-44.099 E71.17255
G1 X-55.985 Y-44.25 E71.18036
G1 X-55.787 Y-44.728 E71.20617
G1 X-55.709 Y-44.863 E71.21395
G1 X-55.39 Y-45.279 E71.2401
G1 X-55.279 Y-45.39 E71.24793
G1 X-54.864 Y-45.708 E71.27402
G1 X-54.729 Y-45.786 E71.2818
G1 X-54.25 Y-45.985 E71.30767
G1 X-54.099 Y-46.026 E71.31548
G1 X-53.577 Y-46.095 E71.34175
G1 X-53.498 Y-46.1 E71.3457
G1 X53.498 Y-46.1 E76.68375
G1 X53.577 Y-46.095 E76.6877
G1 X54.099 Y-46.026 E76.71397
G1 X54.25 Y-45.985 E76.72177
G1 X54.729 Y-45.786 E76.74765
G1 X54.864 Y-45.708 E76.75543
G1 X55.279 Y-45.39 E76.78152
G1 X55.39 Y-45.279 E76.78935
G1 X55.709 Y-44.863 E76.8155
G1 X55.787 Y-44.728 E76.82328
G1 X55.985 Y-44.25 E76.84909
G1 X56.026 Y-44.099 E76.8569
G1 X56.095 Y-43.58 E76.88302
G1 X56.1 Y-43.501 E76.88697
G1 X56.1 Y43.498 E81.22737
G1 X56.095 Y43.577 E81.23131
G1 X56.026 Y44.099 E81.25758
G1 X55.985 Y44.25 E81.26539
G1 X55.787 Y44.728 E81.2912
G1 X55.709 Y44.863 E81.29898
G1 X55.39 Y45.279 E81.32514
G1 X55.279 Y45.39 E81.33297
G1 X54.864 Y45.708 E81.35905
G1 X54.729 Y45.786 E81.36683
G1 X54.25 Y45.985 E81.39271
G1 X54.099 Y46.026 E81.40051
G1 X53.577 Y46.095 E81.42678
G1 X53.498 Y46.1 E81.43073
G0 F7200 X53.498 Y45.7
G1 F1200 X-53.498 Y45.7 E86.76878
G1 X-53.524 Y45.698 E86.77008
G1 X-54.046 Y45.629 E86.79635
G1 X-54.097 Y45.616 E86.79898
G1 X-54.576 Y45.417 E86.82486
G1 X-54.621 Y45.391 E86.82745
G1 X-55.036 Y45.073 E86.85353
G1 X-55.073 Y45.036 E86.85614
G1 X-55.392 Y44.62 E86.8823
G1 X-55.418 Y44.575 E86.88489
G1 X-55.616 Y44.097 E86.9107
G1 X-55.629 Y44.046 E86.91333
G1 X-55.698 Y43.527 E86.93945
G1 X-55.7 Y43.501 E86.94075
G1 X-55.7 Y-43.498 E91.28115
G1 X-55.698 Y-43.524 E91.28245
G1 X-55.629 Y-44.046 E91.30872
G1 X-55.616 Y-44.097 E91.31135
G1 X-55.418 Y-44.575 E91.33716
G1 X-55.392 Y-44.62 E91.33975
G1 X-55.073 Y-45.036 E91.3659
G1 X-55.036 Y-45.073 E91.36852
G1 X-54.621 Y-45.391 E91.3946
G1 X-54.576 Y-45.417 E91.39719
G1 X-54.097 Y-45.616 E91.42307
G1 X-54.046 Y-45.629 E91.4257
G1 X-53.524 Y-45.698 E91.45196
G1 X-53.498 Y-45.7 E91.45327
G1 X53.498 Y-45.7 E96.79132
G1 X53.524 Y-45.698 E96.79262
G1 X54.046 Y-45.629 E96.81889
G1 X54.097 Y-45.616 E96.82151
G1 X54.576 Y-45.417 E96.84739
G1 X54.621 Y-45.391 E96.84998
G1 X55.036 Y-45.073 E96.87607
G1 X55.073 Y-45.036 E96.87868
G1 X55.392 Y-44.62 E96.90483
G1 X55.418 Y-44.575 E96.90743
G1 X55.616 Y-44.097 E96.93324
G1 X55.629 Y-44.046 E96.93586
G1 X55.698 Y-43.527 E96.96198
G1 X55.7 Y-43.501 E96.96329
G1 X55.7 Y43.498 E101.30368
G1 X55.698 Y43.524 E101.30498
G1 X55.629 Y44.046 E101.33125
G1 X55.616 Y44.097 E101.33388
G1 X55.418 Y44.575 E101.35969
G1 X55.392 Y44.62 E101.36228
G1 X55.073 Y45.036 E101.38844
G1 X55.036 Y45.073 E101.39105
G1 X54.621 Y45.391 E101.41713
G1 X54.576 Y45.417 E101.41973
G1 X54.097 Y45.616 E101.4456
G1 X54.046 Y45.629 E101.44823
G1 X53.524 Y45.698 E101.4745
G1 X53.498 Y45.7 E101.4758
G1 F2700 E91.4758
;MESH:lid-01 v8.obj
G0 F7200 X53.448 Y44.69
G0 X54.364 Y44.364
G0 X54.729 Y43.45
G0 X54.729 Y-43.45
G0 X54.247 Y-44.796
G0 X54.399 Y-45.057
;TYPE:WALL-OUTER
G1 F2700 E101.4758
G1 F1200 X54.771 Y-44.771 E101.49921
G1 X55.057 Y-44.399 E101.52262
G1 X55.238 Y-43.963 E101.54617
G1 X55.3 Y-43.489 E101.57002
G1 X55.3 Y43.489 E105.90937
G1 X55.238 Y43.963 E105.93322
G1 X55.057 Y44.399 E105.95677
G1 X54.771 Y44.771 E105.98018
G1 X54.399 Y45.057 E106.00359
G1 X53.963 Y45.238 E106.02715
G1 X53.489 Y45.3 E106.05099
G1 X-53.489 Y45.3 E111.38815
G1 X-53.963 Y45.238 E111.412
G1 X-54.399 Y45.057 E111.43555
G1 X-54.771 Y44.771 E111.45896
G1 X-55.057 Y44.399 E111.48237
G1 X-55.238 Y43.963 E111.50592
G1 X-55.3 Y43.489 E111.52977
G1 X-55.3 Y-43.489 E115.86912
G1 X-55.238 Y-43.963 E115.89297
G1 X-55.057 Y-44.399 E115.91652
G1 X-54.771 Y-44.771 E115.93993
G1 X-54.399 Y-45.057 E115.96334
G1 X-53.963 Y-45.238 E115.9869
G1 X-53.489 Y-45.3 E116.01075
G1 X53.489 Y-45.3 E121.3479
G1 X53.963 Y-45.238 E121.37175
G1 X54.399 Y-45.057 E121.3953
G0 F7200 X54.557 Y-44.936
G0 X54.288 Y-44.588
G1 F2700 E111.3953
G0 F7200 X53.45 Y-44.729
G0 X-42.769 Y-44.69
G0 X-42.769 Y-46.165
G0 X-44.45 Y-38.985
G0 X-43.729 Y-40.264
G0 X-43.075 Y-39.144
G0 X-42.798 Y-38.28
G0 X-42.769 Y-37.448
G0 X-43.066 Y-37.483
G1 F2700 E121.3953
G1 F1200 X-43.001 Y-38.026 E121.42258
G1 X-43.076 Y-38.542 E121.4486
G1 X-43.282 Y-39.021 E121.47461
G1 X-43.604 Y-39.431 E121.50062
G1 X-44.022 Y-39.744 E121.52667
G1 X-44.507 Y-39.938 E121.55273
G1 X-45.026 Y-39.999 E121.57881
G1 X-45.542 Y-39.924 E121.60482
G1 X-46.021 Y-39.718 E121.63083
G1 X-46.431 Y-39.396 E121.65684
G1 X-46.744 Y-38.978 E121.6829
G1 X-46.938 Y-38.493 E121.70896
G1 X-46.999 Y-37.974 E121.73503
G1 X-46.924 Y-37.458 E121.76104
G1 X-46.718 Y-36.979 E121.78705
G1 X-46.396 Y-36.569 E121.81306
G1 X-45.978 Y-36.256 E121.83912
G1 X-45.493 Y-36.062 E121.86518
G1 X-44.974 Y-36.001 E121.89125
G1 X-44.458 Y-36.076 E121.91726
G1 X-43.979 Y-36.282 E121.94328
G1 X-43.569 Y-36.604 E121.96929
G1 X-43.257 Y-37.021 E121.99527
G1 X-43.066 Y-37.483 E122.02021
G0 F7200 X-43.043 Y-37.681
G0 X-42.675 Y-37.381
;TYPE:WALL-INNER
G1 F1200 X-42.598 Y-38.031 E122.05286
G1 X-42.688 Y-38.652 E122.08417
G1 X-42.935 Y-39.227 E122.11539
G1 X-43.322 Y-39.72 E122.14666
G1 X-43.824 Y-40.096 E122.17795
G1 X-44.408 Y-40.329 E122.20932
G1 X-45.032 Y-40.402 E122.24066
G1 X-45.652 Y-40.312 E122.27192
G1 X-46.227 Y-40.065 E122.30314
G1 X-46.72 Y-39.678 E122.33441
G1 X-47.096 Y-39.176 E122.3657
G1 X-47.329 Y-38.592 E122.39707
G1 X-47.402 Y-37.968 E122.42842
G1 X-47.312 Y-37.348 E122.45967
G1 X-47.065 Y-36.773 E122.49089
G1 X-46.678 Y-36.28 E122.52216
G1 X-46.176 Y-35.904 E122.55345
G1 X-45.592 Y-35.671 E122.58482
G1 X-44.968 Y-35.598 E122.61617
G1 X-44.348 Y-35.688 E122.64742
G1 X-43.773 Y-35.935 E122.67864
G1 X-43.28 Y-36.322 E122.70991
G1 X-42.907 Y-36.822 E122.74103
G1 X-42.675 Y-37.381 E122.77123
G1 F2700 E112.77123
G0 F7200 X-43.675 Y-35.77
G0 X-44.423 Y-37.031
G0 X-10.014 Y36.873
G0 X-10.035 Y35.405
G0 X-8.904 Y36.046
G0 X-8.075 Y36.856
G0 X-7.798 Y37.72
G0 X-7.769 Y38.552
G0 X-8.066 Y38.517
;TYPE:WALL-OUTER
G1 F2700 E122.77123
G1 F1200 X-8.001 Y37.974 E122.79851
G1 X-8.076 Y37.458 E122.82453
G1 X-8.282 Y36.979 E122.85054
G1 X-8.604 Y36.569 E122.87655
G1 X-9.022 Y36.256 E122.9026
G1 X-9.507 Y36.062 E122.92866
G1 X-10.026 Y36.001 E122.95473
G1 X-10.542 Y36.076 E122.98075
G1 X-11.021 Y36.282 E123.00676
G1 X-11.431 Y36.604 E123.03277
G1 X-11.744 Y37.022 E123.05882
G1 X-11.938 Y37.507 E123.08488
G1 X-11.999 Y38.026 E123.11096
G1 X-11.924 Y38.542 E123.13697
G1 X-11.718 Y39.021 E123.16298
G1 X-11.396 Y39.431 E123.18899
G1 X-10.978 Y39.744 E123.21505
G1 X-10.493 Y39.938 E123.24111
G1 X-9.974 Y39.999 E123.26718
G1 X-9.458 Y39.924 E123.29319
G1 X-8.979 Y39.718 E123.3192
G1 X-8.569 Y39.396 E123.34521
G1 X-8.257 Y38.979 E123.3712
G1 X-8.066 Y38.517 E123.39614
G0 F7200 X-8.043 Y38.319
G0 X-7.675 Y38.619
;TYPE:WALL-INNER
G1 F1200 X-7.598 Y37.969 E123.42879
G1 X-7.688 Y37.348 E123.4601
G1 X-7.935 Y36.773 E123.49132
G1 X-8.322 Y36.28 E123.52259
G1 X-8.824 Y35.904 E123.55388
G1 X-9.408 Y35.671 E123.58525
G1 X-10.032 Y35.598 E123.61659
G1 X-10.652 Y35.688 E123.64785
G1 X-11.227 Y35.935 E123.67907
G1 X-11.72 Y36.322 E123.71034
G1 X-12.096 Y36.824 E123.74163
G1 X-12.329 Y37.408 E123.773
G1 X-12.402 Y38.032 E123.80434
G1 X-12.312 Y38.652 E123.8356
G1 X-12.065 Y39.227 E123.86682
G1 X-11.678 Y39.72 E123.89809
G1 X-11.176 Y40.096 E123.92938
G1 X-10.592 Y40.329 E123.96075
G1 X-9.968 Y40.402 E123.99209
G1 X-9.348 Y40.312 E124.02335
G1 X-8.773 Y40.065 E124.05457
G1 X-8.28 Y39.678 E124.08584
G1 X-7.907 Y39.178 E124.11696
G1 X-7.675 Y38.619 E124.14716
G1 F2700 E114.14716
G0 F7200 X-7.503 Y37.296
G0 X-8.915 Y37.692
G0 X2.837 Y24.517
G0 X1.402 Y24.517
G0 X1.672 Y26.044
G0 X1.972 Y26.044
;TYPE:WALL-OUTER
G1 F2700 E124.14716
G1 F1200 X37.689 Y26.044 E125.92909
G1 X37.689 Y-23.398 E128.39576
G1 X1.972 Y-23.398 E130.17769
G1 X1.972 Y26.044 E132.64436
G0 F7200 X2.172 Y26.044
G0 X1.572 Y26.444
;TYPE:WALL-INNER
G1 F1200 X38.089 Y26.444 E134.4662
G1 X38.089 Y-23.798 E136.97278
G1 X1.572 Y-23.798 E138.79462
G1 X1.572 Y26.444 E141.30121
G1 F2700 E131.30121
G0 F7200 X37.917 Y26.272
G0 X38.279 Y-2.448
G0 X36.824 Y-2.448
G0 X46.873 Y-2.986
G0 X45.405 Y-2.965
G0 X46.075 Y-1.856
G0 X46.904 Y-1.046
G0 X48.029 Y-.76
G0 X49.144 Y-1.075
G0 X49.8 Y-1.699
G0 X50.231 Y-2.448
G0 X49.934 Y-2.483
;TYPE:WALL-OUTER
G1 F2700 E141.30121
G1 F1200 X49.999 Y-3.026 E141.32849
G1 X49.924 Y-3.542 E141.3545
G1 X49.718 Y-4.021 E141.38052
G1 X49.396 Y-4.431 E141.40653
G1 X48.978 Y-4.744 E141.43258
G1 X48.493 Y-4.938 E141.45864
G1 X47.974 Y-4.999 E141.48471
G1 X47.458 Y-4.924 E141.51072
G1 X46.979 Y-4.718 E141.53674
G1 X46.569 Y-4.396 E141.56275
G1 X46.256 Y-3.978 E141.5888
G1 X46.062 Y-3.493 E141.61486
G1 X46.001 Y-2.974 E141.64093
G1 X46.076 Y-2.458 E141.66695
G1 X46.282 Y-1.979 E141.69296
G1 X46.604 Y-1.569 E141.71897
G1 X47.022 Y-1.256 E141.74502
G1 X47.507 Y-1.062 E141.77108
G1 X48.026 Y-1.001 E141.79715
G1 X48.542 Y-1.076 E141.82317
G1 X49.021 Y-1.282 E141.84918
G1 X49.431 Y-1.604 E141.87519
G1 X49.743 Y-2.021 E141.90117
G1 X49.934 Y-2.483 E141.92611
G0 F7200 X49.957 Y-2.681
G0 X50.325 Y-2.381
;TYPE:WALL-INNER
G1 F1200 X50.402 Y-3.031 E141.95877
G1 X50.312 Y-3.652 E141.99008
G1 X50.065 Y-4.227 E142.0213
G1 X49.678 Y-4.72 E142.05257
G1 X49.176 Y-5.096 E142.08386
G1 X48.592 Y-5.329 E142.11523
G1 X47.968 Y-5.402 E142.14657
G1 X47.348 Y-5.312 E142.17783
G1 X46.773 Y-5.065 E142.20905
G1 X46.28 Y-4.678 E142.24032
G1 X45.904 Y-4.176 E142.27161
G1 X45.671 Y-3.592 E142.30298
G1 X45.598 Y-2.968 E142.33432
G1 X45.688 Y-2.348 E142.36558
G1 X45.935 Y-1.773 E142.3968
G1 X46.322 Y-1.28 E142.42807
G1 X46.824 Y-.904 E142.45936
G1 X47.408 Y-.671 E142.49073
G1 X48.032 Y-.598 E142.52207
G1 X48.652 Y-.688 E142.55333
G1 X49.227 Y-.935 E142.58455
G1 X49.72 Y-1.322 E142.61582
G1 X50.093 Y-1.822 E142.64694
G1 X50.325 Y-2.381 E142.67713
G1 F2700 E132.67713
G0 F7200 X50.156 Y-3.607
G0 X49.564 Y-4.603
G0 X48.552 Y-5.172
