;FLAVOR:Marlin
;TIME:6885
;Filament used: 6.40788m
;Layer height: 0.25
;MINX:-59.7
;MINY:-49.7
;MINZ:0.25
;MAXX:59.7
;MAXY:49.7
;MAXZ:5

;POSTPROCESSED
;Generated with Cura_SteamEngine 4.4.1
M140 S90
M105
M190 S90
M104 S250
M105
M109 S250
M82 ;absolute extrusion mode
M118 X60.00 Y50.00 Z5.00 T0
M140 S90 T0
M104 S250 T0
M104 S0 T1
M107
G90
G28
M132 X Y Z A B
G1 Z50.00 F400
G161 X Y F3300
M7 T0
M6 T0
M651
M907 X100 Y100 Z40 A100 B20
M108 T0
G1 X60.00 Y50.00 F6000
G92 E0
G92 E0
G1 F1800 E-4.5
;LAYER_COUNT:20

;LAYER:0
M107
G0 F6000 X-52.793 Y49.7 Z0.25
;TYPE:SKIRT
G1 F1800 E0
G1 F1200 X-52.853 Y49.7 E0.00212
G1 X-53.55 Y49.69 E0.02675
G1 X-54.029 Y49.655 E0.04373
G1 X-54.524 Y49.591 E0.06136
G1 X-55.092 Y49.478 E0.08183
G1 X-55.515 Y49.337 E0.09759
G1 X-55.929 Y49.175 E0.1133
G1 X-56.453 Y48.927 E0.13379
G1 X-56.781 Y48.723 E0.14744
G1 X-57.208 Y48.429 E0.16576
G1 X-57.661 Y48.069 E0.1862
G1 X-58.012 Y47.707 E0.20402
G1 X-58.341 Y47.324 E0.22187
G1 X-58.687 Y46.859 E0.24235
G1 X-58.936 Y46.416 E0.26031
G1 X-59.161 Y45.951 E0.27856
G1 X-59.376 Y45.414 E0.299
G1 X-59.509 Y44.892 E0.31804
G1 X-59.609 Y44.356 E0.33731
G1 X-59.674 Y43.808 E0.35681
G1 X-59.693 Y43.449 E0.36951
G1 X-59.699 Y43.227 E0.37736
G1 X-59.7 Y-42.793 E3.41721
G1 X-59.7 Y-42.853 E3.41933
G1 X-59.69 Y-43.551 E3.444
G1 X-59.656 Y-44.024 E3.46076
G1 X-59.593 Y-44.516 E3.47829
G1 X-59.48 Y-45.085 E3.49879
G1 X-59.336 Y-45.519 E3.51495
G1 X-59.169 Y-45.944 E3.53109
G1 X-58.92 Y-46.467 E3.55156
G1 X-58.711 Y-46.802 E3.56551
G1 X-58.421 Y-47.22 E3.58349
G1 X-58.059 Y-47.672 E3.60395
G1 X-57.716 Y-48.004 E3.62082
G1 X-57.348 Y-48.322 E3.63801
G1 X-56.885 Y-48.67 E3.65848
G1 X-56.455 Y-48.913 E3.67593
G1 X-55.975 Y-49.149 E3.69484
G1 X-55.439 Y-49.368 E3.7153
G1 X-54.892 Y-49.509 E3.73526
G1 X-54.356 Y-49.609 E3.75453
G1 X-53.818 Y-49.674 E3.77368
G1 X-53.475 Y-49.693 E3.78582
G1 X-53.243 Y-49.699 E3.79402
G1 X52.793 Y-49.7 E7.54121
G1 X52.853 Y-49.7 E7.54333
G1 X53.551 Y-49.69 E7.568
G1 X54.031 Y-49.655 E7.58501
G1 X54.525 Y-49.591 E7.60261
G1 X55.093 Y-49.477 E7.62309
G1 X55.515 Y-49.337 E7.6388
G1 X55.929 Y-49.175 E7.65451
G1 X56.453 Y-48.927 E7.675
G1 X56.781 Y-48.723 E7.68865
G1 X57.208 Y-48.429 E7.70697
G1 X57.661 Y-48.069 E7.72742
G1 X58.004 Y-47.716 E7.74481
G1 X58.322 Y-47.348 E7.762
G1 X58.67 Y-46.885 E7.78247
G1 X58.913 Y-46.455 E7.79992
G1 X59.149 Y-45.975 E7.81882
G1 X59.368 Y-45.439 E7.83928
G1 X59.509 Y-44.892 E7.85925
G1 X59.609 Y-44.356 E7.87851
G1 X59.674 Y-43.818 E7.89766
G1 X59.693 Y-43.475 E7.9098
G1 X59.699 Y-43.243 E7.91801
G1 X59.7 Y42.793 E10.95842
G1 X59.7 Y42.853 E10.96054
G1 X59.69 Y43.55 E10.98518
G1 X59.656 Y44.022 E11.0019
G1 X59.593 Y44.515 E11.01946
G1 X59.48 Y45.084 E11.03996
G1 X59.338 Y45.515 E11.056
G1 X59.175 Y45.931 E11.07179
G1 X58.926 Y46.455 E11.09229
G1 X58.723 Y46.781 E11.10586
G1 X58.429 Y47.208 E11.12418
G1 X58.069 Y47.661 E11.14463
G1 X57.716 Y48.004 E11.16203
G1 X57.348 Y48.322 E11.17921
G1 X56.885 Y48.67 E11.19968
G1 X56.455 Y48.913 E11.21714
G1 X55.981 Y49.146 E11.2358
G1 X55.445 Y49.365 E11.25626
G1 X54.912 Y49.503 E11.27572
G1 X54.37 Y49.606 E11.29522
G1 X53.818 Y49.674 E11.31487
G1 X53.475 Y49.693 E11.32701
G1 X53.243 Y49.699 E11.33521
G1 X-52.793 Y49.7 E15.08241
G1 F1800 E10.58241
;MESH:lid-00 v2.obj
G0 F6000 X-44.428 Y-37.028
G0 X-43.679 Y-35.767
G0 X-42.675 Y-37.38
;TYPE:WALL-INNER
G1 F1800 E15.08241
G1 F1200 X-42.598 Y-38.025 E15.10536
G1 X-42.685 Y-38.646 E15.12752
G1 X-42.932 Y-39.223 E15.1497
G1 X-43.319 Y-39.717 E15.17188
G1 X-43.821 Y-40.093 E15.19404
G1 X-44.403 Y-40.328 E15.21622
G1 X-45.025 Y-40.402 E15.23836
G1 X-45.646 Y-40.315 E15.26052
G1 X-46.223 Y-40.068 E15.2827
G1 X-46.717 Y-39.681 E15.30488
G1 X-47.093 Y-39.179 E15.32704
G1 X-47.328 Y-38.597 E15.34922
G1 X-47.402 Y-37.975 E15.37136
G1 X-47.315 Y-37.354 E15.39352
G1 X-47.068 Y-36.777 E15.4157
G1 X-46.681 Y-36.283 E15.43787
G1 X-46.179 Y-35.907 E15.46004
G1 X-45.597 Y-35.672 E15.48222
G1 X-44.975 Y-35.598 E15.50435
G1 X-44.354 Y-35.685 E15.52651
G1 X-43.777 Y-35.932 E15.54869
G1 X-43.283 Y-36.319 E15.57087
G1 X-42.909 Y-36.818 E15.59291
G1 X-42.675 Y-37.38 E15.61442
G0 F6000 X-43.066 Y-37.483
;TYPE:WALL-OUTER
G1 F1200 X-43.001 Y-38.021 E15.63357
G1 X-43.074 Y-38.538 E15.65202
G1 X-43.279 Y-39.018 E15.67047
G1 X-43.601 Y-39.429 E15.68892
G1 X-44.019 Y-39.742 E15.70737
G1 X-44.503 Y-39.937 E15.72581
G1 X-45.021 Y-39.999 E15.74425
G1 X-45.538 Y-39.926 E15.7627
G1 X-46.018 Y-39.721 E15.78115
G1 X-46.429 Y-39.399 E15.7996
G1 X-46.742 Y-38.981 E15.81805
G1 X-46.937 Y-38.497 E15.83649
G1 X-46.999 Y-37.979 E15.85493
G1 X-46.926 Y-37.462 E15.87338
G1 X-46.721 Y-36.982 E15.89182
G1 X-46.399 Y-36.571 E15.91027
G1 X-45.981 Y-36.258 E15.92873
G1 X-45.497 Y-36.063 E15.94717
G1 X-44.979 Y-36.001 E15.9656
G1 X-44.462 Y-36.074 E15.98406
G1 X-43.982 Y-36.279 E16.0025
G1 X-43.571 Y-36.601 E16.02095
G1 X-43.259 Y-37.018 E16.03936
G1 X-43.066 Y-37.483 E16.05715
G0 F6000 X-43.042 Y-37.681
G0 X-42.606 Y-37.628
G1 F1800 E11.55715
G0 F6000 X-42.742 Y-36.722
G0 X-44.015 Y-37.45
G0 X-10.013 Y36.872
G0 X-10.027 Y35.405
G0 X-8.901 Y36.048
G0 X-8.071 Y36.859
G0 X-7.675 Y38.62
;TYPE:WALL-INNER
G1 F1800 E16.05715
G1 F1200 X-7.598 Y37.975 E16.0801
G1 X-7.685 Y37.354 E16.10226
G1 X-7.932 Y36.777 E16.12444
G1 X-8.319 Y36.283 E16.14662
G1 X-8.821 Y35.907 E16.16878
G1 X-9.403 Y35.672 E16.19097
G1 X-10.025 Y35.598 E16.2131
G1 X-10.646 Y35.685 E16.23526
G1 X-11.223 Y35.932 E16.25744
G1 X-11.717 Y36.319 E16.27962
G1 X-12.093 Y36.821 E16.30178
G1 X-12.328 Y37.403 E16.32396
G1 X-12.402 Y38.025 E16.3461
G1 X-12.315 Y38.646 E16.36826
G1 X-12.068 Y39.223 E16.39044
G1 X-11.681 Y39.717 E16.41262
G1 X-11.179 Y40.093 E16.43478
G1 X-10.597 Y40.328 E16.45696
G1 X-9.975 Y40.402 E16.4791
G1 X-9.354 Y40.315 E16.50126
G1 X-8.777 Y40.068 E16.52344
G1 X-8.283 Y39.681 E16.54561
G1 X-7.909 Y39.182 E16.56765
G1 X-7.675 Y38.62 E16.58916
G0 F6000 X-8.066 Y38.517
;TYPE:WALL-OUTER
G1 F1200 X-8.001 Y37.979 E16.60831
G1 X-8.074 Y37.462 E16.62677
G1 X-8.279 Y36.982 E16.64521
G1 X-8.601 Y36.571 E16.66366
G1 X-9.019 Y36.258 E16.68212
G1 X-9.503 Y36.063 E16.70056
G1 X-10.021 Y36.001 E16.71899
G1 X-10.538 Y36.074 E16.73744
G1 X-11.018 Y36.279 E16.75589
G1 X-11.429 Y36.601 E16.77434
G1 X-11.742 Y37.019 E16.79279
G1 X-11.937 Y37.503 E16.81123
G1 X-11.999 Y38.021 E16.82967
G1 X-11.926 Y38.538 E16.84812
G1 X-11.721 Y39.018 E16.86657
G1 X-11.399 Y39.429 E16.88502
G1 X-10.981 Y39.742 E16.90347
G1 X-10.497 Y39.937 E16.92191
G1 X-9.979 Y39.999 E16.94035
G1 X-9.462 Y39.926 E16.9588
G1 X-8.982 Y39.721 E16.97724
G1 X-8.571 Y39.399 E16.99569
G1 X-8.259 Y38.982 E17.0141
G1 X-8.066 Y38.517 E17.03189
G0 F6000 X-8.042 Y38.319
G0 X-7.606 Y38.372
G1 F1800 E12.53189
G0 F6000 X-7.5 Y37.302
G0 X-8.914 Y37.695
G0 X47.211 Y-2.193
G0 X46.184 Y-1.146
G0 X47.444 Y-.83
G0 X48.602 Y-.842
G0 X49.513 Y-1.363
G0 X50.325 Y-2.38
;TYPE:WALL-INNER
G1 F1800 E17.03189
G1 F1200 X50.402 Y-3.025 E17.05485
G1 X50.315 Y-3.646 E17.07701
G1 X50.068 Y-4.223 E17.09919
G1 X49.681 Y-4.717 E17.12136
G1 X49.179 Y-5.093 E17.14353
G1 X48.597 Y-5.328 E17.16571
G1 X47.975 Y-5.402 E17.18784
G1 X47.354 Y-5.315 E17.21
G1 X46.777 Y-5.068 E17.23218
G1 X46.283 Y-4.681 E17.25436
G1 X45.907 Y-4.179 E17.27652
G1 X45.672 Y-3.597 E17.2987
G1 X45.598 Y-2.975 E17.32084
G1 X45.685 Y-2.354 E17.343
G1 X45.932 Y-1.777 E17.36518
G1 X46.319 Y-1.283 E17.38736
G1 X46.821 Y-.907 E17.40952
G1 X47.403 Y-.672 E17.4317
G1 X48.025 Y-.598 E17.45384
G1 X48.646 Y-.685 E17.476
G1 X49.223 Y-.932 E17.49818
G1 X49.717 Y-1.319 E17.52035
G1 X50.091 Y-1.818 E17.54239
G1 X50.325 Y-2.38 E17.56391
G0 F6000 X49.934 Y-2.483
;TYPE:WALL-OUTER
G1 F1200 X49.999 Y-3.021 E17.58306
G1 X49.926 Y-3.538 E17.60151
G1 X49.721 Y-4.018 E17.61995
G1 X49.399 Y-4.429 E17.6384
G1 X48.981 Y-4.742 E17.65686
G1 X48.497 Y-4.937 E17.6753
G1 X47.979 Y-4.999 E17.69373
G1 X47.462 Y-4.926 E17.71218
G1 X46.982 Y-4.721 E17.73063
G1 X46.571 Y-4.399 E17.74908
G1 X46.258 Y-3.981 E17.76753
G1 X46.063 Y-3.497 E17.78597
G1 X46.001 Y-2.979 E17.80441
G1 X46.074 Y-2.462 E17.82286
G1 X46.279 Y-1.982 E17.84131
G1 X46.601 Y-1.571 E17.85976
G1 X47.019 Y-1.258 E17.87821
G1 X47.503 Y-1.063 E17.89665
G1 X48.021 Y-1.001 E17.91509
G1 X48.538 Y-1.074 E17.93354
G1 X49.018 Y-1.279 E17.95198
G1 X49.429 Y-1.601 E17.97044
G1 X49.741 Y-2.018 E17.98884
G1 X49.934 Y-2.483 E18.00663
G0 F6000 X49.958 Y-2.681
G0 X50.394 Y-2.628
G1 F1800 E13.50663
G0 F6000 X50.158 Y-3.602
G0 X49.567 Y-4.601
G0 X48.556 Y-5.17
G0 X46.679 Y-5.233
G0 X47.428 Y-3.972
G0 X15.985 Y-37.45
G0 X17.258 Y-36.722
G0 X17.325 Y-37.38
;TYPE:WALL-INNER
G1 F1800 E18.00663
G1 F1200 X17.402 Y-38.025 E18.02959
G1 X17.315 Y-38.646 E18.05175
G1 X17.068 Y-39.223 E18.07393
G1 X16.681 Y-39.717 E18.0961
G1 X16.179 Y-40.093 E18.11827
G1 X15.597 Y-40.328 E18.14045
G1 X14.975 Y-40.402 E18.16259
G1 X14.354 Y-40.315 E18.18474
G1 X13.777 Y-40.068 E18.20693
G1 X13.283 Y-39.681 E18.2291
G1 X12.907 Y-39.179 E18.25127
G1 X12.672 Y-38.597 E18.27345
G1 X12.598 Y-37.975 E18.29558
G1 X12.685 Y-37.354 E18.31774
G1 X12.932 Y-36.777 E18.33992
G1 X13.319 Y-36.283 E18.3621
G1 X13.821 Y-35.907 E18.38426
G1 X14.403 Y-35.672 E18.40644
G1 X15.025 Y-35.598 E18.42858
G1 X15.646 Y-35.685 E18.45074
G1 X16.223 Y-35.932 E18.47292
G1 X16.717 Y-36.319 E18.4951
G1 X17.091 Y-36.818 E18.51713
G1 X17.325 Y-37.38 E18.53865
G0 F6000 X16.934 Y-37.483
;TYPE:WALL-OUTER
G1 F1200 X16.999 Y-38.021 E18.5578
G1 X16.926 Y-38.538 E18.57625
G1 X16.721 Y-39.018 E18.59469
G1 X16.399 Y-39.429 E18.61315
G1 X15.981 Y-39.742 E18.6316
G1 X15.497 Y-39.937 E18.65004
G1 X14.979 Y-39.999 E18.66848
G1 X14.462 Y-39.926 E18.68693
G1 X13.982 Y-39.721 E18.70537
G1 X13.571 Y-39.399 E18.72382
G1 X13.258 Y-38.981 E18.74228
G1 X13.063 Y-38.497 E18.76072
G1 X13.001 Y-37.979 E18.77915
G1 X13.074 Y-37.462 E18.7976
G1 X13.279 Y-36.982 E18.81605
G1 X13.601 Y-36.571 E18.8345
G1 X14.019 Y-36.258 E18.85295
G1 X14.503 Y-36.063 E18.87139
G1 X15.021 Y-36.001 E18.88983
G1 X15.538 Y-36.074 E18.90828
G1 X16.018 Y-36.279 E18.92673
G1 X16.429 Y-36.601 E18.94518
G1 X16.741 Y-37.018 E18.96358
G1 X16.934 Y-37.483 E18.98137
G0 F6000 X16.958 Y-37.681
G0 X17.394 Y-37.628
G1 F1800 E14.48137
G0 F6000 X17.5 Y-38.698
G0 X16.086 Y-38.305
G0 X17.5 Y-46.165
G0 X17.5 Y-44.69
G0 X54.195 Y-44.709
;TYPE:WALL-INNER
G1 F1800 E18.98137
G1 F1200 X54.486 Y-44.486 E18.99433
G1 X54.709 Y-44.195 E19.00729
G1 X54.847 Y-43.862 E19.02002
G1 X54.9 Y-43.46 E19.03435
G1 X54.9 Y43.46 E22.10601
G1 X54.847 Y43.862 E22.12034
G1 X54.709 Y44.195 E22.13308
G1 X54.486 Y44.486 E22.14603
G1 X54.195 Y44.709 E22.15899
G1 X53.862 Y44.847 E22.17173
G1 X53.46 Y44.9 E22.18606
G1 X-53.46 Y44.9 E25.96449
G1 X-53.862 Y44.847 E25.97882
G1 X-54.195 Y44.709 E25.99156
G1 X-54.486 Y44.486 E26.00452
G1 X-54.709 Y44.195 E26.01747
G1 X-54.847 Y43.862 E26.03021
G1 X-54.9 Y43.46 E26.04454
G1 X-54.9 Y-43.46 E29.1162
G1 X-54.847 Y-43.862 E29.13052
G1 X-54.709 Y-44.195 E29.14326
G1 X-54.486 Y-44.486 E29.15622
G1 X-54.195 Y-44.709 E29.16917
G1 X-53.862 Y-44.847 E29.18191
G1 X-53.46 Y-44.9 E29.19624
G1 X53.46 Y-44.9 E32.97468
G1 X53.862 Y-44.847 E32.98901
G1 X54.195 Y-44.709 E33.00174
G0 F6000 X54.399 Y-45.057
;TYPE:WALL-OUTER
G1 F1200 X54.771 Y-44.771 E33.01833
G1 X55.057 Y-44.399 E33.03491
G1 X55.238 Y-43.963 E33.05159
G1 X55.3 Y-43.489 E33.06848
G1 X55.3 Y43.489 E36.14219
G1 X55.238 Y43.963 E36.15908
G1 X55.057 Y44.399 E36.17577
G1 X54.771 Y44.771 E36.19235
G1 X54.399 Y45.057 E36.20893
G1 X53.963 Y45.238 E36.22561
G1 X53.489 Y45.3 E36.24251
G1 X-53.489 Y45.3 E40.02299
G1 X-53.963 Y45.238 E40.03988
G1 X-54.399 Y45.057 E40.05657
G1 X-54.771 Y44.771 E40.07315
G1 X-55.057 Y44.399 E40.08973
G1 X-55.238 Y43.963 E40.10641
G1 X-55.3 Y43.489 E40.12331
G1 X-55.3 Y-43.489 E43.19701
G1 X-55.238 Y-43.963 E43.21391
G1 X-55.057 Y-44.399 E43.23059
G1 X-54.771 Y-44.771 E43.24717
G1 X-54.399 Y-45.057 E43.26375
G1 X-53.963 Y-45.238 E43.28044
G1 X-53.489 Y-45.3 E43.29733
G1 X53.489 Y-45.3 E47.07781
G1 X53.963 Y-45.238 E47.09471
G1 X54.399 Y-45.057 E47.11139
G0 F6000 X54.557 Y-44.936
G0 X54.288 Y-44.588
G0 X53.998 Y-44.367
;TYPE:SKIN
G1 F1200 X54.207 Y-44.207 E47.12069
G1 X54.367 Y-43.998 E47.12999
G1 X54.469 Y-43.754 E47.13934
G1 X54.51 Y-43.439 E47.15057
G1 X54.51 Y43.439 E50.22074
G1 X54.469 Y43.754 E50.23196
G1 X54.367 Y43.998 E50.24131
G1 X54.207 Y44.207 E50.25061
G1 X53.998 Y44.367 E50.25991
G1 X53.754 Y44.469 E50.26926
G1 X53.439 Y44.51 E50.28048
G1 X-53.439 Y44.51 E54.05743
G1 X-53.754 Y44.469 E54.06866
G1 X-53.998 Y44.367 E54.07801
G1 X-54.207 Y44.207 E54.08731
G1 X-54.367 Y43.998 E54.09661
G1 X-54.469 Y43.754 E54.10595
G1 X-54.51 Y43.439 E54.11718
G1 X-54.51 Y-43.439 E57.18735
G1 X-54.469 Y-43.754 E57.19858
G1 X-54.367 Y-43.998 E57.20792
G1 X-54.207 Y-44.207 E57.21723
G1 X-53.998 Y-44.367 E57.22653
G1 X-53.754 Y-44.469 E57.23587
G1 X-53.439 Y-44.51 E57.2471
G1 X53.439 Y-44.51 E61.02405
G1 X53.754 Y-44.469 E61.03527
G1 X53.998 Y-44.367 E61.04462
G1 F1800 E56.54462
G0 F6000 X54.171 Y-44.588
G0 X17.421 Y-44.69
G0 X17.421 Y-46.165
G0 X15.551 Y-38.984
G0 X16.274 Y-40.26
G0 X17.421 Y-38.678
G0 X17.694 Y-38.751
G1 F1800 E61.04462
G1 F1200 X17.407 Y-39.424 E61.07048
G1 X16.956 Y-39.998 E61.09627
G1 X16.372 Y-40.436 E61.12207
G1 X15.695 Y-40.709 E61.14787
G1 X14.971 Y-40.796 E61.17364
G1 X14.249 Y-40.694 E61.1994
G1 X13.576 Y-40.407 E61.22526
G1 X13.002 Y-39.956 E61.25106
G1 X12.564 Y-39.372 E61.27685
G1 X12.291 Y-38.695 E61.30265
G1 X12.204 Y-37.971 E61.32842
G1 X12.306 Y-37.249 E61.35419
G1 X12.593 Y-36.576 E61.38004
G1 X13.044 Y-36.002 E61.40584
G1 X13.628 Y-35.564 E61.43164
G1 X14.305 Y-35.291 E61.45743
G1 X15.029 Y-35.204 E61.4832
G1 X15.751 Y-35.306 E61.50897
G1 X16.424 Y-35.593 E61.53483
G1 X16.998 Y-36.044 E61.56062
G1 X17.432 Y-36.623 E61.58619
G1 X17.706 Y-37.28 E61.61135
G1 X17.796 Y-38.029 E61.63801
G1 X17.694 Y-38.751 E61.66378
G1 F1800 E57.16378
G0 F6000 X17.421 Y-38.678
G0 X17.511 Y-37.331
G0 X16.09 Y-37.702
G0 X47.695 Y-4.086
G0 X47.302 Y-5.5
G0 X48.625 Y-5.436
G0 X48.695 Y-5.709
G1 F1800 E61.66378
G1 F1200 X47.971 Y-5.796 E61.68955
G1 X47.249 Y-5.694 E61.71531
G1 X46.576 Y-5.407 E61.74117
G1 X46.002 Y-4.956 E61.76697
G1 X45.564 Y-4.372 E61.79276
G1 X45.291 Y-3.695 E61.81856
G1 X45.204 Y-2.971 E61.84433
G1 X45.306 Y-2.249 E61.8701
G1 X45.593 Y-1.576 E61.89595
G1 X46.044 Y-1.002 E61.92175
G1 X46.628 Y-.564 E61.94755
G1 X47.305 Y-.291 E61.97334
G1 X48.029 Y-.204 E61.99911
G1 X48.751 Y-.306 E62.02488
G1 X49.424 Y-.593 E62.05074
G1 X49.998 Y-1.044 E62.07653
G1 X50.432 Y-1.623 E62.10211
G1 X50.706 Y-2.28 E62.12726
G1 X50.796 Y-3.029 E62.15392
G1 X50.694 Y-3.751 E62.17969
G1 X50.407 Y-4.424 E62.20554
G1 X49.956 Y-4.998 E62.23134
G1 X49.372 Y-5.436 E62.25714
G1 X48.695 Y-5.709 E62.28293
G1 F1800 E57.78293
G0 F6000 X48.625 Y-5.436
G0 X47.398 Y-5.158
G0 X46.399 Y-4.567
G0 X45.925 Y-3.792
G0 X45.5 Y-2.302
G0 X46.914 Y-2.695
G0 X-9.028 Y37.428
G0 X-7.767 Y36.679
G0 X-8.044 Y36.002
G1 F1800 E62.28293
G1 F1200 X-8.628 Y35.564 E62.30873
G1 X-9.305 Y35.291 E62.33453
G1 X-10.029 Y35.204 E62.3603
G1 X-10.751 Y35.306 E62.38607
G1 X-11.424 Y35.593 E62.41192
G1 X-11.998 Y36.044 E62.43772
G1 X-12.436 Y36.628 E62.46351
G1 X-12.709 Y37.305 E62.48931
G1 X-12.796 Y38.029 E62.51508
G1 X-12.694 Y38.751 E62.54085
G1 X-12.407 Y39.424 E62.5667
G1 X-11.956 Y39.998 E62.5925
G1 X-11.372 Y40.436 E62.6183
G1 X-10.695 Y40.709 E62.64409
G1 X-9.971 Y40.796 E62.66986
G1 X-9.249 Y40.694 E62.69563
G1 X-8.576 Y40.407 E62.72149
G1 X-8.002 Y39.956 E62.74728
G1 X-7.568 Y39.377 E62.77286
G1 X-7.294 Y38.72 E62.79801
G1 X-7.204 Y37.971 E62.82467
G1 X-7.306 Y37.249 E62.85044
G1 X-7.593 Y36.576 E62.87629
G1 X-8.044 Y36.002 E62.90209
G1 F1800 E58.40209
G0 F6000 X-8.241 Y36.204
G0 X-9.354 Y35.486
G0 X-9.716 Y36.907
G0 X-43.91 Y-37.702
G0 X-42.489 Y-37.331
G0 X-42.204 Y-38.029
G1 F1800 E62.90209
G1 F1200 X-42.306 Y-38.751 E62.92786
G1 X-42.593 Y-39.424 E62.95371
G1 X-43.044 Y-39.998 E62.97951
G1 X-43.628 Y-40.436 E63.00531
G1 X-44.305 Y-40.709 E63.0311
G1 X-45.029 Y-40.796 E63.05687
G1 X-45.751 Y-40.694 E63.08264
G1 X-46.424 Y-40.407 E63.1085
G1 X-46.998 Y-39.956 E63.13429
