;FLAVOR:Marlin
;TIME:4950
;Filament used: 6.64383m
;Layer height: 0.25
;MINX:-58.7
;MINY:-48.7
;MINZ:0.3
;MAXX:58.7
;MAXY:48.7
;MAXZ:6.8
;Generated with Cura_SteamEngine 4.4.1
M140 S70
M105
M190 S70
M104 S240
M105
M109 S240
M82 ;absolute extrusion mode
M118 X60.00 Y50.00 Z5.00 T0
M140 S70 T0
M104 S240 T0
M104 S0 T1
M107
G90
G28
M132 X Y Z A B
G1 Z50.00 F400
G161 X Y F3300
M7 T0
M6 T0
M651
M907 X100 Y100 Z40 A100 B20
M108 T0
G1 X60.00 Y50.00 F6000
G92 E0
G92 E0
G1 F2400 E-4
;LAYER_COUNT:19
;LAYER:0
M107
G1 F600 Z2.3
G0 F1800 X-52.793 Y48.7 Z2.3
;TYPE:SKIRT
G1 F600 Z0.3
G1 F2400 E0
G1 F1800 X-52.839 Y48.7 E0.00229
G1 X-53.536 Y48.69 E0.03707
G1 X-53.9 Y48.664 E0.05528
G1 X-54.395 Y48.6 E0.08018
G1 X-54.89 Y48.495 E0.10542
G1 X-55.151 Y48.406 E0.11918
G1 X-55.565 Y48.244 E0.14136
G1 X-56.214 Y47.9 E0.17801
G1 X-56.641 Y47.606 E0.20387
G1 X-57.033 Y47.287 E0.22909
G1 X-57.253 Y47.055 E0.24504
G1 X-57.582 Y46.672 E0.27023
G1 X-57.88 Y46.264 E0.29543
G1 X-58.036 Y45.981 E0.31156
G1 X-58.261 Y45.516 E0.33733
G1 X-58.444 Y45.045 E0.36254
G1 X-58.526 Y44.709 E0.37979
G1 X-58.626 Y44.173 E0.407
G1 X-58.676 Y43.755 E0.428
G1 X-58.695 Y43.396 E0.44593
G1 X-58.699 Y43.227 E0.45437
G1 X-58.7 Y-42.793 E4.74592
G1 X-58.7 Y-42.839 E4.74822
G1 X-58.69 Y-43.537 E4.78304
G1 X-58.664 Y-43.897 E4.80105
G1 X-58.601 Y-44.389 E4.8258
G1 X-58.497 Y-44.884 E4.85103
G1 X-58.405 Y-45.153 E4.86522
G1 X-58.238 Y-45.578 E4.888
G1 X-57.889 Y-46.232 E4.92498
G1 X-57.599 Y-46.65 E4.95036
G1 X-57.279 Y-47.041 E4.97557
G1 X-57.062 Y-47.247 E4.9905
G1 X-56.694 Y-47.565 E5.01476
G1 X-56.287 Y-47.865 E5.03999
G1 X-56.014 Y-48.016 E5.05555
G1 X-55.534 Y-48.252 E5.08224
G1 X-55.064 Y-48.438 E5.10746
G1 X-54.709 Y-48.526 E5.1257
G1 X-54.173 Y-48.626 E5.15291
G1 X-53.763 Y-48.675 E5.17351
G1 X-53.42 Y-48.694 E5.19064
G1 X-53.243 Y-48.699 E5.19948
G1 X52.793 Y-48.7 E10.48964
G1 X52.839 Y-48.7 E10.49193
G1 X53.537 Y-48.69 E10.52676
G1 X53.902 Y-48.663 E10.54502
G1 X54.396 Y-48.599 E10.56987
G1 X54.891 Y-48.495 E10.5951
G1 X55.151 Y-48.406 E10.60881
G1 X55.565 Y-48.244 E10.63099
G1 X56.214 Y-47.9 E10.66764
G1 X56.641 Y-47.606 E10.6935
G1 X57.033 Y-47.287 E10.71872
G1 X57.247 Y-47.062 E10.73421
G1 X57.565 Y-46.694 E10.75847
G1 X57.865 Y-46.287 E10.7837
G1 X58.016 Y-46.014 E10.79926
G1 X58.252 Y-45.534 E10.82595
G1 X58.438 Y-45.064 E10.85117
G1 X58.526 Y-44.709 E10.86941
G1 X58.626 Y-44.173 E10.89662
G1 X58.675 Y-43.763 E10.91722
G1 X58.694 Y-43.42 E10.93436
G1 X58.699 Y-43.243 E10.94319
G1 X58.7 Y42.793 E15.23554
G1 X58.7 Y42.839 E15.23784
G1 X58.69 Y43.536 E15.27262
G1 X58.664 Y43.896 E15.29062
G1 X58.601 Y44.389 E15.31542
G1 X58.498 Y44.883 E15.3406
G1 X58.406 Y45.15 E15.35468
G1 X58.243 Y45.566 E15.37698
G1 X57.9 Y46.214 E15.41355
G1 X57.606 Y46.641 E15.43942
G1 X57.287 Y47.033 E15.46463
G1 X57.062 Y47.247 E15.48012
G1 X56.694 Y47.565 E15.50439
G1 X56.287 Y47.865 E15.52961
G1 X56.014 Y48.016 E15.54518
G1 X55.54 Y48.249 E15.57153
G1 X55.07 Y48.435 E15.59675
G1 X54.725 Y48.521 E15.61449
G1 X54.183 Y48.624 E15.64201
G1 X53.763 Y48.675 E15.66312
G1 X53.42 Y48.694 E15.68026
G1 X53.243 Y48.699 E15.68909
G1 X-52.793 Y48.7 E20.97925
G1 F2400 E16.97925
G1 F600 Z2.3
;MESH:van-tracker-lid-01 v8.obj
G0 F1800 X-7.675 Y38.619 Z2.3
;TYPE:WALL-INNER
G1 F600 Z0.3
G1 F2400 E20.97925
G1 F1800 X-7.598 Y37.969 E21.0119
G1 X-7.688 Y37.348 E21.04321
G1 X-7.935 Y36.773 E21.07443
G1 X-8.322 Y36.28 E21.1057
G1 X-8.824 Y35.904 E21.13699
G1 X-9.408 Y35.671 E21.16836
G1 X-10.032 Y35.598 E21.1997
G1 X-10.652 Y35.688 E21.23096
G1 X-11.227 Y35.935 E21.26218
G1 X-11.72 Y36.322 E21.29345
G1 X-12.096 Y36.824 E21.32474
G1 X-12.329 Y37.408 E21.35611
G1 X-12.402 Y38.032 E21.38745
G1 X-12.312 Y38.652 E21.41871
G1 X-12.065 Y39.227 E21.44993
G1 X-11.678 Y39.72 E21.4812
G1 X-11.176 Y40.096 E21.51249
G1 X-10.592 Y40.329 E21.54386
G1 X-9.968 Y40.402 E21.57521
G1 X-9.348 Y40.312 E21.60646
G1 X-8.773 Y40.065 E21.63768
G1 X-8.28 Y39.678 E21.66895
G1 X-7.907 Y39.178 E21.70007
G1 X-7.675 Y38.619 E21.73027
G1 F2400 E17.73027
G1 F600 Z2.3
G0 F1800 X-7.839 Y38.521 Z2.3
G0 X1.572 Y26.444
G1 F600 Z0.3
G1 F2400 E21.73027
G1 F1800 X38.089 Y26.444 E23.55211
G1 X38.089 Y-23.798 E26.05869
G1 X1.572 Y-23.798 E27.88053
G1 X1.572 Y26.444 E30.38712
G1 F2400 E26.38712
G1 F600 Z2.3
G0 F1800 X1.49 Y26.526 Z2.3
G0 X50.325 Y-2.381
G1 F600 Z0.3
G1 F2400 E30.38712
G1 F1800 X50.402 Y-3.031 E30.41977
G1 X50.312 Y-3.652 E30.45108
G1 X50.065 Y-4.227 E30.4823
G1 X49.678 Y-4.72 E30.51357
G1 X49.176 Y-5.096 E30.54486
G1 X48.592 Y-5.329 E30.57623
G1 X47.968 Y-5.402 E30.60757
G1 X47.348 Y-5.312 E30.63883
G1 X46.773 Y-5.065 E30.67005
G1 X46.28 Y-4.678 E30.70132
G1 X45.904 Y-4.176 E30.73261
G1 X45.671 Y-3.592 E30.76398
G1 X45.598 Y-2.968 E30.79532
G1 X45.688 Y-2.348 E30.82658
G1 X45.935 Y-1.773 E30.8578
G1 X46.322 Y-1.28 E30.88907
G1 X46.824 Y-.904 E30.92036
G1 X47.408 Y-.671 E30.95173
G1 X48.032 Y-.598 E30.98307
G1 X48.652 Y-.688 E31.01433
G1 X49.227 Y-.935 E31.04555
G1 X49.72 Y-1.322 E31.07682
G1 X50.093 Y-1.822 E31.10794
G1 X50.325 Y-2.381 E31.13814
G1 F2400 E27.13814
G1 F600 Z2.3
G0 F1800 X50.161 Y-2.479 Z2.3
G0 X54.195 Y-44.709
G1 F600 Z0.3
G1 F2400 E31.13814
G1 F1800 X54.486 Y-44.486 E31.15643
G1 X54.709 Y-44.195 E31.17472
G1 X54.847 Y-43.862 E31.1927
G1 X54.9 Y-43.46 E31.21293
G1 X54.9 Y43.46 E35.54939
G1 X54.847 Y43.862 E35.56962
G1 X54.709 Y44.195 E35.5876
G1 X54.486 Y44.486 E35.60589
G1 X54.195 Y44.709 E35.62418
G1 X53.862 Y44.847 E35.64217
G1 X53.46 Y44.9 E35.66239
G1 X-53.46 Y44.9 E40.99666
G1 X-53.862 Y44.847 E41.01688
G1 X-54.195 Y44.709 E41.03487
G1 X-54.486 Y44.486 E41.05316
G1 X-54.709 Y44.195 E41.07145
G1 X-54.847 Y43.862 E41.08943
G1 X-54.9 Y43.46 E41.10966
G1 X-54.9 Y-43.46 E45.44612
G1 X-54.847 Y-43.862 E45.46635
G1 X-54.709 Y-44.195 E45.48433
G1 X-54.486 Y-44.486 E45.50262
G1 X-54.195 Y-44.709 E45.52091
G1 X-53.862 Y-44.847 E45.5389
G1 X-53.46 Y-44.9 E45.55913
G1 X53.46 Y-44.9 E50.89339
G1 X53.862 Y-44.847 E50.91362
G1 X54.195 Y-44.709 E50.9316
G1 F2400 E46.9316
G1 F600 Z2.3
G0 F1800 X54.219 Y-44.904 Z2.3
G0 X17.325 Y-37.381
G1 F600 Z0.3
G1 F2400 E50.9316
G1 F1800 X17.402 Y-38.031 E50.96425
G1 X17.312 Y-38.652 E50.99556
G1 X17.065 Y-39.227 E51.02678
G1 X16.678 Y-39.72 E51.05805
G1 X16.176 Y-40.096 E51.08934
G1 X15.592 Y-40.329 E51.12071
G1 X14.968 Y-40.402 E51.15205
G1 X14.348 Y-40.312 E51.18331
G1 X13.773 Y-40.065 E51.21453
G1 X13.28 Y-39.678 E51.2458
G1 X12.904 Y-39.176 E51.27709
G1 X12.671 Y-38.592 E51.30846
G1 X12.598 Y-37.968 E51.33981
G1 X12.688 Y-37.348 E51.37106
G1 X12.935 Y-36.773 E51.40228
G1 X13.322 Y-36.28 E51.43355
G1 X13.824 Y-35.904 E51.46484
G1 X14.408 Y-35.671 E51.49621
G1 X15.032 Y-35.598 E51.52756
G1 X15.652 Y-35.688 E51.55881
G1 X16.227 Y-35.935 E51.59003
G1 X16.72 Y-36.322 E51.6213
G1 X17.093 Y-36.822 E51.65242
G1 X17.325 Y-37.381 E51.68262
G1 F2400 E47.68262
G1 F600 Z2.3
G0 F1800 X17.161 Y-37.479 Z2.3
G0 X-42.675 Y-37.381
G1 F600 Z0.3
G1 F2400 E51.68262
G1 F1800 X-42.598 Y-38.031 E51.71527
G1 X-42.688 Y-38.652 E51.74658
G1 X-42.935 Y-39.227 E51.7778
G1 X-43.322 Y-39.72 E51.80907
G1 X-43.824 Y-40.096 E51.84036
G1 X-44.408 Y-40.329 E51.87173
G1 X-45.032 Y-40.402 E51.90307
G1 X-45.652 Y-40.312 E51.93433
G1 X-46.227 Y-40.065 E51.96555
G1 X-46.72 Y-39.678 E51.99682
G1 X-47.096 Y-39.176 E52.02811
G1 X-47.329 Y-38.592 E52.05948
G1 X-47.402 Y-37.968 E52.09083
G1 X-47.312 Y-37.348 E52.12208
G1 X-47.065 Y-36.773 E52.1533
G1 X-46.678 Y-36.28 E52.18457
G1 X-46.176 Y-35.904 E52.21586
G1 X-45.592 Y-35.671 E52.24723
G1 X-44.968 Y-35.598 E52.27858
G1 X-44.348 Y-35.688 E52.30983
G1 X-43.773 Y-35.935 E52.34105
G1 X-43.28 Y-36.322 E52.37232
G1 X-42.907 Y-36.822 E52.40344
G1 X-42.675 Y-37.381 E52.43364
G0 X-43.066 Y-37.483
;TYPE:WALL-OUTER
G1 X-43.001 Y-38.026 E52.46092
G1 X-43.076 Y-38.542 E52.48694
G1 X-43.282 Y-39.021 E52.51295
G1 X-43.604 Y-39.431 E52.53896
G1 X-44.022 Y-39.744 E52.56501
G1 X-44.507 Y-39.938 E52.59107
G1 X-45.026 Y-39.999 E52.61714
G1 X-45.542 Y-39.924 E52.64316
G1 X-46.021 Y-39.718 E52.66917
G1 X-46.431 Y-39.396 E52.69518
G1 X-46.744 Y-38.978 E52.72123
G1 X-46.938 Y-38.493 E52.74729
G1 X-46.999 Y-37.974 E52.77337
G1 X-46.924 Y-37.458 E52.79938
G1 X-46.718 Y-36.979 E52.82539
G1 X-46.396 Y-36.569 E52.8514
G1 X-45.978 Y-36.256 E52.87746
G1 X-45.493 Y-36.062 E52.90352
G1 X-44.974 Y-36.001 E52.92959
G1 X-44.458 Y-36.076 E52.9556
G1 X-43.979 Y-36.282 E52.98161
G1 X-43.569 Y-36.604 E53.00762
G1 X-43.257 Y-37.021 E53.03361
G1 X-43.066 Y-37.483 E53.05855
G0 X-43.043 Y-37.681
G1 F2400 E49.05855
G1 F600 Z2.3
G0 F1800 X-42.833 Y-37.655 Z2.3
G0 X16.934 Y-37.483
G1 F600 Z0.3
G1 F2400 E53.05855
G1 F1800 X16.999 Y-38.026 E53.08583
G1 X16.924 Y-38.542 E53.11185
G1 X16.718 Y-39.021 E53.13786
G1 X16.396 Y-39.431 E53.16387
G1 X15.978 Y-39.744 E53.18992
G1 X15.493 Y-39.938 E53.21598
G1 X14.974 Y-39.999 E53.24205
G1 X14.458 Y-39.924 E53.26807
G1 X13.979 Y-39.718 E53.29408
G1 X13.569 Y-39.396 E53.32009
G1 X13.256 Y-38.978 E53.34614
G1 X13.062 Y-38.493 E53.3722
G1 X13.001 Y-37.974 E53.39827
G1 X13.076 Y-37.458 E53.42429
G1 X13.282 Y-36.979 E53.4503
G1 X13.604 Y-36.569 E53.47631
G1 X14.022 Y-36.256 E53.50236
G1 X14.507 Y-36.062 E53.52842
G1 X15.026 Y-36.001 E53.5545
G1 X15.542 Y-36.076 E53.58051
G1 X16.021 Y-36.282 E53.60652
G1 X16.431 Y-36.604 E53.63253
G1 X16.743 Y-37.021 E53.65852
G1 X16.934 Y-37.483 E53.68346
G0 X16.957 Y-37.681
G1 F2400 E49.68346
G1 F600 Z2.3
G0 F1800 X17.167 Y-37.655 Z2.3
G0 X54.399 Y-45.057
G1 F600 Z0.3
G1 F2400 E53.68346
G1 F1800 X54.771 Y-44.771 E53.70687
G1 X55.057 Y-44.399 E53.73028
G1 X55.238 Y-43.963 E53.75383
G1 X55.3 Y-43.489 E53.77768
G1 X55.3 Y43.489 E58.11703
G1 X55.238 Y43.963 E58.14088
G1 X55.057 Y44.399 E58.16443
G1 X54.771 Y44.771 E58.18784
G1 X54.399 Y45.057 E58.21125
G1 X53.963 Y45.238 E58.2348
G1 X53.489 Y45.3 E58.25865
G1 X-53.489 Y45.3 E63.59581
G1 X-53.963 Y45.238 E63.61966
G1 X-54.399 Y45.057 E63.64321
G1 X-54.771 Y44.771 E63.66662
G1 X-55.057 Y44.399 E63.69003
G1 X-55.238 Y43.963 E63.71358
G1 X-55.3 Y43.489 E63.73743
G1 X-55.3 Y-43.489 E68.07678
G1 X-55.238 Y-43.963 E68.10063
G1 X-55.057 Y-44.399 E68.12418
G1 X-54.771 Y-44.771 E68.14759
G1 X-54.399 Y-45.057 E68.171
G1 X-53.963 Y-45.238 E68.19455
G1 X-53.489 Y-45.3 E68.2184
G1 X53.489 Y-45.3 E73.55556
G1 X53.963 Y-45.238 E73.57941
G1 X54.399 Y-45.057 E73.60296
G0 X54.557 Y-44.936
G1 F2400 E69.60296
G1 F600 Z2.3
G0 F1800 X54.429 Y-44.77 Z2.3
G0 X49.934 Y-2.483
G1 F600 Z0.3
G1 F2400 E73.60296
G1 F1800 X49.999 Y-3.026 E73.63024
G1 X49.924 Y-3.542 E73.65626
G1 X49.718 Y-4.021 E73.68227
G1 X49.396 Y-4.431 E73.70828
G1 X48.978 Y-4.744 E73.73433
G1 X48.493 Y-4.938 E73.76039
G1 X47.974 Y-4.999 E73.78646
G1 X47.458 Y-4.924 E73.81248
G1 X46.979 Y-4.718 E73.83849
G1 X46.569 Y-4.396 E73.8645
G1 X46.256 Y-3.978 E73.89055
G1 X46.062 Y-3.493 E73.91661
G1 X46.001 Y-2.974 E73.94268
G1 X46.076 Y-2.458 E73.9687
G1 X46.282 Y-1.979 E73.99471
G1 X46.604 Y-1.569 E74.02072
G1 X47.022 Y-1.256 E74.04677
G1 X47.507 Y-1.062 E74.07283
G1 X48.026 Y-1.001 E74.09891
G1 X48.542 Y-1.076 E74.12492
G1 X49.021 Y-1.282 E74.15093
G1 X49.431 Y-1.604 E74.17694
G1 X49.743 Y-2.021 E74.20293
G1 X49.934 Y-2.483 E74.22787
G0 X49.957 Y-2.681
G1 F2400 E70.22787
G1 F600 Z2.3
G0 F1800 X50.167 Y-2.655 Z2.3
G0 X1.972 Y26.044
G1 F600 Z0.3
G1 F2400 E74.22787
G1 F1800 X37.689 Y26.044 E76.0098
G1 X37.689 Y-23.398 E78.47647
G1 X1.972 Y-23.398 E80.25839
G1 X1.972 Y26.044 E82.72507
G0 X2.172 Y26.044
G1 F2400 E78.72507
G1 F600 Z2.3
G0 F1800 X2.172 Y26.254 Z2.3
G0 X-8.066 Y38.517
G1 F600 Z0.3
G1 F2400 E82.72507
G1 F1800 X-8.001 Y37.974 E82.75235
G1 X-8.076 Y37.458 E82.77836
G1 X-8.282 Y36.979 E82.80438
G1 X-8.604 Y36.569 E82.83039
G1 X-9.022 Y36.256 E82.85644
G1 X-9.507 Y36.062 E82.8825
G1 X-10.026 Y36.001 E82.90857
G1 X-10.542 Y36.076 E82.93459
G1 X-11.021 Y36.282 E82.9606
G1 X-11.431 Y36.604 E82.98661
G1 X-11.744 Y37.022 E83.01266
G1 X-11.938 Y37.507 E83.03872
G1 X-11.999 Y38.026 E83.06479
G1 X-11.924 Y38.542 E83.09081
G1 X-11.718 Y39.021 E83.11682
G1 X-11.396 Y39.431 E83.14283
G1 X-10.978 Y39.744 E83.16888
G1 X-10.493 Y39.938 E83.19494
G1 X-9.974 Y39.999 E83.22101
G1 X-9.458 Y39.924 E83.24703
G1 X-8.979 Y39.718 E83.27304
G1 X-8.569 Y39.396 E83.29905
G1 X-8.257 Y38.979 E83.32503
G1 X-8.066 Y38.517 E83.34997
G0 X-8.043 Y38.319
G0 X-7.294 Y38.719
;TYPE:SKIN
G1 X-7.204 Y37.964 E83.38791
G1 X-7.31 Y37.241 E83.42436
G1 X-7.597 Y36.572 E83.46068
G1 X-8.047 Y35.999 E83.49703
G1 X-8.631 Y35.561 E83.53345
G1 X-9.311 Y35.289 E83.56999
G1 X-10.038 Y35.204 E83.60651
G1 X-10.759 Y35.31 E83.64287
G1 X-11.428 Y35.597 E83.67918
G1 X-12.001 Y36.047 E83.71553
G1 X-12.439 Y36.631 E83.75195
G1 X-12.711 Y37.311 E83.78849
G1 X-12.796 Y38.038 E83.82501
G1 X-12.69 Y38.759 E83.86137
G1 X-12.403 Y39.428 E83.89768
G1 X-11.953 Y40.001 E83.93403
G1 X-11.369 Y40.439 E83.97045
G1 X-10.689 Y40.711 E84.00699
G1 X-9.962 Y40.796 E84.04351
G1 X-9.241 Y40.69 E84.07987
G1 X-8.572 Y40.403 E84.11618
G1 X-7.999 Y39.953 E84.15253
G1 X-7.566 Y39.373 E84.18864
G1 X-7.294 Y38.719 E84.22398
G1 F2400 E80.22398
G1 F600 Z2.3
G0 F1800 X-7.485 Y38.669 Z2.3
G0 X1.182 Y26.834
G1 F600 Z0.3
G1 F2400 E84.22398
G1 F1800 X38.479 Y26.834 E86.08474
G1 X38.479 Y-24.188 E88.63023
G1 X1.182 Y-24.188 E90.49099
G1 X1.182 Y26.834 E93.03649
G1 F2400 E89.03649
G1 F600 Z2.3
G0 F1800 X1.49 Y26.526 Z2.3
G0 X45.597 Y-1.572
G1 F600 Z0.3
G1 F2400 E93.03649
G1 F1800 X46.047 Y-.999 E93.07284
G1 X46.631 Y-.561 E93.10926
G1 X47.311 Y-.289 E93.1458
G1 X48.038 Y-.204 E93.18231
G1 X48.759 Y-.31 E93.21867
G1 X49.428 Y-.597 E93.25499
G1 X50.001 Y-1.047 E93.29134
G1 X50.434 Y-1.627 E93.32745
G1 X50.706 Y-2.281 E93.36279
G1 X50.796 Y-3.036 E93.40072
G1 X50.69 Y-3.759 E93.43718
G1 X50.403 Y-4.428 E93.47349
G1 X49.953 Y-5.001 E93.50984
G1 X49.369 Y-5.439 E93.54626
G1 X48.689 Y-5.711 E93.5828
G1 X47.962 Y-5.796 E93.61932
G1 X47.241 Y-5.69 E93.65568
G1 X46.572 Y-5.403 E93.69199
G1 X45.999 Y-4.953 E93.72834
G1 X45.561 Y-4.369 E93.76476
G1 X45.289 Y-3.689 E93.8013
G1 X45.204 Y-2.962 E93.83782
G1 X45.31 Y-2.241 E93.87418
G1 X45.597 Y-1.572 E93.91049
G1 F2400 E89.91049
G1 F600 Z2.3
G0 F1800 X45.766 Y-1.672 Z2.3
G0 X14.311 Y-35.289
G1 F600 Z0.3
G1 F2400 E93.91049
G1 F1800 X15.038 Y-35.204 E93.94701
G1 X15.759 Y-35.31 E93.98337
G1 X16.428 Y-35.597 E94.01969
G1 X17.001 Y-36.047 E94.05604
G1 X17.434 Y-36.627 E94.09215
G1 X17.706 Y-37.281 E94.12748
G1 X17.796 Y-38.036 E94.16542
G1 X17.69 Y-38.759 E94.20187
G1 X17.403 Y-39.428 E94.23819
G1 X16.953 Y-40.001 E94.27454
G1 X16.369 Y-40.439 E94.31096
G1 X15.689 Y-40.711 E94.3475
G1 X14.962 Y-40.796 E94.38402
G1 X14.241 Y-40.69 E94.42038
G1 X13.572 Y-40.403 E94.45669
G1 X12.999 Y-39.953 E94.49304
G1 X12.561 Y-39.369 E94.52946
G1 X12.289 Y-38.689 E94.566
G1 X12.204 Y-37.962 E94.60252
G1 X12.31 Y-37.241 E94.63888
G1 X12.597 Y-36.572 E94.67519
G1 X13.047 Y-35.999 E94.71154
G1 X13.631 Y-35.561 E94.74796
G1 X14.311 Y-35.289 E94.7845
G1 F2400 E90.7845
G1 F600 Z2.3
G0 F1800 X14.359 Y-35.479 Z2.3
G0 X-43.572 Y-35.597
G1 F600 Z0.3
G1 F2400 E94.7845
G1 F1800 X-42.999 Y-36.047 E94.82085
G1 X-42.566 Y-36.627 E94.85696
G1 X-42.294 Y-37.281 E94.8923
G1 X-42.204 Y-38.036 E94.93023
G1 X-42.31 Y-38.759 E94.96669
G1 X-42.597 Y-39.428 E95.00301
G1 X-43.047 Y-40.001 E95.03936
G1 X-43.631 Y-40.439 E95.07578
G1 X-44.311 Y-40.711 E95.11231
G1 X-45.038 Y-40.796 E95.14883
G1 X-45.759 Y-40.69 E95.18519
G1 X-46.428 Y-40.403 E95.22151
G1 X-47.001 Y-39.953 E95.25786
G1 X-47.439 Y-39.369 E95.29428
G1 X-47.711 Y-38.689 E95.33082
G1 X-47.796 Y-37.962 E95.36733
G1 X-47.69 Y-37.241 E95.40369
G1 X-47.403 Y-36.572 E95.44001
G1 X-46.953 Y-35.999 E95.47636
G1 X-46.369 Y-35.561 E95.51278
G1 X-45.689 Y-35.289 E95.54932
G1 X-44.962 Y-35.204 E95.58583
G1 X-44.241 Y-35.31 E95.62219
G1 X-43.572 Y-35.597 E95.65851
G1 F2400 E91.65851
G1 F600 Z2.3
G0 F1800 X-43.672 Y-35.766 Z2.3
G0 X-53.439 Y44.51
G1 F600 Z0.3
G1 F2400 E95.65851
G1 F1800 X-53.754 Y44.469 E95.67436
G1 X-53.998 Y44.367 E95.68755
G1 X-54.207 Y44.207 E95.70068
G1 X-54.367 Y43.998 E95.71381
G1 X-54.469 Y43.754 E95.72701
G1 X-54.51 Y43.439 E95.74286
G1 X-54.51 Y-43.439 E100.07722
