;FLAVOR:Marlin
;TIME:4558
;Filament used: 5.86214m
;Layer height: 0.3
;MINX:-58.7
;MINY:-48.7
;MINZ:0.3
;MAXX:58.7
;MAXY:48.7
;MAXZ:4.8
;Generated with Cura_SteamEngine 4.4.1
M140 S70
M105
M190 S70
M104 S235
M105
M109 S235
M82 ;absolute extrusion mode
M118 X60.00 Y50.00 Z5.00 T0
M140 S70 T0
M104 S250 T0
M104 S0 T1
M107
G90
G28
M132 X Y Z A B
G1 Z50.00 F400
G161 X Y F3300
M7 T0
M6 T0
M651
M907 X100 Y100 Z40 A100 B20
M108 T0
G1 X60.00 Y50.00 F6000
G92 E0
G92 E0
G1 F2400 E-3.5
;LAYER_COUNT:16
;LAYER:0
M107
G0 F7200 X-52.793 Y48.7 Z0.3
;TYPE:SKIRT
G1 F2400 E0
G1 F1800 X-52.839 Y48.7 E0.002
G1 X-53.536 Y48.69 E0.03225
G1 X-53.9 Y48.664 E0.04809
G1 X-54.395 Y48.6 E0.06976
G1 X-54.89 Y48.495 E0.09172
G1 X-55.151 Y48.406 E0.10369
G1 X-55.565 Y48.244 E0.12298
G1 X-56.214 Y47.9 E0.15487
G1 X-56.641 Y47.606 E0.17737
G1 X-57.033 Y47.287 E0.19931
G1 X-57.253 Y47.055 E0.21318
G1 X-57.582 Y46.672 E0.2351
G1 X-57.88 Y46.264 E0.25703
G1 X-58.036 Y45.981 E0.27105
G1 X-58.261 Y45.516 E0.29348
G1 X-58.444 Y45.045 E0.31541
G1 X-58.526 Y44.709 E0.33042
G1 X-58.626 Y44.173 E0.35409
G1 X-58.676 Y43.755 E0.37236
G1 X-58.695 Y43.396 E0.38796
G1 X-58.699 Y43.227 E0.3953
G1 X-58.7 Y-42.793 E4.12895
G1 X-58.7 Y-42.839 E4.13095
G1 X-58.69 Y-43.537 E4.16125
G1 X-58.664 Y-43.897 E4.17692
G1 X-58.601 Y-44.389 E4.19844
G1 X-58.497 Y-44.884 E4.2204
G1 X-58.405 Y-45.153 E4.23274
G1 X-58.238 Y-45.578 E4.25256
G1 X-57.889 Y-46.232 E4.28473
G1 X-57.599 Y-46.65 E4.30682
G1 X-57.279 Y-47.041 E4.32875
G1 X-57.062 Y-47.247 E4.34173
G1 X-56.694 Y-47.565 E4.36284
G1 X-56.287 Y-47.865 E4.38479
G1 X-56.014 Y-48.016 E4.39833
G1 X-55.534 Y-48.252 E4.42155
G1 X-55.064 Y-48.438 E4.44349
G1 X-54.709 Y-48.526 E4.45936
G1 X-54.173 Y-48.626 E4.48303
G1 X-53.763 Y-48.675 E4.50095
G1 X-53.42 Y-48.694 E4.51586
G1 X-53.243 Y-48.699 E4.52355
G1 X52.793 Y-48.7 E9.12598
G1 X52.839 Y-48.7 E9.12798
G1 X53.537 Y-48.69 E9.15828
G1 X53.902 Y-48.663 E9.17417
G1 X54.396 Y-48.599 E9.19579
G1 X54.891 Y-48.495 E9.21774
G1 X55.151 Y-48.406 E9.22967
G1 X55.565 Y-48.244 E9.24896
G1 X56.214 Y-47.9 E9.28085
G1 X56.641 Y-47.606 E9.30335
G1 X57.033 Y-47.287 E9.32529
G1 X57.247 Y-47.062 E9.33876
G1 X57.565 Y-46.694 E9.35987
G1 X57.865 Y-46.287 E9.38182
G1 X58.016 Y-46.014 E9.39536
G1 X58.252 Y-45.534 E9.41858
G1 X58.438 Y-45.064 E9.44052
G1 X58.526 Y-44.709 E9.45639
G1 X58.626 Y-44.173 E9.48006
G1 X58.675 Y-43.763 E9.49798
G1 X58.694 Y-43.42 E9.51289
G1 X58.699 Y-43.243 E9.52058
G1 X58.7 Y42.793 E13.25492
G1 X58.7 Y42.839 E13.25692
G1 X58.69 Y43.536 E13.28718
G1 X58.664 Y43.896 E13.30284
G1 X58.601 Y44.389 E13.32441
G1 X58.498 Y44.883 E13.34632
G1 X58.406 Y45.15 E13.35858
G1 X58.243 Y45.566 E13.37797
G1 X57.9 Y46.214 E13.40979
G1 X57.606 Y46.641 E13.43229
G1 X57.287 Y47.033 E13.45423
G1 X57.062 Y47.247 E13.46771
G1 X56.694 Y47.565 E13.48882
G1 X56.287 Y47.865 E13.51076
G1 X56.014 Y48.016 E13.52431
G1 X55.54 Y48.249 E13.54723
G1 X55.07 Y48.435 E13.56917
G1 X54.725 Y48.521 E13.5846
G1 X54.183 Y48.624 E13.60855
G1 X53.763 Y48.675 E13.62691
G1 X53.42 Y48.694 E13.64182
G1 X53.243 Y48.699 E13.64951
G1 X-52.261 Y48.7 E18.22885
G0 F1620 X-52.793 Y48.7
G1 F2400 E14.72885
;MESH:van-tracker-lid-01 v8.obj
G0 F7200 X-44.423 Y-37.031
G0 X-43.47 Y-35.422
G0 X-42.284 Y-37.28
;TYPE:WALL-INNER
G1 F2400 E18.22885
G1 F1800 X-42.202 Y-37.983 E18.25958
G1 X-42.195 Y-38.035 E18.26185
G1 X-42.3 Y-38.76 E18.29365
G1 X-42.587 Y-39.432 E18.32537
G1 X-43.041 Y-40.009 E18.35723
G1 X-43.627 Y-40.448 E18.38901
G1 X-44.309 Y-40.72 E18.42088
G1 X-44.984 Y-40.798 E18.45038
G1 X-45.037 Y-40.805 E18.4527
G1 X-45.76 Y-40.7 E18.48441
G1 X-46.432 Y-40.413 E18.51612
G1 X-47.009 Y-39.959 E18.54799
G1 X-47.448 Y-39.373 E18.57977
G1 X-47.72 Y-38.691 E18.61164
G1 X-47.798 Y-38.016 E18.64113
G1 X-47.805 Y-37.963 E18.64345
G1 X-47.7 Y-37.24 E18.67517
G1 X-47.413 Y-36.568 E18.70688
G1 X-46.959 Y-35.991 E18.73875
G1 X-46.373 Y-35.552 E18.77053
G1 X-45.691 Y-35.28 E18.8024
G1 X-45.016 Y-35.202 E18.83189
G1 X-44.963 Y-35.195 E18.83421
G1 X-44.24 Y-35.3 E18.86592
G1 X-43.568 Y-35.587 E18.89764
G1 X-42.991 Y-36.041 E18.92951
G1 X-42.556 Y-36.623 E18.96104
G1 X-42.487 Y-36.789 E18.96885
G0 F1620 X-42.284 Y-37.28
G0 F7200 X-42.675 Y-37.382
G1 F1800 X-42.598 Y-38.03 E18.99717
G1 X-42.688 Y-38.651 E19.02441
G1 X-42.934 Y-39.226 E19.05155
G1 X-43.323 Y-39.72 E19.07884
G1 X-43.825 Y-40.096 E19.10607
G1 X-44.408 Y-40.329 E19.13332
G1 X-45.031 Y-40.402 E19.16055
G1 X-45.651 Y-40.312 E19.18774
G1 X-46.226 Y-40.066 E19.21488
G1 X-46.72 Y-39.677 E19.24218
G1 X-47.096 Y-39.175 E19.2694
G1 X-47.329 Y-38.592 E19.29665
G1 X-47.402 Y-37.969 E19.32388
G1 X-47.312 Y-37.349 E19.35107
G1 X-47.066 Y-36.774 E19.37821
G1 X-46.677 Y-36.28 E19.40551
G1 X-46.175 Y-35.904 E19.43273
G1 X-45.592 Y-35.671 E19.45998
G1 X-44.969 Y-35.598 E19.48721
G1 X-44.349 Y-35.688 E19.5144
G1 X-43.774 Y-35.934 E19.54154
G1 X-43.28 Y-36.323 E19.56884
G1 X-42.906 Y-36.822 E19.5959
G1 X-42.878 Y-36.89 E19.59909
G0 F1620 X-42.675 Y-37.382
G0 F7200 X-42.773 Y-37.407
;TYPE:WALL-OUTER
G1 F1800 X-42.699 Y-38.029 E19.62628
G1 X-42.785 Y-38.624 E19.65238
G1 X-43.021 Y-39.175 E19.67839
G1 X-43.393 Y-39.648 E19.70451
G1 X-43.874 Y-40.008 E19.73059
G1 X-44.433 Y-40.231 E19.75671
G1 X-45.03 Y-40.301 E19.7828
G1 X-45.624 Y-40.215 E19.80885
G1 X-46.175 Y-39.979 E19.83487
G1 X-46.648 Y-39.607 E19.86099
G1 X-47.008 Y-39.126 E19.88707
G1 X-47.231 Y-38.567 E19.91319
G1 X-47.301 Y-37.97 E19.93928
G1 X-47.215 Y-37.376 E19.96533
G1 X-46.979 Y-36.825 E19.99135
G1 X-46.607 Y-36.352 E20.01747
G1 X-46.126 Y-35.992 E20.04354
G1 X-45.567 Y-35.769 E20.06967
G1 X-44.97 Y-35.699 E20.09576
G1 X-44.376 Y-35.785 E20.12181
G1 X-43.825 Y-36.021 E20.14783
G1 X-43.352 Y-36.393 E20.17394
G1 X-42.994 Y-36.872 E20.1999
G1 X-42.976 Y-36.915 E20.20192
G0 F1620 X-42.773 Y-37.407
G0 F7200 X-42.75 Y-37.605
G0 X-42.313 Y-37.552
G1 F2400 E16.70192
G0 F7200 X-42.853 Y-35.906
G0 X-44.194 Y-37.211
G0 X-10.014 Y36.873
G0 X-10.04 Y35.002
G0 X-8.756 Y35.782
G0 X-7.814 Y36.702
G0 X-7.284 Y38.72
;TYPE:WALL-INNER
G1 F2400 E20.20192
G1 F1800 X-7.202 Y38.017 E20.23264
G1 X-7.195 Y37.965 E20.23492
G1 X-7.3 Y37.24 E20.26672
G1 X-7.587 Y36.568 E20.29843
G1 X-8.041 Y35.991 E20.3303
G1 X-8.627 Y35.552 E20.36208
G1 X-9.309 Y35.28 E20.39395
G1 X-9.984 Y35.202 E20.42345
G1 X-10.037 Y35.195 E20.42577
G1 X-10.76 Y35.3 E20.45748
G1 X-11.432 Y35.587 E20.48919
G1 X-12.009 Y36.041 E20.52106
G1 X-12.448 Y36.627 E20.55284
G1 X-12.72 Y37.309 E20.58471
G1 X-12.798 Y37.984 E20.6142
G1 X-12.805 Y38.037 E20.61652
G1 X-12.7 Y38.76 E20.64823
G1 X-12.413 Y39.432 E20.67995
G1 X-11.959 Y40.009 E20.71182
G1 X-11.373 Y40.448 E20.7436
G1 X-10.691 Y40.72 E20.77547
G1 X-10.016 Y40.798 E20.80496
G1 X-9.963 Y40.805 E20.80728
G1 X-9.24 Y40.7 E20.83899
G1 X-8.568 Y40.413 E20.87071
G1 X-7.991 Y39.959 E20.90258
G1 X-7.556 Y39.377 E20.93411
G1 X-7.487 Y39.211 E20.94192
G0 F1620 X-7.284 Y38.72
G0 F7200 X-7.675 Y38.618
G1 F1800 X-7.598 Y37.97 E20.97024
G1 X-7.688 Y37.349 E20.99748
G1 X-7.934 Y36.774 E21.02462
G1 X-8.323 Y36.28 E21.05191
G1 X-8.825 Y35.904 E21.07914
G1 X-9.408 Y35.671 E21.10639
G1 X-10.031 Y35.598 E21.13361
G1 X-10.651 Y35.688 E21.16081
G1 X-11.226 Y35.934 E21.18795
G1 X-11.72 Y36.323 E21.21524
G1 X-12.096 Y36.825 E21.24247
G1 X-12.329 Y37.408 E21.26972
G1 X-12.402 Y38.031 E21.29694
G1 X-12.312 Y38.651 E21.32414
G1 X-12.066 Y39.226 E21.35128
G1 X-11.677 Y39.72 E21.37857
G1 X-11.175 Y40.096 E21.4058
G1 X-10.592 Y40.329 E21.43305
G1 X-9.969 Y40.402 E21.46027
G1 X-9.349 Y40.312 E21.48747
G1 X-8.774 Y40.066 E21.51461
G1 X-8.28 Y39.677 E21.5419
G1 X-7.906 Y39.178 E21.56897
G1 X-7.878 Y39.11 E21.57216
G0 F1620 X-7.675 Y38.618
G0 F7200 X-7.773 Y38.593
;TYPE:WALL-OUTER
G1 F1800 X-7.699 Y37.971 E21.59935
G1 X-7.785 Y37.376 E21.62545
G1 X-8.021 Y36.825 E21.65146
G1 X-8.393 Y36.352 E21.67758
G1 X-8.874 Y35.992 E21.70366
G1 X-9.433 Y35.769 E21.72978
G1 X-10.03 Y35.699 E21.75587
G1 X-10.624 Y35.785 E21.78192
G1 X-11.175 Y36.021 E21.80794
G1 X-11.648 Y36.393 E21.83406
G1 X-12.008 Y36.874 E21.86014
G1 X-12.231 Y37.433 E21.88626
G1 X-12.301 Y38.03 E21.91235
G1 X-12.215 Y38.624 E21.9384
G1 X-11.979 Y39.175 E21.96442
G1 X-11.607 Y39.648 E21.99054
G1 X-11.126 Y40.008 E22.01661
G1 X-10.567 Y40.231 E22.04274
G1 X-9.97 Y40.301 E22.06883
G1 X-9.376 Y40.215 E22.09488
G1 X-8.825 Y39.979 E22.12089
G1 X-8.352 Y39.607 E22.14701
G1 X-7.994 Y39.128 E22.17297
G1 X-7.976 Y39.085 E22.17499
G0 F1620 X-7.773 Y38.593
G0 F7200 X-7.75 Y38.395
G0 X-7.313 Y38.448
G1 F2400 E18.67499
G0 F7200 X-7.422 Y36.47
G0 X-9.031 Y37.423
G0 X2.837 Y24.917
G0 X1.002 Y24.917
G0 X1.172 Y26.844
;TYPE:WALL-INNER
G1 F2400 E22.17499
G1 F1800 X38.489 Y26.844 E23.79472
G1 X38.489 Y-24.198 E26.01017
G1 X1.172 Y-24.198 E27.62989
G1 X1.172 Y26.312 E29.82225
G0 F1620 X1.172 Y26.844
G0 F7200 X1.572 Y26.444
G1 F1800 X38.089 Y26.444 E31.40726
G1 X38.089 Y-23.798 E33.58798
G1 X1.572 Y-23.798 E35.17298
G1 X1.572 Y25.912 E37.33062
G0 F1620 X1.572 Y26.444
G0 F7200 X1.672 Y26.344
;TYPE:WALL-OUTER
G1 F1800 X37.989 Y26.344 E38.90694
G1 X37.989 Y-23.698 E41.07899
G1 X1.672 Y-23.698 E42.65531
G1 X1.672 Y25.812 E44.80426
G0 F1620 X1.672 Y26.344
G0 F7200 X1.872 Y26.344
G0 X1.872 Y26.784
G1 F2400 E41.30426
G0 F7200 X38.217 Y26.572
G0 X38.679 Y-2.28
G0 X36.824 Y-2.28
G0 X46.873 Y-2.986
G0 X45.002 Y-2.96
G0 X45.814 Y-1.702
G0 X46.756 Y-.782
G0 X48.033 Y-.458
G0 X49.298 Y-.814
G0 X50.716 Y-2.28
;TYPE:WALL-INNER
G1 F2400 E44.80426
G1 F1800 X50.798 Y-2.983 E44.83498
G1 X50.805 Y-3.035 E44.83726
G1 X50.7 Y-3.76 E44.86906
G1 X50.413 Y-4.432 E44.90077
G1 X49.959 Y-5.009 E44.93264
G1 X49.373 Y-5.448 E44.96442
G1 X48.691 Y-5.72 E44.99629
G1 X48.016 Y-5.798 E45.02579
G1 X47.963 Y-5.805 E45.02811
G1 X47.24 Y-5.7 E45.05982
G1 X46.568 Y-5.413 E45.09153
G1 X45.991 Y-4.959 E45.1234
G1 X45.552 Y-4.373 E45.15518
G1 X45.28 Y-3.691 E45.18705
G1 X45.202 Y-3.016 E45.21654
G1 X45.195 Y-2.963 E45.21886
G1 X45.3 Y-2.24 E45.25057
G1 X45.587 Y-1.568 E45.28229
G1 X46.041 Y-.991 E45.31416
G1 X46.627 Y-.552 E45.34594
G1 X47.309 Y-.28 E45.37781
G1 X47.984 Y-.202 E45.4073
G1 X48.037 Y-.195 E45.40962
G1 X48.76 Y-.3 E45.44133
G1 X49.432 Y-.587 E45.47305
G1 X50.009 Y-1.041 E45.50492
G1 X50.444 Y-1.623 E45.53645
G1 X50.513 Y-1.789 E45.54426
G0 F1620 X50.716 Y-2.28
G0 F7200 X50.325 Y-2.382
G1 F1800 X50.402 Y-3.03 E45.57258
G1 X50.312 Y-3.651 E45.59982
G1 X50.066 Y-4.226 E45.62696
G1 X49.677 Y-4.72 E45.65425
G1 X49.175 Y-5.096 E45.68148
G1 X48.592 Y-5.329 E45.70873
G1 X47.969 Y-5.402 E45.73595
G1 X47.349 Y-5.312 E45.76315
G1 X46.774 Y-5.066 E45.79029
G1 X46.28 Y-4.677 E45.81758
G1 X45.904 Y-4.175 E45.84481
G1 X45.671 Y-3.592 E45.87206
G1 X45.598 Y-2.969 E45.89928
G1 X45.688 Y-2.349 E45.92648
G1 X45.934 Y-1.774 E45.95362
G1 X46.323 Y-1.28 E45.98091
G1 X46.825 Y-.904 E46.00814
G1 X47.408 Y-.671 E46.03539
G1 X48.031 Y-.598 E46.06261
G1 X48.651 Y-.688 E46.08981
G1 X49.226 Y-.934 E46.11695
G1 X49.72 Y-1.323 E46.14425
G1 X50.094 Y-1.822 E46.17131
G1 X50.122 Y-1.89 E46.1745
G0 F1620 X50.325 Y-2.382
G0 F7200 X50.227 Y-2.407
;TYPE:WALL-OUTER
G1 F1800 X50.301 Y-3.029 E46.20169
G1 X50.215 Y-3.624 E46.22779
G1 X49.979 Y-4.175 E46.2538
G1 X49.607 Y-4.648 E46.27992
G1 X49.126 Y-5.008 E46.306
G1 X48.567 Y-5.231 E46.33212
G1 X47.97 Y-5.301 E46.35821
G1 X47.376 Y-5.215 E46.38426
G1 X46.825 Y-4.979 E46.41028
G1 X46.352 Y-4.607 E46.4364
G1 X45.992 Y-4.126 E46.46248
G1 X45.769 Y-3.567 E46.4886
G1 X45.699 Y-2.97 E46.51469
G1 X45.785 Y-2.376 E46.54074
G1 X46.021 Y-1.825 E46.56676
G1 X46.393 Y-1.352 E46.59288
G1 X46.874 Y-.992 E46.61895
G1 X47.433 Y-.769 E46.64508
G1 X48.03 Y-.699 E46.67117
G1 X48.624 Y-.785 E46.69722
G1 X49.175 Y-1.021 E46.72323
G1 X49.648 Y-1.393 E46.74935
G1 X50.006 Y-1.872 E46.77531
G1 X50.024 Y-1.915 E46.77733
G0 F1620 X50.227 Y-2.407
G0 F7200 X50.25 Y-2.605
G0 X50.687 Y-2.552
G1 F2400 E43.27733
G0 F7200 X50.447 Y-3.689
G0 X49.775 Y-4.82
G0 X48.626 Y-5.465
G0 X46.47 Y-5.578
G0 X47.423 Y-3.969
G0 X36.891 Y-15.04
G0 X36.836 Y-22.545
G0 X29.7 Y-22.601
G0 X15.806 Y-37.211
G0 X17.147 Y-35.906
G0 X17.716 Y-37.28
;TYPE:WALL-INNER
G1 F2400 E46.77733
G1 F1800 X17.798 Y-37.983 E46.80805
G1 X17.805 Y-38.035 E46.81033
G1 X17.7 Y-38.76 E46.84213
G1 X17.413 Y-39.432 E46.87384
G1 X16.959 Y-40.009 E46.90571
G1 X16.373 Y-40.448 E46.93749
G1 X15.691 Y-40.72 E46.96936
G1 X15.016 Y-40.798 E46.99885
G1 X14.963 Y-40.805 E47.00117
G1 X14.24 Y-40.7 E47.03289
G1 X13.568 Y-40.413 E47.0646
G1 X12.991 Y-39.959 E47.09647
G1 X12.552 Y-39.373 E47.12825
G1 X12.28 Y-38.691 E47.16012
G1 X12.202 Y-38.016 E47.18961
G1 X12.195 Y-37.963 E47.19193
G1 X12.3 Y-37.24 E47.22364
G1 X12.587 Y-36.568 E47.25536
G1 X13.041 Y-35.991 E47.28723
G1 X13.627 Y-35.552 E47.31901
G1 X14.309 Y-35.28 E47.35088
G1 X14.984 Y-35.202 E47.38037
G1 X15.037 Y-35.195 E47.38269
G1 X15.76 Y-35.3 E47.4144
G1 X16.432 Y-35.587 E47.44612
G1 X17.009 Y-36.041 E47.47799
G1 X17.444 Y-36.623 E47.50952
G1 X17.513 Y-36.789 E47.51733
G0 F1620 X17.716 Y-37.28
G0 F7200 X17.325 Y-37.382
G1 F1800 X17.402 Y-38.03 E47.54565
G1 X17.312 Y-38.651 E47.57289
G1 X17.066 Y-39.226 E47.60003
G1 X16.677 Y-39.72 E47.62732
G1 X16.175 Y-40.096 E47.65455
G1 X15.592 Y-40.329 E47.6818
G1 X14.969 Y-40.402 E47.70902
G1 X14.349 Y-40.312 E47.73622
G1 X13.774 Y-40.066 E47.76336
G1 X13.28 Y-39.677 E47.79065
G1 X12.904 Y-39.175 E47.81788
G1 X12.671 Y-38.592 E47.84513
G1 X12.598 Y-37.969 E47.87235
G1 X12.688 Y-37.349 E47.89955
G1 X12.934 Y-36.774 E47.92669
G1 X13.323 Y-36.28 E47.95398
G1 X13.825 Y-35.904 E47.98121
G1 X14.408 Y-35.671 E48.00846
G1 X15.031 Y-35.598 E48.03568
G1 X15.651 Y-35.688 E48.06288
G1 X16.226 Y-35.934 E48.09002
G1 X16.72 Y-36.323 E48.11731
G1 X17.094 Y-36.822 E48.14438
G1 X17.122 Y-36.89 E48.14757
G0 F1620 X17.325 Y-37.382
G0 F7200 X17.227 Y-37.407
;TYPE:WALL-OUTER
G1 F1800 X17.301 Y-38.029 E48.17476
G1 X17.215 Y-38.624 E48.20086
G1 X16.979 Y-39.175 E48.22687
G1 X16.607 Y-39.648 E48.25299
G1 X16.126 Y-40.008 E48.27907
G1 X15.567 Y-40.231 E48.30519
G1 X14.97 Y-40.301 E48.33128
G1 X14.376 Y-40.215 E48.35733
G1 X13.825 Y-39.979 E48.38335
G1 X13.352 Y-39.607 E48.40947
G1 X12.992 Y-39.126 E48.43555
G1 X12.769 Y-38.567 E48.46167
G1 X12.699 Y-37.97 E48.48776
G1 X12.785 Y-37.376 E48.51381
G1 X13.021 Y-36.825 E48.53983
G1 X13.393 Y-36.352 E48.56595
G1 X13.874 Y-35.992 E48.59202
G1 X14.433 Y-35.769 E48.61815
G1 X15.03 Y-35.699 E48.64424
G1 X15.624 Y-35.785 E48.67029
G1 X16.175 Y-36.021 E48.6963
G1 X16.648 Y-36.393 E48.72242
G1 X17.006 Y-36.872 E48.74838
G1 X17.024 Y-36.915 E48.7504
G0 F1620 X17.227 Y-37.407
G0 F7200 X17.25 Y-37.605
G0 X17.687 Y-37.552
G1 F2400 E45.2504
G0 F7200 X17.885 Y-38.812
G0 X16.085 Y-38.308
G0 X17.885 Y-46.165
G0 X17.885 Y-44.29
G0 X53.995 Y-44.359
;TYPE:WALL-INNER
G1 F2400 E48.7504
G1 F1800 X54.201 Y-44.201 E48.76167
G1 X54.359 Y-43.995 E48.77294
G1 X54.458 Y-43.759 E48.78405
G1 X54.5 Y-43.432 E48.79836
G1 X54.5 Y43.432 E52.56864
G1 X54.458 Y43.759 E52.58295
G1 X54.359 Y43.995 E52.59406
G1 X54.201 Y44.201 E52.60533
G1 X53.995 Y44.359 E52.6166
G1 X53.759 Y44.458 E52.62771
G1 X53.432 Y44.5 E52.64202
G1 X-53.432 Y44.5 E57.28039
G1 X-53.759 Y44.458 E57.2947
G1 X-53.995 Y44.359 E57.30581
G1 X-54.201 Y44.201 E57.31708
G1 X-54.359 Y43.995 E57.32835
G1 X-54.458 Y43.759 E57.33946
G1 X-54.5 Y43.432 E57.35377
G1 X-54.5 Y-43.432 E61.12405
G1 X-54.458 Y-43.759 E61.13836
G1 X-54.359 Y-43.995 E61.14947
G1 X-54.201 Y-44.201 E61.16074
G1 X-53.995 Y-44.359 E61.17201
G1 X-53.759 Y-44.458 E61.18312
G1 X-53.432 Y-44.5 E61.19743
G1 X53.432 Y-44.5 E65.8358
G1 X53.484 Y-44.493 E65.83808
G0 F1620 X53.759 Y-44.458
G0 X53.995 Y-44.359
G0 F7200 X54.195 Y-44.709
G1 F1800 X54.486 Y-44.486 E65.85399
G1 X54.709 Y-44.195 E65.8699
G1 X54.826 Y-43.913 E65.88316
G1 X54.848 Y-43.862 E65.88557
G1 X54.9 Y-43.46 E65.90316
G1 X54.9 Y43.46 E69.67588
G1 X54.848 Y43.862 E69.69347
G1 X54.709 Y44.195 E69.70913
G1 X54.486 Y44.486 E69.72505
G1 X54.195 Y44.709 E69.74096
G1 X53.913 Y44.826 E69.75421
G1 X53.862 Y44.848 E69.75662
G1 X53.46 Y44.9 E69.77422
G1 X-53.46 Y44.9 E74.41502
G1 X-53.862 Y44.848 E74.43262
G1 X-54.195 Y44.709 E74.44828
G1 X-54.486 Y44.486 E74.46419
