;FLAVOR:Marlin
;TIME:5563
;Filament used: 6.14176m
;Layer height: 0.25
;MINX:-59.7
;MINY:-49.7
;MINZ:0.25
;MAXX:59.7
;MAXY:49.7
;MAXZ:5

;POSTPROCESSED
;Generated with Cura_SteamEngine 4.4.1
M140 S80
M105
M190 S80
M104 S240
M105
M109 S240
M82 ;absolute extrusion mode
M118 X60.00 Y50.00 Z5.00 T0
M140 S80 T0
M104 S240 T0
M104 S0 T1
M107
G90
G28
M132 X Y Z A B
G1 Z50.00 F400
G161 X Y F3300
M7 T0
M6 T0
M651
M907 X100 Y100 Z40 A100 B20
M108 T0
G1 X60.00 Y50.00 F6000
G92 E0
G92 E0
G1 F1800 E-4.5
;LAYER_COUNT:20

;LAYER:0
M107
G0 F6000 X-52.793 Y49.7 Z0.25
;TYPE:SKIRT
G1 F1800 E0
G1 F1200 X-52.853 Y49.7 E0.0018
G1 X-53.55 Y49.69 E0.02274
G1 X-54.029 Y49.655 E0.03717
G1 X-54.524 Y49.591 E0.05216
G1 X-55.092 Y49.478 E0.06956
G1 X-55.515 Y49.337 E0.08295
G1 X-55.929 Y49.175 E0.0963
G1 X-56.453 Y48.927 E0.11372
G1 X-56.781 Y48.723 E0.12532
G1 X-57.208 Y48.429 E0.14089
G1 X-57.661 Y48.069 E0.15827
G1 X-58.012 Y47.707 E0.17342
G1 X-58.341 Y47.324 E0.18859
G1 X-58.687 Y46.859 E0.206
G1 X-58.936 Y46.416 E0.22126
G1 X-59.161 Y45.951 E0.23678
G1 X-59.376 Y45.414 E0.25415
G1 X-59.509 Y44.892 E0.27033
G1 X-59.609 Y44.356 E0.28671
G1 X-59.674 Y43.808 E0.30329
G1 X-59.693 Y43.449 E0.31409
G1 X-59.699 Y43.227 E0.32076
G1 X-59.7 Y-42.793 E2.90463
G1 X-59.7 Y-42.853 E2.90643
G1 X-59.69 Y-43.551 E2.9274
G1 X-59.656 Y-44.024 E2.94165
G1 X-59.593 Y-44.516 E2.95655
G1 X-59.48 Y-45.085 E2.97397
G1 X-59.336 Y-45.519 E2.98771
G1 X-59.169 Y-45.944 E3.00142
G1 X-58.92 Y-46.467 E3.01882
G1 X-58.711 Y-46.802 E3.03068
G1 X-58.421 Y-47.22 E3.04597
G1 X-58.059 Y-47.672 E3.06336
G1 X-57.716 Y-48.004 E3.0777
G1 X-57.348 Y-48.322 E3.09231
G1 X-56.885 Y-48.67 E3.10971
G1 X-56.455 Y-48.913 E3.12454
G1 X-55.975 Y-49.149 E3.14061
G1 X-55.439 Y-49.368 E3.158
G1 X-54.892 Y-49.509 E3.17497
G1 X-54.356 Y-49.609 E3.19135
G1 X-53.818 Y-49.674 E3.20763
G1 X-53.475 Y-49.693 E3.21795
G1 X-53.243 Y-49.699 E3.22492
G1 X52.793 Y-49.7 E6.41003
G1 X52.853 Y-49.7 E6.41183
G1 X53.551 Y-49.69 E6.4328
G1 X54.031 Y-49.655 E6.44726
G1 X54.525 Y-49.591 E6.46222
G1 X55.093 Y-49.477 E6.47962
G1 X55.515 Y-49.337 E6.49298
G1 X55.929 Y-49.175 E6.50633
G1 X56.453 Y-48.927 E6.52375
G1 X56.781 Y-48.723 E6.53535
G1 X57.208 Y-48.429 E6.55092
G1 X57.661 Y-48.069 E6.5683
G1 X58.004 Y-47.716 E6.58309
G1 X58.322 Y-47.348 E6.5977
G1 X58.67 Y-46.885 E6.6151
G1 X58.913 Y-46.455 E6.62993
G1 X59.149 Y-45.975 E6.646
G1 X59.368 Y-45.439 E6.66339
G1 X59.509 Y-44.892 E6.68036
G1 X59.609 Y-44.356 E6.69674
G1 X59.674 Y-43.818 E6.71301
G1 X59.693 Y-43.475 E6.72333
G1 X59.699 Y-43.243 E6.7303
G1 X59.7 Y42.793 E9.31466
G1 X59.7 Y42.853 E9.31646
G1 X59.69 Y43.55 E9.3374
G1 X59.656 Y44.022 E9.35162
G1 X59.593 Y44.515 E9.36654
G1 X59.48 Y45.084 E9.38397
G1 X59.338 Y45.515 E9.3976
G1 X59.175 Y45.931 E9.41102
G1 X58.926 Y46.455 E9.42845
G1 X58.723 Y46.781 E9.43998
G1 X58.429 Y47.208 E9.45556
G1 X58.069 Y47.661 E9.47294
G1 X57.716 Y48.004 E9.48772
G1 X57.348 Y48.322 E9.50233
G1 X56.885 Y48.67 E9.51973
G1 X56.455 Y48.913 E9.53457
G1 X55.981 Y49.146 E9.55043
G1 X55.445 Y49.365 E9.56782
G1 X54.912 Y49.503 E9.58436
G1 X54.37 Y49.606 E9.60093
G1 X53.818 Y49.674 E9.61764
G1 X53.475 Y49.693 E9.62796
G1 X53.243 Y49.699 E9.63493
G1 X-52.793 Y49.7 E12.82005
G1 F1800 E8.32005
;MESH:lid-00 v2.obj
G0 F6000 X-44.193 Y-37.211
G0 X-43.434 Y-36.466
G0 X-42.956 Y-37.471
G0 X-43.066 Y-37.483
;TYPE:WALL-OUTER
G1 F1800 E12.82005
G1 F1200 X-43.001 Y-38.021 E12.83632
G1 X-43.074 Y-38.538 E12.85201
G1 X-43.279 Y-39.018 E12.86769
G1 X-43.601 Y-39.429 E12.88337
G1 X-44.019 Y-39.742 E12.89905
G1 X-44.503 Y-39.937 E12.91473
G1 X-45.021 Y-39.999 E12.9304
G1 X-45.538 Y-39.926 E12.94608
G1 X-46.018 Y-39.721 E12.96176
G1 X-46.429 Y-39.399 E12.97744
G1 X-46.742 Y-38.981 E12.99313
G1 X-46.937 Y-38.497 E13.0088
G1 X-46.999 Y-37.979 E13.02448
G1 X-46.926 Y-37.462 E13.04016
G1 X-46.721 Y-36.982 E13.05584
G1 X-46.399 Y-36.571 E13.07152
G1 X-45.981 Y-36.258 E13.08721
G1 X-45.497 Y-36.063 E13.10288
G1 X-44.979 Y-36.001 E13.11855
G1 X-44.462 Y-36.074 E13.13423
G1 X-43.982 Y-36.279 E13.14991
G1 X-43.571 Y-36.601 E13.1656
G1 X-43.259 Y-37.018 E13.18124
G1 X-43.066 Y-37.483 E13.19636
G0 F6000 X-43.042 Y-37.681
G0 X-42.606 Y-37.628
G1 F1800 E8.69636
G0 F6000 X-42.844 Y-37.658
G0 X-43.434 Y-36.466
G0 X-44.193 Y-37.211
G0 X-10.013 Y36.872
G0 X-10.023 Y35.808
G0 X-8.951 Y36.136
G0 X-8.158 Y36.911
G0 X-7.876 Y37.872
G0 X-8.066 Y38.517
G1 F1800 E13.19636
G1 F1200 X-8.001 Y37.979 E13.21264
G1 X-8.074 Y37.462 E13.22832
G1 X-8.279 Y36.982 E13.244
G1 X-8.601 Y36.571 E13.25969
G1 X-9.019 Y36.258 E13.27537
G1 X-9.503 Y36.063 E13.29105
G1 X-10.021 Y36.001 E13.30672
G1 X-10.538 Y36.074 E13.3224
G1 X-11.018 Y36.279 E13.33808
G1 X-11.429 Y36.601 E13.35376
G1 X-11.742 Y37.019 E13.36945
G1 X-11.937 Y37.503 E13.38512
G1 X-11.999 Y38.021 E13.40079
G1 X-11.926 Y38.538 E13.41648
G1 X-11.721 Y39.018 E13.43215
G1 X-11.399 Y39.429 E13.44784
G1 X-10.981 Y39.742 E13.46352
G1 X-10.497 Y39.937 E13.4792
G1 X-9.979 Y39.999 E13.49487
G1 X-9.462 Y39.926 E13.51055
G1 X-8.982 Y39.721 E13.52623
G1 X-8.571 Y39.399 E13.54191
G1 X-8.259 Y38.982 E13.55756
G1 X-8.066 Y38.517 E13.57268
G0 F6000 X-8.042 Y38.319
G0 X-7.606 Y38.372
G1 F1800 E9.07268
G0 F6000 X-7.844 Y38.342
G0 X-7.889 Y37.41
G0 X-8.914 Y37.695
G0 X47.449 Y-2.016
G0 X46.924 Y-1.09
G0 X48.022 Y-.861
G0 X49.089 Y-1.158
G0 X49.799 Y-1.863
G0 X49.934 Y-2.483
G1 F1800 E13.57268
G1 F1200 X49.999 Y-3.021 E13.58896
G1 X49.926 Y-3.538 E13.60464
G1 X49.721 Y-4.018 E13.62032
G1 X49.399 Y-4.429 E13.636
G1 X48.981 Y-4.742 E13.65169
G1 X48.497 Y-4.937 E13.66736
G1 X47.979 Y-4.999 E13.68303
G1 X47.462 Y-4.926 E13.69872
G1 X46.982 Y-4.721 E13.7144
G1 X46.571 Y-4.399 E13.73008
G1 X46.258 Y-3.981 E13.74577
G1 X46.063 Y-3.497 E13.76144
G1 X46.001 Y-2.979 E13.77711
G1 X46.074 Y-2.462 E13.79279
G1 X46.279 Y-1.982 E13.80847
G1 X46.601 Y-1.571 E13.82416
G1 X47.019 Y-1.258 E13.83984
G1 X47.503 Y-1.063 E13.85552
G1 X48.021 Y-1.001 E13.87119
G1 X48.538 Y-1.074 E13.88687
G1 X49.018 Y-1.279 E13.90255
G1 X49.429 Y-1.601 E13.91823
G1 X49.741 Y-2.018 E13.93388
G1 X49.934 Y-2.483 E13.949
G0 F6000 X49.958 Y-2.681
G0 X50.394 Y-2.628
G1 F1800 E9.449
G0 F6000 X50.156 Y-2.658
G0 X50.061 Y-3.575
G0 X49.497 Y-4.529
G0 X48.531 Y-5.073
G0 X47.666 Y-5.095
G0 X46.884 Y-4.886
G0 X47.428 Y-3.972
G0 X15.807 Y-37.211
G0 X16.566 Y-36.466
G0 X17.044 Y-37.471
G0 X16.934 Y-37.483
G1 F1800 E13.949
G1 F1200 X16.999 Y-38.021 E13.96528
G1 X16.926 Y-38.538 E13.98096
G1 X16.721 Y-39.018 E13.99664
G1 X16.399 Y-39.429 E14.01232
G1 X15.981 Y-39.742 E14.02801
G1 X15.497 Y-39.937 E14.04368
G1 X14.979 Y-39.999 E14.05935
G1 X14.462 Y-39.926 E14.07504
G1 X13.982 Y-39.721 E14.09071
G1 X13.571 Y-39.399 E14.1064
G1 X13.258 Y-38.981 E14.12208
G1 X13.063 Y-38.497 E14.13776
G1 X13.001 Y-37.979 E14.15343
G1 X13.074 Y-37.462 E14.16911
G1 X13.279 Y-36.982 E14.18479
G1 X13.601 Y-36.571 E14.20047
G1 X14.019 Y-36.258 E14.21616
G1 X14.503 Y-36.063 E14.23183
G1 X15.021 Y-36.001 E14.2475
G1 X15.538 Y-36.074 E14.26319
G1 X16.018 Y-36.279 E14.27887
G1 X16.429 Y-36.601 E14.29455
G1 X16.741 Y-37.018 E14.31019
G1 X16.934 Y-37.483 E14.32532
G0 F6000 X16.958 Y-37.681
G0 X17.394 Y-37.628
G1 F1800 E9.82532
G0 F6000 X17.156 Y-37.658
G0 X17.111 Y-38.59
G0 X16.086 Y-38.305
G0 X17.111 Y-46.165
G0 X17.111 Y-45.09
G0 X54.345 Y-44.959
G0 X54.399 Y-45.057
G1 F1800 E14.32532
G1 F1200 X54.771 Y-44.771 E14.33941
G1 X55.057 Y-44.399 E14.35351
G1 X55.238 Y-43.963 E14.36769
G1 X55.3 Y-43.489 E14.38205
G1 X55.3 Y43.489 E16.9947
G1 X55.238 Y43.963 E17.00906
G1 X55.057 Y44.399 E17.02324
G1 X54.771 Y44.771 E17.03733
G1 X54.399 Y45.057 E17.05143
G1 X53.963 Y45.238 E17.06561
G1 X53.489 Y45.3 E17.07997
G1 X-53.489 Y45.3 E20.29338
G1 X-53.963 Y45.238 E20.30774
G1 X-54.399 Y45.057 E20.32192
G1 X-54.771 Y44.771 E20.33601
G1 X-55.057 Y44.399 E20.35011
G1 X-55.238 Y43.963 E20.36429
G1 X-55.3 Y43.489 E20.37865
G1 X-55.3 Y-43.489 E22.9913
G1 X-55.238 Y-43.963 E23.00566
G1 X-55.057 Y-44.399 E23.01984
G1 X-54.771 Y-44.771 E23.03393
G1 X-54.399 Y-45.057 E23.04803
G1 X-53.963 Y-45.238 E23.06221
G1 X-53.489 Y-45.3 E23.07657
G1 X53.489 Y-45.3 E26.28998
G1 X53.963 Y-45.238 E26.30434
G1 X54.399 Y-45.057 E26.31852
G0 F6000 X54.557 Y-44.936
G0 X54.288 Y-44.588
G0 X54.199 Y-44.718
;TYPE:SKIN
G1 F1200 X54.492 Y-44.492 E26.32963
G1 X54.718 Y-44.199 E26.34075
G1 X54.859 Y-43.859 E26.3518
G1 X54.91 Y-43.468 E26.36365
G1 X54.91 Y43.468 E28.97504
G1 X54.859 Y43.859 E28.98688
G1 X54.718 Y44.199 E28.99794
G1 X54.492 Y44.492 E29.00905
G1 X54.199 Y44.718 E29.02017
G1 X53.859 Y44.859 E29.03122
G1 X53.468 Y44.91 E29.04307
G1 X-53.468 Y44.91 E32.25522
G1 X-53.859 Y44.859 E32.26706
G1 X-54.199 Y44.718 E32.27812
G1 X-54.492 Y44.492 E32.28923
G1 X-54.718 Y44.199 E32.30035
G1 X-54.859 Y43.859 E32.3114
G1 X-54.91 Y43.468 E32.32325
G1 X-54.91 Y-43.468 E34.93464
G1 X-54.859 Y-43.859 E34.94648
G1 X-54.718 Y-44.199 E34.95754
G1 X-54.492 Y-44.492 E34.96865
G1 X-54.199 Y-44.718 E34.97977
G1 X-53.859 Y-44.859 E34.99082
G1 X-53.468 Y-44.91 E35.00267
G1 X53.468 Y-44.91 E38.21482
G1 X53.859 Y-44.859 E38.22666
G1 X54.199 Y-44.718 E38.23772
G1 F1800 E33.73772
G0 F6000 X54.272 Y-44.894
G0 X53.477 Y-45.09
G0 X53.477 Y-46.165
G0 X16.086 Y-38.305
G0 X17.111 Y-38.59
G0 X17.305 Y-38.643
G1 F1800 E38.23772
G1 F1200 X17.06 Y-39.219 E38.25652
G1 X16.674 Y-39.71 E38.27528
G1 X16.174 Y-40.085 E38.29406
G1 X15.595 Y-40.318 E38.3128
G1 X14.975 Y-40.393 E38.33156
G1 X14.357 Y-40.305 E38.35031
G1 X13.781 Y-40.06 E38.36912
G1 X13.29 Y-39.674 E38.38788
G1 X12.915 Y-39.174 E38.40665
G1 X12.682 Y-38.595 E38.4254
G1 X12.607 Y-37.975 E38.44416
G1 X12.695 Y-37.357 E38.46291
G1 X12.94 Y-36.781 E38.48171
G1 X13.326 Y-36.29 E38.50047
G1 X13.826 Y-35.915 E38.51924
G1 X14.405 Y-35.682 E38.53799
G1 X15.025 Y-35.607 E38.55675
G1 X15.643 Y-35.695 E38.5755
G1 X16.219 Y-35.94 E38.5943
G1 X16.71 Y-36.326 E38.61306
G1 X17.082 Y-36.823 E38.63171
G1 X17.314 Y-37.383 E38.64992
G1 X17.393 Y-38.025 E38.66935
G1 X17.305 Y-38.643 E38.6881
G1 F1800 E34.1881
G0 F6000 X17.119 Y-38.591
G0 X17.12 Y-37.434
G0 X16.09 Y-37.702
G0 X47.987 Y-4.128
G0 X47.977 Y-5.192
G0 X48.595 Y-5.318
G1 F1800 E38.6881
G1 F1200 X47.975 Y-5.393 E38.70686
G1 X47.357 Y-5.305 E38.72561
G1 X46.781 Y-5.06 E38.74441
G1 X46.29 Y-4.674 E38.76317
G1 X45.915 Y-4.174 E38.78195
G1 X45.682 Y-3.595 E38.80069
G1 X45.607 Y-2.975 E38.81945
G1 X45.695 Y-2.357 E38.8382
G1 X45.94 Y-1.781 E38.85701
G1 X46.326 Y-1.29 E38.87577
G1 X46.826 Y-.915 E38.89454
G1 X47.405 Y-.682 E38.91329
G1 X48.025 Y-.607 E38.93205
G1 X48.643 Y-.695 E38.9508
G1 X49.219 Y-.94 E38.9696
G1 X49.71 Y-1.326 E38.98836
G1 X50.082 Y-1.823 E39.00701
G1 X50.314 Y-2.383 E39.02522
G1 X50.393 Y-3.025 E39.04465
G1 X50.305 Y-3.643 E39.0634
G1 X50.06 Y-4.219 E39.0822
G1 X49.674 Y-4.71 E39.10096
G1 X49.174 Y-5.085 E39.11973
G1 X48.595 Y-5.318 E39.13848
G1 F1800 E34.63848
G0 F6000 X48.546 Y-5.131
G0 X47.425 Y-5.061
G0 X46.471 Y-4.497
G0 X45.927 Y-3.531
G0 X45.905 Y-2.666
G0 X46.114 Y-1.884
G0 X47.028 Y-2.428
G0 X-9.028 Y37.428
G0 X-8.114 Y36.884
G0 X-8.326 Y36.29
G1 F1800 E39.13848
G1 F1200 X-8.826 Y35.915 E39.15726
G1 X-9.405 Y35.682 E39.176
G1 X-10.025 Y35.607 E39.19476
G1 X-10.643 Y35.695 E39.21351
G1 X-11.219 Y35.94 E39.23231
G1 X-11.71 Y36.326 E39.25108
G1 X-12.085 Y36.826 E39.26985
G1 X-12.318 Y37.405 E39.2886
G1 X-12.393 Y38.025 E39.30736
G1 X-12.305 Y38.643 E39.32611
G1 X-12.06 Y39.219 E39.34491
G1 X-11.674 Y39.71 E39.36367
G1 X-11.174 Y40.085 E39.38244
G1 X-10.595 Y40.318 E39.40119
G1 X-9.975 Y40.393 E39.41995
G1 X-9.357 Y40.305 E39.4387
G1 X-8.781 Y40.06 E39.4575
G1 X-8.29 Y39.674 E39.47626
G1 X-7.918 Y39.177 E39.49491
G1 X-7.686 Y38.617 E39.51312
G1 X-7.607 Y37.975 E39.53255
G1 X-7.695 Y37.357 E39.5513
G1 X-7.94 Y36.781 E39.5701
G1 X-8.326 Y36.29 E39.58886
G1 F1800 E35.08886
G0 F6000 X-8.461 Y36.428
G0 X-9.244 Y36.018
G0 X-10.023 Y35.808
G0 X-10.013 Y36.872
G0 X-44.193 Y-37.211
G0 X-43.434 Y-36.466
G0 X-43.021 Y-37.231
G0 X-42.801 Y-38.023
G0 X-42.607 Y-38.025
G1 F1800 E39.58886
G1 F1200 X-42.695 Y-38.643 E39.60761
G1 X-42.94 Y-39.219 E39.62641
G1 X-43.326 Y-39.71 E39.64518
G1 X-43.826 Y-40.085 E39.66395
G1 X-44.405 Y-40.318 E39.6827
G1 X-45.025 Y-40.393 E39.70146
G1 X-45.643 Y-40.305 E39.72021
G1 X-46.219 Y-40.06 E39.73901
G1 X-46.71 Y-39.674 E39.75777
G1 X-47.085 Y-39.174 E39.77654
G1 X-47.318 Y-38.595 E39.79529
G1 X-47.393 Y-37.975 E39.81405
G1 X-47.305 Y-37.357 E39.8328
G1 X-47.06 Y-36.781 E39.8516
G1 X-46.674 Y-36.29 E39.87036
G1 X-46.174 Y-35.915 E39.88914
G1 X-45.595 Y-35.682 E39.90788
G1 X-44.975 Y-35.607 E39.92664
G1 X-44.357 Y-35.695 E39.94539
G1 X-43.781 Y-35.94 E39.9642
G1 X-43.29 Y-36.326 E39.98296
G1 X-42.918 Y-36.823 E40.00161
G1 X-42.686 Y-37.383 E40.01981
G1 X-42.607 Y-38.025 E40.03924
G1 F1800 E35.53924
G0 F6000 X-42.801 Y-38.023
G0 X-43.434 Y-36.466
G0 X-44.193 Y-37.211
G0 X-56.165 Y-36.466
G0 X-55.09 Y-36.466
G0 X-55.097 Y-20.583
G0 X-55.129 Y43.479
G0 X-54.693 Y43.735
G1 F1800 E40.03924
G1 F1200 X-53.735 Y44.693 E40.07994
G0 F6000 X-53.133 Y44.73
G1 F1200 X-54.729 Y43.134 E40.14774
G0 F6000 X-54.729 Y42.568
G1 F1200 X-52.567 Y44.73 E40.23958
G0 F6000 X-52.002 Y44.73
G1 F1200 X-54.729 Y42.002 E40.35544
G0 F6000 X-54.729 Y41.437
G1 F1200 X-51.436 Y44.73 E40.49533
G0 F6000 X-50.87 Y44.73
G1 F1200 X-54.729 Y40.871 E40.65926
G0 F6000 X-54.729 Y40.305
G1 F1200 X-50.304 Y44.73 E40.84724
G0 F6000 X-49.739 Y44.73
G1 F1200 X-54.729 Y39.74 E41.05921
G0 F6000 X-54.729 Y39.174
G1 F1200 X-49.173 Y44.73 E41.29523
G0 F6000 X-48.607 Y44.73
G1 F1200 X-54.729 Y38.608 E41.5553
G0 F6000 X-54.729 Y38.043
G1 F1200 X-48.042 Y44.73 E41.83936
G0 F6000 X-47.476 Y44.73
G1 F1200 X-54.729 Y37.477 E42.14747
G0 F6000 X-54.729 Y36.911
G1 F1200 X-46.91 Y44.73 E42.47963
G0 F6000 X-46.345 Y44.73
G1 F1200 X-54.729 Y36.345 E42.8358
G0 F6000 X-54.729 Y35.78
G1 F1200 X-45.779 Y44.73 E43.216
G0 F6000 X-45.213 Y44.73
G1 F1200 X-54.729 Y35.214 E43.62024
G0 F6000 X-54.729 Y34.648
G1 F1200 X-44.648 Y44.73 E44.04851
G0 F6000 X-44.082 Y44.73
G1 F1200 X-54.729 Y34.083 E44.50079
G0 F6000 X-54.729 Y33.517
G1 F1200 X-43.516 Y44.73 E44.97712
G0 F6000 X-42.951 Y44.73
G1 F1200 X-54.729 Y32.951 E45.47748
G0 F6000 X-54.729 Y32.386
G1 F1200 X-42.385 Y44.73 E46.00185
G0 F6000 X-41.819 Y44.73
G1 F1200 X-54.729 Y31.82 E46.55027
G0 F6000 X-54.729 Y31.254
G1 F1200 X-41.254 Y44.73 E47.12272
G0 F6000 X-40.688 Y44.73
G1 F1200 X-54.729 Y30.689 E47.71918
G0 F6000 X-54.729 Y30.123
G1 F1200 X-40.122 Y44.73 E48.33969
G0 F6000 X-39.556 Y44.73
G1 F1200 X-54.729 Y29.557 E48.98424
G0 F6000 X-54.729 Y28.992
G1 F1200 X-38.991 Y44.73 E49.6528
G0 F6000 X-38.425 Y44.73
G1 F1200 X-54.729 Y28.426 E50.34539
G0 F6000 X-54.729 Y27.86
G1 F1200 X-37.859 Y44.73 E51.06203
G0 F6000 X-37.294 Y44.73
G1 F1200 X-54.729 Y27.295 E51.80268
G0 F6000 X-54.729 Y26.729
G1 F1200 X-36.728 Y44.73 E52.56736
G0 F6000 X-36.162 Y44.73
G1 F1200 X-54.729 Y26.163 E53.35609
G0 F6000 X-54.729 Y25.597
G1 F1200 X-35.597 Y44.73 E54.16885
G0 F6000 X-35.031 Y44.73
G1 F1200 X-54.729 Y25.032 E55.00562
G0 F6000 X-54.729 Y24.466
G1 F1200 X-34.465 Y44.73 E55.86644
G0 F6000 X-33.9 Y44.73
G1 F1200 X-54.729 Y23.9 E56.75128
G0 F6000 X-54.729 Y23.335
G1 F1200 X-33.334 Y44.73 E57.66015
G0 F6000 X-32.768 Y44.73
G1 F1200 X-54.729 Y22.769 E58.59306
G0 F6000 X-54.729 Y22.203
G1 F1200 X-32.203 Y44.73 E59.54999
G0 F6000 X-31.637 Y44.73
G1 F1200 X-54.729 Y21.638 E60.53094
G0 F6000 X-54.729 Y21.072
G1 F1200 X-31.071 Y44.73 E61.53594
G0 F6000 X-30.506 Y44.73
G1 F1200 X-54.729 Y20.506 E62.56496
G0 F6000 X-54.729 Y19.941
G1 F1200 X-29.94 Y44.73 E63.618
G0 F6000 X-29.374 Y44.73
G1 F1200 X-54.729 Y19.375 E64.69509
G0 F6000 X-54.729 Y18.809
G1 F1200 X-28.808 Y44.73 E65.79622
G0 F6000 X-28.243 Y44.73
G1 F1200 X-54.729 Y18.244 E66.92135
G0 F6000 X-54.729 Y17.678
G1 F1200 X-27.677 Y44.73 E68.07052
G0 F6000 X-27.111 Y44.73
G1 F1200 X-54.729 Y17.112 E69.24374
G0 F6000 X-54.729 Y16.547
G1 F1200 X-26.546 Y44.73 E70.44096
G0 F6000 X-25.98 Y44.73
G1 F1200 X-54.729 Y15.981 E71.66223
G0 F6000 X-54.729 Y15.415
G1 F1200 X-25.414 Y44.73 E72.90754
G0 F6000 X-24.849 Y44.73
G1 F1200 X-54.729 Y14.849 E74.17687
