;generated by ffslicer 1.14.1 02/05/20 15:58:28
;start gcode
M118 X55.00 Y5.00 Z10.00 T0
M140 S80 T0
M104 S240 T0
M104 S0 T1
M107
G90
G28
M132 X Y Z A B
G1 Z50.00 F400
G161 X Y F3300
M7 T0
M6 T0
M651
M907 X100 Y100 Z40 A100 B20
M108 T0
G1 X4.40 Y-4.40 F9000
;raft
;layer:0.25
;shell
M108 T0
G1 Z.25 F400
;extrude_ratio:1.28235
G1 X4.40 Y-4.40 F6000
G1 X4.40 Y4.40 E.3988 F1200
G1 X-4.40 Y4.40 E.7976
G1 X-4.40 Y-4.40 E1.1964
G1 X-3.70 Y-4.40 E1.2281
G1 X-1.70 Y-4.40 E1.3187 F1064
G1 X.30 Y-4.40 E1.4094 F860
G1 X2.30 Y-4.40 E1.5000 F655
G1 X4.30 Y-4.40 E1.5906 F450
G1 X4.80 Y-4.80 E1.5906 F300
G1 X4.80 Y4.80 E2.0257 F1166
G1 X-4.80 Y4.80 E2.4607
G1 X-4.80 Y-4.80 E2.8958
G1 X4.70 Y-4.80 E3.3263
G1 X4.30 Y-4.40 E3.3348 F300
;infill
;extrude_ratio:1
G1 X4.06 Y-3.67 F6000
G1 X4.06 Y-3.67
G1 X3.67 Y-4.06 E3.3543 F1200
G1 X3.10 Y-4.06 E3.3744
G1 X4.06 Y-3.10 E3.4224
G1 X4.06 Y-2.54 E3.4422
G1 X2.54 Y-4.06 E3.5182
G1 X1.97 Y-4.06 E3.5383
G1 X4.06 Y-1.97 E3.6427
G1 X4.06 Y-1.41 E3.6625
G1 X1.41 Y-4.06 E3.7950
G1 X.84 Y-4.06 E3.8151
G1 X4.06 Y-.84 E3.9760
G1 X4.06 Y-.28 E3.9958
G1 X.28 Y-4.06 E4.1847
G1 X-.29 Y-4.06 E4.2049
G1 X4.06 Y.29 E4.4223
G1 X4.06 Y.86 E4.4424
G1 X-.86 Y-4.06 E4.6883
G1 X-1.42 Y-4.06 E4.7081
G1 X4.06 Y1.42 E4.9820
G1 X4.06 Y1.99 E5.0021
G1 X-1.99 Y-4.06 E5.3045
G1 X-2.55 Y-4.06 E5.3243
G1 X4.06 Y2.55 E5.6546
G1 X4.06 Y3.12 E5.6748
G1 X-3.12 Y-4.06 E6.0336
G1 X-3.68 Y-4.06 E6.0534
G1 X4.06 Y3.68 E6.4402
G1 X4.06 Y4.06 E6.4536
G1 X3.87 Y4.06 E6.4603
G1 X-4.06 Y-3.87 E6.8567
G1 X-4.06 Y-3.30 E6.8768
G1 X3.30 Y4.06 E7.2446
G1 X2.74 Y4.06 E7.2644
G1 X-4.06 Y-2.74 E7.6043
G1 X-4.06 Y-2.17 E7.6244
G1 X2.17 Y4.06 E7.9358
G1 X1.61 Y4.06 E7.9556
G1 X-4.06 Y-1.61 E8.2389
G1 X-4.06 Y-1.04 E8.2591
G1 X1.04 Y4.06 E8.5139
G1 X.47 Y4.06 E8.5341
G1 X-4.06 Y-.47 E8.7605
G1 X-4.06 Y.09 E8.7803
G1 X-.09 Y4.06 E8.9787
G1 X-.66 Y4.06 E8.9988
G1 X-4.06 Y.66 E9.1687
G1 X-4.06 Y1.22 E9.1885
G1 X-1.22 Y4.06 E9.3305
G1 X-1.79 Y4.06 E9.3506
G1 X-4.06 Y1.79 E9.4641
G1 X-4.06 Y2.35 E9.4838
G1 X-2.35 Y4.06 E9.5693
G1 X-2.92 Y4.06 E9.5895
G1 X-4.06 Y2.92 E9.6464
G1 X-4.06 Y3.49 E9.6666
G1 X-3.49 Y4.06 E9.6951
G1 X-4.06 Y4.05 E9.7152
;shell
G1 E5.2152 F1800
G1 X-25.60 Y-4.40 F6000
G1 E9.7152 F1800
;extrude_ratio:1.28235
G1 X-25.60 Y-4.40 F6000
G1 X-25.60 Y4.40 E10.1140 F1200
G1 X-34.40 Y4.40 E10.5128
G1 X-34.40 Y-4.40 E10.9116
G1 X-33.70 Y-4.40 E10.9433
G1 X-31.70 Y-4.40 E11.0339 F1065
G1 X-29.70 Y-4.40 E11.1246 F860
G1 X-27.70 Y-4.40 E11.2152 F655
G1 X-25.70 Y-4.40 E11.3058 F450
G1 X-25.20 Y-4.80 E11.3058 F300
G1 X-25.20 Y4.80 E11.7409 F1166
G1 X-34.80 Y4.80 E12.1759
G1 X-34.80 Y-4.80 E12.6110
G1 X-25.30 Y-4.80 E13.0415
G1 X-25.70 Y-4.40 E13.0500 F300
;infill
;extrude_ratio:1
G1 X-25.94 Y-3.67 F6000
G1 X-25.94 Y-3.67
G1 X-26.33 Y-4.06 E13.0695 F1200
G1 X-26.90 Y-4.06 E13.0896
G1 X-25.94 Y-3.10 E13.1376
G1 X-25.94 Y-2.53 E13.1577
G1 X-27.46 Y-4.06 E13.2340
G1 X-28.03 Y-4.06 E13.2541
G1 X-25.94 Y-1.97 E13.3586
G1 X-25.94 Y-1.40 E13.3787
G1 X-28.59 Y-4.06 E13.5114
G1 X-29.16 Y-4.06 E13.5315
G1 X-25.94 Y-.84 E13.6925
G1 X-25.94 Y-.27 E13.7126
G1 X-29.73 Y-4.06 E13.9020
G1 X-30.29 Y-4.06 E13.9218
G1 X-25.94 Y.29 E14.1392
G1 X-25.94 Y.86 E14.1593
G1 X-30.86 Y-4.06 E14.4052
G1 X-31.42 Y-4.06 E14.4250
G1 X-25.94 Y1.43 E14.6991
G1 X-25.94 Y1.99 E14.7189
G1 X-31.99 Y-4.06 E15.0213
G1 X-32.55 Y-4.06 E15.0411
G1 X-25.94 Y2.56 E15.3717
G1 X-25.94 Y3.12 E15.3915
G1 X-33.12 Y-4.06 E15.7503
G1 X-33.69 Y-4.06 E15.7704
G1 X-25.94 Y3.69 E16.1578
G1 X-25.94 Y4.06 E16.1708
G1 X-26.13 Y4.06 E16.1776
G1 X-34.06 Y-3.87 E16.5739
G1 X-34.06 Y-3.30 E16.5940
G1 X-26.70 Y4.06 E16.9618
G1 X-27.26 Y4.06 E16.9816
G1 X-34.06 Y-2.74 E17.3215
G1 X-34.06 Y-2.17 E17.3416
G1 X-27.83 Y4.06 E17.6530
G1 X-28.39 Y4.06 E17.6728
G1 X-34.06 Y-1.60 E17.9559
G1 X-34.06 Y-1.04 E17.9757
G1 X-28.96 Y4.06 E18.2305
G1 X-29.53 Y4.06 E18.2507
G1 X-34.06 Y-.47 E18.4771
G1 X-34.06 Y.09 E18.4969
G1 X-30.09 Y4.06 E18.6953
G1 X-30.66 Y4.06 E18.7154
G1 X-34.06 Y.66 E18.8853
G1 X-34.06 Y1.22 E18.9051
G1 X-31.22 Y4.06 E19.0471
G1 X-31.79 Y4.06 E19.0672
G1 X-34.06 Y1.79 E19.1807
G1 X-34.06 Y2.36 E19.2008
G1 X-32.35 Y4.06 E19.2860
G1 X-32.92 Y4.06 E19.3062
G1 X-34.06 Y2.92 E19.3631
G1 X-34.06 Y3.49 E19.3833
G1 X-33.49 Y4.06 E19.4118
G1 X-34.06 Y4.05 E19.4319
;shell
G1 E14.9319 F1800
G1 X-45.60 Y-4.40 F6000
G1 E19.4319 F1800
;extrude_ratio:1.28235
G1 X-45.60 Y-4.40 F6000
G1 X-45.60 Y4.40 E19.8307 F1200
G1 X-54.40 Y4.40 E20.2295
G1 X-54.40 Y-4.40 E20.6283
G1 X-53.70 Y-4.40 E20.6600
G1 X-51.70 Y-4.40 E20.7506 F1065
G1 X-49.70 Y-4.40 E20.8413 F860
G1 X-47.70 Y-4.40 E20.9319 F655
G1 X-45.70 Y-4.40 E21.0225 F450
G1 X-45.20 Y-4.80 E21.0225 F300
G1 X-45.20 Y4.80 E21.4576 F1166
G1 X-54.80 Y4.80 E21.8926
G1 X-54.80 Y-4.80 E22.3277
G1 X-45.30 Y-4.80 E22.7582
G1 X-45.70 Y-4.40 E22.7667 F300
;infill
;extrude_ratio:1
G1 X-45.94 Y-3.67 F6000
G1 X-45.94 Y-3.67
G1 X-46.33 Y-4.06 E22.7862 F1200
G1 X-46.90 Y-4.06 E22.8063
G1 X-45.94 Y-3.10 E22.8543
G1 X-45.94 Y-2.53 E22.8745
G1 X-47.46 Y-4.06 E22.9507
G1 X-48.03 Y-4.06 E22.9708
G1 X-45.94 Y-1.97 E23.0753
G1 X-45.94 Y-1.40 E23.0954
G1 X-48.59 Y-4.06 E23.2281
G1 X-49.16 Y-4.06 E23.2482
G1 X-45.94 Y-.84 E23.4092
G1 X-45.94 Y-.27 E23.4293
G1 X-49.73 Y-4.06 E23.6187
G1 X-50.29 Y-4.06 E23.6385
G1 X-45.94 Y.29 E23.8559
G1 X-45.94 Y.86 E23.8760
G1 X-50.86 Y-4.06 E24.1219
G1 X-51.42 Y-4.06 E24.1417
G1 X-45.94 Y1.43 E24.4158
G1 X-45.94 Y1.99 E24.4356
G1 X-51.99 Y-4.06 E24.7380
G1 X-52.55 Y-4.06 E24.7578
G1 X-45.94 Y2.56 E25.0884
G1 X-45.94 Y3.12 E25.1082
G1 X-53.12 Y-4.06 E25.4670
G1 X-53.68 Y-4.06 E25.4868
G1 X-45.94 Y3.69 E25.8739
G1 X-45.94 Y4.06 E25.8869
G1 X-46.13 Y4.06 E25.8936
G1 X-54.06 Y-3.87 E26.2900
G1 X-54.06 Y-3.30 E26.3101
G1 X-46.70 Y4.06 E26.6779
G1 X-47.26 Y4.06 E26.6977
G1 X-54.06 Y-2.74 E27.0376
G1 X-54.06 Y-2.17 E27.0577
G1 X-47.83 Y4.06 E27.3691
G1 X-48.39 Y4.06 E27.3889
G1 X-54.06 Y-1.60 E27.6720
G1 X-54.06 Y-1.04 E27.6918
G1 X-48.96 Y4.06 E27.9466
G1 X-49.53 Y4.06 E27.9668
G1 X-54.06 Y-.47 E28.1932
G1 X-54.06 Y.09 E28.2130
G1 X-50.09 Y4.06 E28.4114
G1 X-50.66 Y4.06 E28.4315
G1 X-54.06 Y.66 E28.6014
G1 X-54.06 Y1.22 E28.6212
G1 X-51.22 Y4.06 E28.7632
G1 X-51.79 Y4.06 E28.7833
G1 X-54.06 Y1.79 E28.8968
G1 X-54.06 Y2.36 E28.9169
G1 X-52.35 Y4.06 E29.0021
G1 X-52.92 Y4.06 E29.0223
G1 X-54.06 Y2.92 E29.0792
G1 X-54.06 Y3.49 E29.0994
G1 X-53.49 Y4.06 E29.1279
G1 X-54.06 Y4.05 E29.1480
;shell
G1 E24.6480 F1800
G1 X54.40 Y-4.40 F6000
G1 E29.1480 F1800
;extrude_ratio:1.28235
G1 X54.40 Y-4.40 F6000
G1 X54.40 Y4.40 E29.5468 F1200
G1 X45.60 Y4.40 E29.9456
G1 X45.60 Y-4.40 E30.3444
G1 X46.30 Y-4.40 E30.3761
G1 X48.30 Y-4.40 E30.4667 F1065
G1 X50.30 Y-4.40 E30.5574 F860
G1 X52.30 Y-4.40 E30.6480 F655
G1 X54.30 Y-4.40 E30.7386 F450
G1 X54.80 Y-4.80 E30.7386 F300
G1 X54.80 Y4.80 E31.1737 F1166
G1 X45.20 Y4.80 E31.6087
G1 X45.20 Y-4.80 E32.0438
G1 X54.70 Y-4.80 E32.4743
G1 X54.30 Y-4.40 E32.4828 F300
;infill
;extrude_ratio:1
G1 X54.06 Y-3.67 F6000
G1 X54.06 Y-3.67
G1 X53.67 Y-4.06 E32.5023 F1200
G1 X53.10 Y-4.06 E32.5224
G1 X54.06 Y-3.10 E32.5704
G1 X54.06 Y-2.53 E32.5905
G1 X52.54 Y-4.06 E32.6668
G1 X51.97 Y-4.06 E32.6869
G1 X54.06 Y-1.97 E32.7914
G1 X54.06 Y-1.40 E32.8115
G1 X51.40 Y-4.06 E32.9444
G1 X50.84 Y-4.06 E32.9642
G1 X54.06 Y-.84 E33.1252
G1 X54.06 Y-.27 E33.1453
G1 X50.27 Y-4.06 E33.3347
G1 X49.71 Y-4.06 E33.3545
G1 X54.06 Y.29 E33.5719
G1 X54.06 Y.86 E33.5920
G1 X49.14 Y-4.06 E33.8379
G1 X48.58 Y-4.06 E33.8577
G1 X54.06 Y1.43 E34.1318
G1 X54.06 Y1.99 E34.1516
G1 X48.01 Y-4.06 E34.4540
G1 X47.44 Y-4.06 E34.4741
G1 X54.06 Y2.56 E34.8050
G1 X54.06 Y3.12 E34.8248
G1 X46.88 Y-4.06 E35.1836
G1 X46.31 Y-4.06 E35.2037
G1 X54.06 Y3.69 E35.5911
G1 X54.06 Y4.06 E35.6041
G1 X53.87 Y4.06 E35.6109
G1 X45.94 Y-3.87 E36.0072
G1 X45.94 Y-3.30 E36.0273
G1 X53.30 Y4.06 E36.3951
G1 X52.73 Y4.06 E36.4153
G1 X45.94 Y-2.74 E36.7549
G1 X45.94 Y-2.17 E36.7750
G1 X52.17 Y4.06 E37.0864
G1 X51.60 Y4.06 E37.1065
G1 X45.94 Y-1.60 E37.3894
G1 X45.94 Y-1.04 E37.4092
G1 X51.04 Y4.06 E37.6641
G1 X50.47 Y4.06 E37.6842
G1 X45.94 Y-.47 E37.9106
G1 X45.94 Y.09 E37.9304
G1 X49.91 Y4.06 E38.1288
G1 X49.34 Y4.06 E38.1489
G1 X45.94 Y.66 E38.3189
G1 X45.94 Y1.22 E38.3387
G1 X48.77 Y4.06 E38.4803
G1 X48.21 Y4.06 E38.5001
G1 X45.94 Y1.79 E38.6136
G1 X45.94 Y2.36 E38.6337
G1 X47.64 Y4.06 E38.7187
G1 X47.08 Y4.06 E38.7385
G1 X45.94 Y2.92 E38.7954
G1 X45.94 Y3.49 E38.8156
G1 X46.51 Y4.06 E38.8441
G1 X45.94 Y4.05 E38.8642
;percent
;layer:0.25
;shell
G1 Z.50 F400
G1 X54.40 Y-4.40 F9000
G1 X54.40 Y-4.40
G1 X54.40 Y-.88 E38.9886 F1685
G1 X54.40 Y2.64 E39.1130 F1769
G1 X54.40 Y4.40 E39.1752 F1853
G1 X52.64 Y4.40 E39.2374
G1 X49.12 Y4.40 E39.3618 F1937
G1 X45.60 Y4.40 E39.4862 F2022
G1 X45.60 Y-4.40 E39.7972 F1775
G1 X46.30 Y-4.40 E39.8219
G1 X48.30 Y-4.40 E39.8926 F1444
G1 X50.30 Y-4.40 E39.9633 F1112
G1 X52.30 Y-4.40 E40.0339 F781
G1 X54.30 Y-4.40 E40.1046 F450
G1 X54.80 Y-4.80 E40.1046 F300
G1 X54.80 Y4.80 E40.4439 F1166
G1 X45.20 Y4.80 E40.7831
G1 X45.20 Y-4.80 E41.1224
G1 X54.70 Y-4.80 E41.4581
G1 X54.30 Y-4.40 E41.4647 F300
;infill
G1 X46.33 Y-4.06 F9000
G1 X46.33 Y-4.06
G1 X45.94 Y-3.67 E41.4842 F2100
G1 X45.94 Y-3.10 E41.5044
G1 X46.90 Y-4.06 E41.5524
G1 X47.46 Y-4.06 E41.5722
G1 X45.94 Y-2.53 E41.6484
G1 X45.94 Y-1.97 E41.6682
G1 X48.03 Y-4.06 E41.7726
G1 X48.60 Y-4.06 E41.7928
G1 X45.94 Y-1.40 E41.9257
G1 X45.94 Y-.84 E41.9455
G1 X49.16 Y-4.06 E42.1064
G1 X49.73 Y-4.06 E42.1266
G1 X45.94 Y-.27 E42.3160
G1 X45.94 Y.29 E42.3358
G1 X50.29 Y-4.06 E42.5532
G1 X50.86 Y-4.06 E42.5733
G1 X45.94 Y.86 E42.8192
G1 X45.94 Y1.43 E42.8393
G1 X51.42 Y-4.06 E43.1134
G1 X51.99 Y-4.06 E43.1336
G1 X45.94 Y1.99 E43.4359
G1 X45.94 Y2.56 E43.4561
G1 X52.56 Y-4.06 E43.7869
G1 X53.12 Y-4.06 E43.8067
G1 X45.94 Y3.12 E44.1656
G1 X45.94 Y3.69 E44.1857
G1 X53.69 Y-4.06 E44.5730
G1 X54.06 Y-4.06 E44.5861
G1 X54.06 Y-3.87 E44.5928
G1 X46.13 Y4.06 E44.9891
G1 X46.70 Y4.06 E45.0093
G1 X54.06 Y-3.30 E45.3771
G1 X54.06 Y-2.74 E45.3969
G1 X47.26 Y4.06 E45.7367
G1 X47.83 Y4.06 E45.7569
G1 X54.06 Y-2.17 E46.0682
G1 X54.06 Y-1.60 E46.0884
G1 X48.40 Y4.06 E46.3713
G1 X48.96 Y4.06 E46.3910
G1 X54.06 Y-1.04 E46.6459
G1 X54.06 Y-.47 E46.6661
G1 X49.53 Y4.06 E46.8925
G1 X50.09 Y4.06 E46.9123
G1 X54.06 Y.09 E47.1107
G1 X54.06 Y.66 E47.1308
G1 X50.66 Y4.06 E47.3007
G1 X51.22 Y4.06 E47.3205
G1 X54.06 Y1.22 E47.4624
G1 X54.06 Y1.79 E47.4826
G1 X51.79 Y4.06 E47.5960
G1 X52.36 Y4.06 E47.6162
G1 X54.06 Y2.36 E47.7011
G1 X54.06 Y2.92 E47.7209
G1 X52.92 Y4.06 E47.7779
G1 X53.49 Y4.06 E47.7980
G1 X54.06 Y3.49 E47.8265
G1 X54.05 Y4.06 E47.8467
;shell
G1 E43.3467 F1800
G1 X4.40 Y-4.40 F9000
G1 E47.8467 F1800
G1 X4.40 Y-4.40 F9000
G1 X4.40 Y-.88 E47.9711 F1685
G1 X4.40 Y2.64 E48.0955 F1769
G1 X4.40 Y4.40 E48.1577 F1853
G1 X2.64 Y4.40 E48.2199
G1 X-.88 Y4.40 E48.3443 F1937
G1 X-4.40 Y4.40 E48.4686 F2022
G1 X-4.40 Y-4.40 E48.7796 F1775
G1 X-3.70 Y-4.40 E48.8044
G1 X-1.70 Y-4.40 E48.8750 F1443
G1 X.30 Y-4.40 E48.9457 F1112
G1 X2.30 Y-4.40 E49.0164 F781
G1 X4.30 Y-4.40 E49.0871 F450
G1 X4.80 Y-4.80 E49.0871 F300
G1 X4.80 Y4.80 E49.4263 F1166
G1 X-4.80 Y4.80 E49.7656
G1 X-4.80 Y-4.80 E50.1048
G1 X4.70 Y-4.80 E50.4406
G1 X4.30 Y-4.40 E50.4472 F300
;infill
G1 X-3.67 Y-4.06 F9000
G1 X-3.67 Y-4.06
G1 X-4.06 Y-3.67 E50.4667 F2100
G1 X-4.06 Y-3.10 E50.4869
G1 X-3.10 Y-4.06 E50.5348
G1 X-2.54 Y-4.06 E50.5546
G1 X-4.06 Y-2.54 E50.6306
G1 X-4.06 Y-1.97 E50.6507
G1 X-1.97 Y-4.06 E50.7552
G1 X-1.41 Y-4.06 E50.7750
G1 X-4.06 Y-1.41 E50.9074
G1 X-4.06 Y-.84 E50.9276
G1 X-.84 Y-4.06 E51.0885
G1 X-.27 Y-4.06 E51.1086
G1 X-4.06 Y-.27 E51.2980
G1 X-4.06 Y.29 E51.3178
G1 X.29 Y-4.06 E51.5352
G1 X.86 Y-4.06 E51.5554
G1 X-4.06 Y.86 E51.8013
G1 X-4.06 Y1.42 E51.8210
G1 X1.42 Y-4.06 E52.0949
G1 X1.99 Y-4.06 E52.1151
G1 X-4.06 Y1.99 E52.4174
G1 X-4.06 Y2.55 E52.4372
G1 X2.55 Y-4.06 E52.7676
G1 X3.12 Y-4.06 E52.7877
G1 X-4.06 Y3.12 E53.1465
G1 X-4.06 Y3.69 E53.1667
G1 X3.69 Y-4.06 E53.5540
G1 X4.06 Y-4.06 E53.5671
G1 X4.06 Y-3.87 E53.5738
G1 X-3.87 Y4.06 E53.9701
G1 X-3.30 Y4.06 E53.9902
G1 X4.06 Y-3.30 E54.3581
G1 X4.06 Y-2.74 E54.3779
G1 X-2.74 Y4.06 E54.7177
G1 X-2.17 Y4.06 E54.7378
G1 X4.06 Y-2.17 E55.0492
G1 X4.06 Y-1.60 E55.0694
G1 X-1.60 Y4.06 E55.3522
G1 X-1.04 Y4.06 E55.3720
G1 X4.06 Y-1.04 E55.6269
G1 X4.06 Y-.47 E55.6470
G1 X-.47 Y4.06 E55.8734
G1 X.09 Y4.06 E55.8932
G1 X4.06 Y.09 E56.0916
G1 X4.06 Y.66 E56.1118
G1 X.66 Y4.06 E56.2817
G1 X1.22 Y4.06 E56.3015
G1 X4.06 Y1.22 E56.4434
G1 X4.06 Y1.79 E56.4636
G1 X1.79 Y4.06 E56.5770
G1 X2.36 Y4.06 E56.5971
G1 X4.06 Y2.36 E56.6821
G1 X4.06 Y2.92 E56.7019
G1 X2.92 Y4.06 E56.7589
G1 X3.49 Y4.06 E56.7790
G1 X4.06 Y3.49 E56.8075
G1 X4.05 Y4.06 E56.8276
;shell
G1 E52.3276 F1800
G1 X-25.60 Y-4.40 F9000
G1 E56.8276 F1800
G1 X-25.60 Y-4.40 F9000
G1 X-25.60 Y-.88 E56.9520 F1685
G1 X-25.60 Y2.64 E57.0764 F1769
G1 X-25.60 Y4.40 E57.1386 F1853
G1 X-27.36 Y4.40 E57.2008
G1 X-30.88 Y4.40 E57.3252 F1937
G1 X-34.40 Y4.40 E57.4496 F2022
G1 X-34.40 Y-4.40 E57.7606 F1775
G1 X-33.70 Y-4.40 E57.7853
G1 X-31.70 Y-4.40 E57.8560 F1444
G1 X-29.70 Y-4.40 E57.9267 F1112
G1 X-27.70 Y-4.40 E57.9974 F781
G1 X-25.70 Y-4.40 E58.0681 F450
G1 X-25.20 Y-4.80 E58.0681 F300
G1 X-25.20 Y4.80 E58.4073 F1166
G1 X-34.80 Y4.80 E58.7466
G1 X-34.80 Y-4.80 E59.0858
G1 X-25.30 Y-4.80 E59.4215
G1 X-25.70 Y-4.40 E59.4282 F300
;infill
G1 X-33.67 Y-4.06 F9000
G1 X-33.67 Y-4.06
G1 X-34.06 Y-3.67 E59.4477 F2100
G1 X-34.06 Y-3.10 E59.4678
G1 X-33.10 Y-4.06 E59.5158
G1 X-32.53 Y-4.06 E59.5359
G1 X-34.06 Y-2.53 E59.6124
G1 X-34.06 Y-1.97 E59.6322
G1 X-31.97 Y-4.06 E59.7366
G1 X-31.40 Y-4.06 E59.7568
G1 X-34.06 Y-1.40 E59.8897
G1 X-34.06 Y-.84 E59.9095
G1 X-30.84 Y-4.06 E60.0704
G1 X-30.27 Y-4.06 E60.0906
G1 X-34.06 Y-.27 E60.2800
G1 X-34.06 Y.29 E60.2998
G1 X-29.71 Y-4.06 E60.5172
G1 X-29.14 Y-4.06 E60.5373
G1 X-34.06 Y.86 E60.7832
G1 X-34.06 Y1.43 E60.8034
G1 X-28.57 Y-4.06 E61.0777
G1 X-28.01 Y-4.06 E61.0975
G1 X-34.06 Y1.99 E61.3999
G1 X-34.06 Y2.56 E61.4200
G1 X-27.44 Y-4.06 E61.7509
G1 X-26.88 Y-4.06 E61.7707
G1 X-34.06 Y3.12 E62.1295
G1 X-34.06 Y3.69 E62.1496
G1 X-26.31 Y-4.06 E62.5370
G1 X-25.94 Y-4.06 E62.5500
G1 X-25.94 Y-3.87 E62.5568
G1 X-33.86 Y4.06 E62.9528
G1 X-33.30 Y4.06 E62.9726
G1 X-25.94 Y-3.30 E63.3404
G1 X-25.94 Y-2.74 E63.3602
G1 X-32.73 Y4.06 E63.6998
G1 X-32.17 Y4.06 E63.7196
G1 X-25.94 Y-2.17 E64.0310
G1 X-25.94 Y-1.60 E64.0511
G1 X-31.60 Y4.06 E64.3340
G1 X-31.04 Y4.06 E64.3538
G1 X-25.94 Y-1.04 E64.6086
G1 X-25.94 Y-.47 E64.6288
G1 X-30.47 Y4.06 E64.8552
G1 X-29.90 Y4.06 E64.8753
G1 X-25.94 Y.09 E65.0735
G1 X-25.94 Y.66 E65.0936
G1 X-29.34 Y4.06 E65.2636
G1 X-28.77 Y4.06 E65.2837
G1 X-25.94 Y1.22 E65.4254
G1 X-25.94 Y1.79 E65.4455
G1 X-28.21 Y4.06 E65.5590
G1 X-27.64 Y4.06 E65.5791
G1 X-25.94 Y2.36 E65.6641
G1 X-25.94 Y2.92 E65.6839
G1 X-27.08 Y4.06 E65.7408
G1 X-26.51 Y4.06 E65.7610
G1 X-25.94 Y3.49 E65.7895
G1 X-25.95 Y4.06 E65.8096
;shell
G1 E61.3096 F1800
G1 X-45.60 Y-4.40 F9000
G1 E65.8096 F1800
G1 X-45.60 Y-4.40 F9000
G1 X-45.60 Y-.88 E65.9340 F1685
G1 X-45.60 Y2.64 E66.0584 F1769
G1 X-45.60 Y4.40 E66.1206 F1853
G1 X-47.36 Y4.40 E66.1828
G1 X-50.88 Y4.40 E66.3072 F1937
G1 X-54.40 Y4.40 E66.4316 F2022
G1 X-54.40 Y-4.40 E66.7425 F1775
G1 X-53.70 Y-4.40 E66.7673
G1 X-51.70 Y-4.40 E66.8380 F1444
G1 X-49.70 Y-4.40 E66.9086 F1112
G1 X-47.70 Y-4.40 E66.9793 F781
G1 X-45.70 Y-4.40 E67.0500 F450
G1 X-45.20 Y-4.80 E67.0500 F300
G1 X-45.20 Y4.80 E67.3893 F1166
G1 X-54.80 Y4.80 E67.7285
G1 X-54.80 Y-4.80 E68.0678
G1 X-45.30 Y-4.80 E68.4035
G1 X-45.70 Y-4.40 E68.4101 F300
;infill
G1 X-53.67 Y-4.06 F9000
G1 X-53.67 Y-4.06
G1 X-54.06 Y-3.67 E68.4296 F2100
G1 X-54.06 Y-3.10 E68.4498
G1 X-53.10 Y-4.06 E68.4977
G1 X-52.53 Y-4.06 E68.5179
G1 X-54.06 Y-2.53 E68.5943
G1 X-54.06 Y-1.97 E68.6141
G1 X-51.97 Y-4.06 E68.7186
G1 X-51.40 Y-4.06 E68.7387
G1 X-54.06 Y-1.40 E68.8717
G1 X-54.06 Y-.84 E68.8914
G1 X-50.84 Y-4.06 E69.0524
G1 X-50.27 Y-4.06 E69.0725
G1 X-54.06 Y-.27 E69.2619
G1 X-54.06 Y.29 E69.2817
G1 X-49.71 Y-4.06 E69.4991
G1 X-49.14 Y-4.06 E69.5192
G1 X-54.06 Y.86 E69.7651
G1 X-54.06 Y1.43 E69.7853
G1 X-48.57 Y-4.06 E70.0596
