;FLAVOR:Marlin
;TIME:2832
;Filament used: 2.82406m
;Layer height: 0.3
;MINX:-27.6
;MINY:-10.6
;MINZ:0.3
;MAXX:25.6
;MAXY:10.6
;MAXZ:73.7

;POSTPROCESSED
;Generated with Cura_SteamEngine 4.4.1
M140 S70
M105
M190 S70
M104 S230
M105
M109 S230
M82 ;absolute extrusion mode
M118 X60.00 Y50.00 Z5.00 T0
M140 S70 T0
M104 S230 T0
M104 S0 T1
M107
G90
G28
M132 X Y Z A B
G1 Z50.00 F400
G161 X Y F3300
M7 T0
M6 T0
M651
M907 X100 Y100 Z40 A100 B20
M108 T0
G1 X60.00 Y50.00 F6000
G92 E0
G92 E0
G1 F2100 E-10
;LAYER_COUNT:247

;LAYER:0
M107
G1 F600 Z2.3
G0 F7200 X21.345 Y-10.6 Z2.3
;TYPE:SKIRT
G1 F600 Z0.3
G1 F2100 E0
G1 F1200 X22.043 Y-10.59 E0.03483
G1 X22.577 Y-10.542 E0.06158
G1 X23.098 Y-10.416 E0.08832
G1 X23.595 Y-10.213 E0.1151
G1 X24.056 Y-9.939 E0.14186
G1 X24.471 Y-9.6 E0.16859
G1 X24.831 Y-9.202 E0.19537
G1 X25.128 Y-8.756 E0.2221
G1 X25.356 Y-8.27 E0.24888
G1 X25.508 Y-7.756 E0.27562
G1 X25.59 Y-7.091 E0.30905
G1 X25.599 Y-6.771 E0.32502
G1 X25.6 Y-6.67 E0.33006
G1 X25.6 Y6.309 E0.97759
G1 X25.591 Y7.036 E1.01386
G1 X25.544 Y7.57 E1.0406
G1 X25.419 Y8.091 E1.06733
G1 X25.217 Y8.588 E1.0941
G1 X24.944 Y9.05 E1.12087
G1 X24.606 Y9.466 E1.14761
G1 X24.209 Y9.827 E1.17438
G1 X23.763 Y10.125 E1.20114
G1 X23.278 Y10.353 E1.22788
G1 X22.764 Y10.507 E1.25465
G1 X22.092 Y10.59 E1.28843
G1 X21.771 Y10.599 E1.30445
G1 X21.67 Y10.6 E1.30949
G1 X-23.339 Y10.6 E3.555
G1 X-24.037 Y10.591 E3.58983
G1 X-24.572 Y10.544 E3.61662
G1 X-25.093 Y10.418 E3.64336
G1 X-25.59 Y10.216 E3.67013
G1 X-26.051 Y9.943 E3.69686
G1 X-26.467 Y9.604 E3.72363
G1 X-26.828 Y9.208 E3.75036
G1 X-27.126 Y8.762 E3.77713
G1 X-27.354 Y8.276 E3.80391
G1 X-27.507 Y7.762 E3.83066
G1 X-27.59 Y7.088 E3.86454
G1 X-27.599 Y6.755 E3.88116
G1 X-27.6 Y6.658 E3.886
G1 X-27.6 Y-6.375 E4.53622
G1 X-27.591 Y-7.04 E4.5694
G1 X-27.543 Y-7.574 E4.59615
G1 X-27.417 Y-8.095 E4.62289
G1 X-27.215 Y-8.592 E4.64966
G1 X-26.942 Y-9.053 E4.67639
G1 X-26.603 Y-9.469 E4.70316
G1 X-26.206 Y-9.829 E4.7299
G1 X-25.759 Y-10.127 E4.7567
G1 X-25.274 Y-10.355 E4.78344
G1 X-24.76 Y-10.508 E4.81019
G1 X-24.092 Y-10.59 E4.84377
G1 X-23.771 Y-10.599 E4.85979
G1 X-23.67 Y-10.6 E4.86483
G1 X21.345 Y-10.6 E7.11064
G0 F7200 X21.339 Y-10.2
G1 F1200 X22.037 Y-10.19 E7.14546
G1 X22.54 Y-10.143 E7.17067
G1 X23.03 Y-10.017 E7.19591
G1 X23.494 Y-9.815 E7.22116
G1 X23.92 Y-9.543 E7.24637
G1 X24.298 Y-9.208 E7.27157
G1 X24.618 Y-8.817 E7.29678
G1 X24.873 Y-8.38 E7.32202
G1 X25.056 Y-7.909 E7.34723
G1 X25.163 Y-7.415 E7.37245
G1 X25.19 Y-7.08 E7.38921
G1 X25.199 Y-6.76 E7.40519
G1 X25.2 Y-6.67 E7.40968
G1 X25.2 Y6.304 E8.05695
G1 X25.191 Y7.031 E8.09322
G1 X25.145 Y7.534 E8.11842
G1 X25.02 Y8.024 E8.14365
G1 X24.819 Y8.488 E8.16888
G1 X24.548 Y8.915 E8.19411
G1 X24.213 Y9.294 E8.21935
G1 X23.823 Y9.615 E8.24455
G1 X23.387 Y9.871 E8.26977
G1 X22.916 Y10.054 E8.29498
G1 X22.422 Y10.162 E8.32021
G1 X22.081 Y10.19 E8.33728
G1 X21.76 Y10.199 E8.3533
G1 X21.67 Y10.2 E8.35779
G1 X-23.334 Y10.2 E10.60305
G1 X-24.032 Y10.191 E10.63788
G1 X-24.536 Y10.144 E10.66313
G1 X-25.026 Y10.019 E10.68836
G1 X-25.49 Y9.818 E10.71359
G1 X-25.916 Y9.547 E10.73878
G1 X-26.295 Y9.212 E10.76401
G1 X-26.616 Y8.821 E10.78925
G1 X-26.871 Y8.385 E10.81445
G1 X-27.055 Y7.914 E10.83968
G1 X-27.162 Y7.42 E10.8649
G1 X-27.19 Y7.077 E10.88207
G1 X-27.199 Y6.744 E10.89868
G1 X-27.2 Y6.658 E10.90298
G1 X-27.2 Y-6.369 E11.5529
G1 X-27.191 Y-7.034 E11.58608
G1 X-27.144 Y-7.538 E11.61133
G1 X-27.018 Y-8.027 E11.63652
G1 X-26.817 Y-8.491 E11.66175
G1 X-26.546 Y-8.918 E11.68698
G1 X-26.211 Y-9.296 E11.71218
G1 X-25.82 Y-9.617 E11.73742
G1 X-25.383 Y-9.872 E11.76266
G1 X-24.912 Y-10.056 E11.78789
G1 X-24.418 Y-10.162 E11.8131
G1 X-24.081 Y-10.19 E11.82997
G1 X-23.76 Y-10.199 E11.84599
G1 X-23.67 Y-10.2 E11.85048
G1 X21.339 Y-10.2 E14.09599
G1 F2100 E4.09599
G1 F600 Z2.3
;MESH:tempTower.stl
G0 F7200 X-23.4 Y6.4 Z2.3
;TYPE:WALL-INNER
G1 F600 Z0.3
G1 F2100 E14.09599
G1 F1200 X-23.4 Y-6.4 E14.73458
G1 X21.4 Y-6.4 E16.96966
G1 X21.4 Y6.4 E17.60826
G1 X-23.4 Y6.4 E19.84334
G0 F7200 X-23.8 Y6.8
;TYPE:WALL-OUTER
G1 F1200 X-23.8 Y-6.8 E20.52184
G1 X21.8 Y-6.8 E22.79684
G1 X21.8 Y6.8 E23.47534
G1 X-23.8 Y6.8 E25.75034
G0 F7200 X-23.8 Y6.6
G0 X-23.36 Y6.36
G0 X-23.01 Y6.01
;TYPE:SKIN
G1 F1200 X-23.01 Y-6.01 E26.35002
G1 X21.01 Y-6.01 E28.54618
G1 X21.01 Y6.01 E29.14586
G1 X-23.01 Y6.01 E31.34203
G0 F7200 X-22.828 Y5.455
G1 F1200 X-22.454 Y5.83 E31.36845
G0 F7200 X-21.888 Y5.83
G1 F1200 X-22.828 Y4.889 E31.43481
G0 F7200 X-22.828 Y4.323
G1 F1200 X-21.322 Y5.83 E31.5411
G0 F7200 X-20.757 Y5.83
G1 F1200 X-22.828 Y3.758 E31.68726
G0 F7200 X-22.828 Y3.192
G1 F1200 X-20.191 Y5.83 E31.87335
G0 F7200 X-19.625 Y5.83
G1 F1200 X-22.828 Y2.626 E32.09937
G0 F7200 X-22.828 Y2.061
G1 F1200 X-19.06 Y5.83 E32.36526
G0 F7200 X-18.494 Y5.83
G1 F1200 X-22.828 Y1.495 E32.67108
G0 F7200 X-22.828 Y0.929
G1 F1200 X-17.928 Y5.83 E33.01684
G0 F7200 X-17.363 Y5.83
G1 F1200 X-22.828 Y0.364 E33.40246
G0 F7200 X-22.828 Y-.201
G1 F1200 X-16.797 Y5.83 E33.82798
G0 F7200 X-16.231 Y5.83
G1 F1200 X-22.828 Y-.767 E34.29343
G0 F7200 X-22.828 Y-1.332
G1 F1200 X-15.665 Y5.83 E34.79879
G0 F7200 X-15.1 Y5.83
G1 F1200 X-22.828 Y-1.898 E35.34404
G0 F7200 X-22.828 Y-2.464
G1 F1200 X-14.534 Y5.83 E35.92923
G0 F7200 X-13.968 Y5.83
G1 F1200 X-22.828 Y-3.029 E36.55431
G0 F7200 X-22.828 Y-3.595
G1 F1200 X-13.403 Y5.83 E37.2193
G0 F7200 X-12.837 Y5.83
G1 F1200 X-22.828 Y-4.161 E37.92422
G0 F7200 X-22.828 Y-4.727
G1 F1200 X-12.271 Y5.83 E38.66907
G0 F7200 X-11.706 Y5.83
G1 F1200 X-22.828 Y-5.292 E39.45379
G0 F7200 X-22.8 Y-5.83
G1 F1200 X-11.14 Y5.83 E40.27646
G0 F7200 X-10.574 Y5.83
G1 F1200 X-22.234 Y-5.83 E41.09914
G0 F7200 X-21.669 Y-5.83
G1 F1200 X-10.009 Y5.83 E41.92181
G0 F7200 X-9.443 Y5.83
G1 F1200 X-21.103 Y-5.83 E42.74449
G0 F7200 X-20.537 Y-5.83
G1 F1200 X-8.877 Y5.83 E43.56717
G0 F7200 X-8.312 Y5.83
G1 F1200 X-19.972 Y-5.83 E44.38984
G0 F7200 X-19.406 Y-5.83
G1 F1200 X-7.746 Y5.83 E45.21252
G0 F7200 X-7.18 Y5.83
G1 F1200 X-18.84 Y-5.83 E46.03519
G0 F7200 X-18.275 Y-5.83
G1 F1200 X-6.614 Y5.83 E46.8579
G0 F7200 X-6.049 Y5.83
G1 F1200 X-17.709 Y-5.83 E47.68058
G0 F7200 X-17.143 Y-5.83
G1 F1200 X-5.483 Y5.83 E48.50326
G0 F7200 X-4.917 Y5.83
G1 F1200 X-16.578 Y-5.83 E49.32597
G0 F7200 X-16.012 Y-5.83
G1 F1200 X-4.352 Y5.83 E50.14864
G0 F7200 X-3.786 Y5.83
G1 F1200 X-15.446 Y-5.83 E50.97132
G0 F7200 X-14.881 Y-5.83
G1 F1200 X-3.22 Y5.83 E51.79403
G0 F7200 X-2.655 Y5.83
G1 F1200 X-14.315 Y-5.83 E52.61671
G0 F7200 X-13.749 Y-5.83
G1 F1200 X-2.089 Y5.83 E53.43938
G0 F7200 X-1.523 Y5.83
G1 F1200 X-13.184 Y-5.83 E54.26209
G0 F7200 X-12.618 Y-5.83
G1 F1200 X-.958 Y5.83 E55.08477
G0 F7200 X-.392 Y5.83
G1 F1200 X-12.052 Y-5.83 E55.90745
G0 F7200 X-11.486 Y-5.83
G1 F1200 X0.173 Y5.83 E56.73009
G0 F7200 X0.738 Y5.83
G1 F1200 X-10.921 Y-5.83 E57.55273
G0 F7200 X-10.355 Y-5.83
G1 F1200 X1.304 Y5.83 E58.37537
G0 F7200 X1.87 Y5.83
G1 F1200 X-9.789 Y-5.83 E59.19801
G0 F7200 X-9.224 Y-5.83
G1 F1200 X2.435 Y5.83 E60.02065
G0 F7200 X3.001 Y5.83
G1 F1200 X-8.658 Y-5.83 E60.84329
G0 F7200 X-8.092 Y-5.83
G1 F1200 X3.567 Y5.83 E61.66593
G0 F7200 X4.133 Y5.83
G1 F1200 X-7.527 Y-5.83 E62.48861
G0 F7200 X-6.961 Y-5.83
G1 F1200 X4.698 Y5.83 E63.31125
G0 F7200 X5.264 Y5.83
G1 F1200 X-6.395 Y-5.83 E64.13389
G0 F7200 X-5.83 Y-5.83
G1 F1200 X5.83 Y5.83 E64.95656
G0 F7200 X6.395 Y5.83
G1 F1200 X-5.264 Y-5.83 E65.77921
G0 F7200 X-4.698 Y-5.83
G1 F1200 X6.961 Y5.83 E66.60185
G0 F7200 X7.527 Y5.83
G1 F1200 X-4.133 Y-5.83 E67.42452
G0 F7200 X-3.567 Y-5.83
G1 F1200 X8.092 Y5.83 E68.24716
G0 F7200 X8.658 Y5.83
G1 F1200 X-3.001 Y-5.83 E69.0698
G0 F7200 X-2.435 Y-5.83
G1 F1200 X9.224 Y5.83 E69.89244
G0 F7200 X9.789 Y5.83
G1 F1200 X-1.87 Y-5.83 E70.71508
G0 F7200 X-1.304 Y-5.83
G1 F1200 X10.355 Y5.83 E71.53773
G0 F7200 X10.921 Y5.83
G1 F1200 X-.738 Y-5.83 E72.36037
G0 F7200 X-.173 Y-5.83
G1 F1200 X11.486 Y5.83 E73.18301
G0 F7200 X12.052 Y5.83
G1 F1200 X0.392 Y-5.83 E74.00568
G0 F7200 X0.958 Y-5.83
G1 F1200 X12.618 Y5.83 E74.82836
G0 F7200 X13.184 Y5.83
G1 F1200 X1.523 Y-5.83 E75.65107
G0 F7200 X2.089 Y-5.83
G1 F1200 X13.749 Y5.83 E76.47375
G0 F7200 X14.315 Y5.83
G1 F1200 X2.655 Y-5.83 E77.29642
G0 F7200 X3.22 Y-5.83
G1 F1200 X14.881 Y5.83 E78.11913
G0 F7200 X15.446 Y5.83
G1 F1200 X3.786 Y-5.83 E78.94181
G0 F7200 X4.352 Y-5.83
G1 F1200 X16.012 Y5.83 E79.76449
G0 F7200 X16.578 Y5.83
G1 F1200 X4.917 Y-5.83 E80.5872
G0 F7200 X5.483 Y-5.83
G1 F1200 X17.143 Y5.83 E81.40987
G0 F7200 X17.709 Y5.83
G1 F1200 X6.049 Y-5.83 E82.23255
G0 F7200 X6.614 Y-5.83
G1 F1200 X18.275 Y5.83 E83.05526
G0 F7200 X18.84 Y5.83
G1 F1200 X7.18 Y-5.83 E83.87794
G0 F7200 X7.746 Y-5.83
G1 F1200 X19.406 Y5.83 E84.70061
G0 F7200 X19.972 Y5.83
G1 F1200 X8.312 Y-5.83 E85.52329
G0 F7200 X8.877 Y-5.83
G1 F1200 X20.537 Y5.83 E86.34596
G0 F7200 X20.829 Y5.555
G1 F1200 X9.443 Y-5.83 E87.14927
G0 F7200 X10.009 Y-5.83
G1 F1200 X20.829 Y4.99 E87.91268
G0 F7200 X20.829 Y4.424
G1 F1200 X10.574 Y-5.83 E88.63619
G0 F7200 X11.14 Y-5.83
G1 F1200 X20.829 Y3.858 E89.31977
G0 F7200 X20.829 Y3.292
G1 F1200 X11.706 Y-5.83 E89.96341
G0 F7200 X12.271 Y-5.83
G1 F1200 X20.829 Y2.727 E90.56719
G0 F7200 X20.829 Y2.161
G1 F1200 X12.837 Y-5.83 E91.13103
G0 F7200 X13.403 Y-5.83
G1 F1200 X20.829 Y1.595 E91.65494
G0 F7200 X20.829 Y1.03
G1 F1200 X13.968 Y-5.83 E92.13899
G0 F7200 X14.534 Y-5.83
G1 F1200 X20.829 Y0.464 E92.5831
G0 F7200 X20.829 Y-.101
G1 F1200 X15.1 Y-5.83 E92.98731
G0 F7200 X15.665 Y-5.83
G1 F1200 X20.829 Y-.666 E93.35166
G0 F7200 X20.829 Y-1.232
G1 F1200 X16.231 Y-5.83 E93.67607
G0 F7200 X16.797 Y-5.83
G1 F1200 X20.829 Y-1.798 E93.96055
G0 F7200 X20.829 Y-2.363
G1 F1200 X17.363 Y-5.83 E94.20513
G0 F7200 X17.928 Y-5.83
G1 F1200 X20.829 Y-2.929 E94.40981
G0 F7200 X20.829 Y-3.495
G1 F1200 X18.494 Y-5.83 E94.57456
G0 F7200 X19.06 Y-5.83
G1 F1200 X20.829 Y-4.06 E94.69941
G0 F7200 X20.829 Y-4.626
G1 F1200 X19.625 Y-5.83 E94.78435
G0 F7200 X20.191 Y-5.83
G1 F1200 X20.829 Y-5.192 E94.82937
G0 F7200 X20.829 Y-5.757
G1 F1200 X20.757 Y-5.83 E94.83448
G0 F7200 X20.757 Y-6.2
G1 F2100 E84.83448
;MESH:NONMESH
G0 F600 X20.757 Y-6.2 Z0.6
G0 F7200 X20.757 Y-6.29
G0 X-23.218 Y-6.218
G0 X-23.4 Y6.4
;TIME_ELAPSED:101.901288

;LAYER:1
M140 S70
M106 S255
;TYPE:WALL-INNER
;MESH:tempTower.stl
G1 F2100 E94.83448
G1 X-23.4 Y-6.4 E95.47308
G1 X21.4 Y-6.4 E97.70816
G1 X21.4 Y6.4 E98.34675
G1 X-23.4 Y6.4 E100.58184
G0 F7200 X-23.8 Y6.8
;TYPE:WALL-OUTER
G1 F1350 X-23.8 Y-6.8 E101.26034
G1 X21.8 Y-6.8 E103.53534
G1 X21.8 Y6.8 E104.21384
G1 X-23.8 Y6.8 E106.48884
G0 F7200 X-23.8 Y6.6
G0 X-23.36 Y6.36
G0 X-23.01 Y6.01
;TYPE:SKIN
G1 F1350 X-23.01 Y-6.01 E107.08852
G1 X21.01 Y-6.01 E109.28468
G1 X21.01 Y6.01 E109.88436
G1 X-23.01 Y6.01 E112.08053
G1 F2100 E102.08053
G0 F7200 X-23.29 Y6.01
G0 X-23.29 Y-5.455
G0 X-22.828 Y-5.455
G1 F2100 E112.08053
G1 F1350 X-22.454 Y-5.83 E112.10695
G0 F7200 X-21.888 Y-5.83
G1 F1350 X-22.828 Y-4.889 E112.17331
G0 F7200 X-22.828 Y-4.323
G1 F1350 X-21.322 Y-5.83 E112.2796
G0 F7200 X-20.757 Y-5.83
G1 F1350 X-22.828 Y-3.758 E112.42576
G0 F7200 X-22.828 Y-3.192
G1 F1350 X-20.191 Y-5.83 E112.61185
G0 F7200 X-19.625 Y-5.83
G1 F1350 X-22.828 Y-2.626 E112.83787
G0 F7200 X-22.828 Y-2.061
G1 F1350 X-19.06 Y-5.83 E113.10376
G0 F7200 X-18.494 Y-5.83
G1 F1350 X-22.828 Y-1.495 E113.40958
G0 F7200 X-22.828 Y-.929
G1 F1350 X-17.928 Y-5.83 E113.75534
G0 F7200 X-17.363 Y-5.83
G1 F1350 X-22.828 Y-.364 E114.14096
G0 F7200 X-22.828 Y0.201
G1 F1350 X-16.797 Y-5.83 E114.56648
G0 F7200 X-16.231 Y-5.83
G1 F1350 X-22.828 Y0.767 E115.03193
G0 F7200 X-22.828 Y1.332
G1 F1350 X-15.665 Y-5.83 E115.53729
G0 F7200 X-15.1 Y-5.83
G1 F1350 X-22.828 Y1.898 E116.08254
G0 F7200 X-22.828 Y2.464
G1 F1350 X-14.534 Y-5.83 E116.66772
G0 F7200 X-13.968 Y-5.83
G1 F1350 X-22.828 Y3.029 E117.29281
G0 F7200 X-22.828 Y3.595
G1 F1350 X-13.403 Y-5.83 E117.95779
G0 F7200 X-12.837 Y-5.83
G1 F1350 X-22.828 Y4.161 E118.66271
G0 F7200 X-22.828 Y4.727
G1 F1350 X-12.271 Y-5.83 E119.40757
G0 F7200 X-11.706 Y-5.83
G1 F1350 X-22.828 Y5.292 E120.19228
G0 F7200 X-22.8 Y5.83
G1 F1350 X-11.14 Y-5.83 E121.01496
G0 F7200 X-10.574 Y-5.83
G1 F1350 X-22.234 Y5.83 E121.83764
G0 F7200 X-21.669 Y5.83
G1 F1350 X-10.009 Y-5.83 E122.66031
G0 F7200 X-9.443 Y-5.83
G1 F1350 X-21.103 Y5.83 E123.48299
G0 F7200 X-20.537 Y5.83
G1 F1350 X-8.877 Y-5.83 E124.30566
G0 F7200 X-8.312 Y-5.83
G1 F1350 X-19.972 Y5.83 E125.12834
G0 F7200 X-19.406 Y5.83
G1 F1350 X-7.746 Y-5.83 E125.95102
G0 F7200 X-7.18 Y-5.83
G1 F1350 X-18.84 Y5.83 E126.77369
G0 F7200 X-18.275 Y5.83
G1 F1350 X-6.614 Y-5.83 E127.5964
G0 F7200 X-6.049 Y-5.83
G1 F1350 X-17.709 Y5.83 E128.41908
G0 F7200 X-17.143 Y5.83
G1 F1350 X-5.483 Y-5.83 E129.24176
G0 F7200 X-4.917 Y-5.83
G1 F1350 X-16.578 Y5.83 E130.06447
G0 F7200 X-16.012 Y5.83
G1 F1350 X-4.352 Y-5.83 E130.88714
G0 F7200 X-3.786 Y-5.83
G1 F1350 X-15.446 Y5.83 E131.70982
G0 F7200 X-14.881 Y5.83
G1 F1350 X-3.22 Y-5.83 E132.53253
G0 F7200 X-2.655 Y-5.83
G1 F1350 X-14.315 Y5.83 E133.35521
G0 F7200 X-13.749 Y5.83
G1 F1350 X-2.089 Y-5.83 E134.17788
G0 F7200 X-1.523 Y-5.83
G1 F1350 X-13.184 Y5.83 E135.00059
G0 F7200 X-12.618 Y5.83
G1 F1350 X-.958 Y-5.83 E135.82327
G0 F7200 X-.392 Y-5.83
G1 F1350 X-12.052 Y5.83 E136.64594
G0 F7200 X-11.486 Y5.83
G1 F1350 X0.173 Y-5.83 E137.46859
G0 F7200 X0.738 Y-5.83
G1 F1350 X-10.921 Y5.83 E138.29123
G0 F7200 X-10.355 Y5.83
G1 F1350 X1.304 Y-5.83 E139.11387
G0 F7200 X1.87 Y-5.83
G1 F1350 X-9.789 Y5.83 E139.93651
G0 F7200 X-9.224 Y5.83
G1 F1350 X2.435 Y-5.83 E140.75915
G0 F7200 X3.001 Y-5.83
G1 F1350 X-8.658 Y5.83 E141.58179
G0 F7200 X-8.092 Y5.83
G1 F1350 X3.567 Y-5.83 E142.40443
G0 F7200 X4.133 Y-5.83
G1 F1350 X-7.527 Y5.83 E143.22711
G0 F7200 X-6.961 Y5.83
G1 F1350 X4.698 Y-5.83 E144.04975
G0 F7200 X5.264 Y-5.83
G1 F1350 X-6.395 Y5.83 E144.87239
G0 F7200 X-5.83 Y5.83
G1 F1350 X5.83 Y-5.83 E145.69506
G0 F7200 X6.395 Y-5.83
G1 F1350 X-5.264 Y5.83 E146.5177
G0 F7200 X-4.698 Y5.83
G1 F1350 X6.961 Y-5.83 E147.34034
G0 F7200 X7.527 Y-5.83
G1 F1350 X-4.133 Y5.83 E148.16302
G0 F7200 X-3.567 Y5.83
G1 F1350 X8.092 Y-5.83 E148.98566
G0 F7200 X8.658 Y-5.83
G1 F1350 X-3.001 Y5.83 E149.8083
G0 F7200 X-2.435 Y5.83
G1 F1350 X9.224 Y-5.83 E150.63094
G0 F7200 X9.789 Y-5.83
G1 F1350 X-1.87 Y5.83 E151.45358
G0 F7200 X-1.304 Y5.83
G1 F1350 X10.355 Y-5.83 E152.27622
G0 F7200 X10.921 Y-5.83
G1 F1350 X-.738 Y5.83 E153.09886
G0 F7200 X-.173 Y5.83
G1 F1350 X11.486 Y-5.83 E153.92151
G0 F7200 X12.052 Y-5.83
G1 F1350 X0.392 Y5.83 E154.74418
G0 F7200 X0.958 Y5.83
G1 F1350 X12.618 Y-5.83 E155.56686
G0 F7200 X13.184 Y-5.83
G1 F1350 X1.523 Y5.83 E156.38957
G0 F7200 X2.089 Y5.83
G1 F1350 X13.749 Y-5.83 E157.21224
G0 F7200 X14.315 Y-5.83
G1 F1350 X2.655 Y5.83 E158.03492
G0 F7200 X3.22 Y5.83
G1 F1350 X14.881 Y-5.83 E158.85763
G0 F7200 X15.446 Y-5.83
G1 F1350 X3.786 Y5.83 E159.68031
G0 F7200 X4.352 Y5.83
G1 F1350 X16.012 Y-5.83 E160.50298
G0 F7200 X16.578 Y-5.83
G1 F1350 X4.917 Y5.83 E161.32569
G0 F7200 X5.483 Y5.83
G1 F1350 X17.143 Y-5.83 E162.14837
G0 F7200 X17.709 Y-5.83
G1 F1350 X6.049 Y5.83 E162.97105
G0 F7200 X6.614 Y5.83
G1 F1350 X18.275 Y-5.83 E163.79376
G0 F7200 X18.84 Y-5.83
G1 F1350 X7.18 Y5.83 E164.61643
G0 F7200 X7.746 Y5.83
G1 F1350 X19.406 Y-5.83 E165.43911
G0 F7200 X19.972 Y-5.83
G1 F1350 X8.312 Y5.83 E166.26179
G0 F7200 X8.877 Y5.83
G1 F1350 X20.537 Y-5.83 E167.08446
G0 F7200 X20.829 Y-5.555
G1 F1350 X9.443 Y5.83 E167.88777
G0 F7200 X10.009 Y5.83
G1 F1350 X20.829 Y-4.99 E168.65118
G0 F7200 X20.829 Y-4.424
G1 F1350 X10.574 Y5.83 E169.37469
G0 F7200 X11.14 Y5.83
G1 F1350 X20.829 Y-3.858 E170.05827
G0 F7200 X20.829 Y-3.292
G1 F1350 X11.706 Y5.83 E170.70191
G0 F7200 X12.271 Y5.83
G1 F1350 X20.829 Y-2.727 E171.30569
G0 F7200 X20.829 Y-2.161
G1 F1350 X12.837 Y5.83 E171.86953
G0 F7200 X13.403 Y5.83
G1 F1350 X20.829 Y-1.595 E172.39344
G0 F7200 X20.829 Y-1.03
G1 F1350 X13.968 Y5.83 E172.87748
G0 F7200 X14.534 Y5.83
G1 F1350 X20.829 Y-.464 E173.32159
G0 F7200 X20.829 Y0.101
G1 F1350 X15.1 Y5.83 E173.72581
G0 F7200 X15.665 Y5.83
G1 F1350 X20.829 Y0.666 E174.09015
G0 F7200 X20.829 Y1.232
G1 F1350 X16.231 Y5.83 E174.41457
G0 F7200 X16.797 Y5.83
