;FLAVOR:Marlin
;TIME:2967
;Filament used: 3.26913m
;Layer height: 0.3
;MINX:-24.7
;MINY:-7.2
;MINZ:0.3
;MAXX:22
;MAXY:7.2
;MAXZ:87.9

;POSTPROCESSED
;Generated with Cura_SteamEngine 4.4.1
M140 S70
M105
M190 S70
M104 S250
M105
M109 S250
M82 ;absolute extrusion mode
M118 X60.00 Y50.00 Z5.00 T0
M140 S70 T0
M104 S250 T0
M104 S0 T1
M107
G90
G28
M132 X Y Z A B
G1 Z50.00 F400
G161 X Y F3300
M7 T0
M6 T0
M651
M907 X100 Y100 Z40 A100 B20
M108 T0
G1 X60.00 Y50.00 F6000
G92 E0
G92 E0
G1 F2400 E-3.5
;LAYER_COUNT:293

;LAYER:0
M107
G0 F7200 X15.839 Y-7.2 Z0.3
;TYPE:SKIRT
G1 F2400 E0
G1 F1800 X16.537 Y-7.19 E0.0303
G1 X17.04 Y-7.143 E0.05223
G1 X17.53 Y-7.017 E0.07419
G1 X17.994 Y-6.815 E0.09615
G1 X18.42 Y-6.543 E0.11809
G1 X18.798 Y-6.208 E0.14001
G1 X19.118 Y-5.817 E0.16194
G1 X19.373 Y-5.38 E0.1839
G1 X19.556 Y-4.909 E0.20584
G1 X19.663 Y-4.415 E0.22778
G1 X19.69 Y-4.08 E0.24236
G1 X19.699 Y-3.76 E0.25626
G1 X19.7 Y-3.67 E0.26017
G1 X19.7 Y3.304 E0.56287
G1 X19.691 Y4.031 E0.59443
G1 X19.645 Y4.534 E0.61635
G1 X19.52 Y5.024 E0.6383
G1 X19.319 Y5.488 E0.66025
G1 X19.048 Y5.915 E0.6822
G1 X18.713 Y6.294 E0.70415
G1 X18.323 Y6.615 E0.72608
G1 X17.887 Y6.871 E0.74802
G1 X17.416 Y7.054 E0.76995
G1 X16.922 Y7.162 E0.7919
G1 X16.581 Y7.19 E0.80675
G1 X16.26 Y7.199 E0.82069
G1 X16.17 Y7.2 E0.8246
G1 X-20.834 Y7.2 E2.43074
G1 X-21.532 Y7.191 E2.46104
G1 X-22.036 Y7.144 E2.48301
G1 X-22.526 Y7.019 E2.50496
G1 X-22.99 Y6.818 E2.52691
G1 X-23.416 Y6.547 E2.54882
G1 X-23.795 Y6.212 E2.57078
G1 X-24.116 Y5.821 E2.59273
G1 X-24.371 Y5.385 E2.61466
G1 X-24.555 Y4.914 E2.6366
G1 X-24.662 Y4.42 E2.65854
G1 X-24.69 Y4.077 E2.67348
G1 X-24.699 Y3.744 E2.68794
G1 X-24.7 Y3.658 E2.69167
G1 X-24.7 Y-3.369 E2.99668
G1 X-24.691 Y-4.034 E3.02554
G1 X-24.644 Y-4.538 E3.04751
G1 X-24.518 Y-5.027 E3.06943
G1 X-24.317 Y-5.491 E3.09138
G1 X-24.046 Y-5.918 E3.11333
G1 X-23.711 Y-6.296 E3.13525
G1 X-23.32 Y-6.617 E3.15721
G1 X-22.883 Y-6.872 E3.17917
G1 X-22.412 Y-7.056 E3.20112
G1 X-21.918 Y-7.162 E3.22305
G1 X-21.581 Y-7.19 E3.23773
G1 X-21.26 Y-7.199 E3.25167
G1 X-21.17 Y-7.2 E3.25557
G1 X15.307 Y-7.2 E4.83884
G0 F1620 X15.839 Y-7.2
G1 F2400 E1.33884
;MESH:temp_tower.stl
G0 F7200 X8.886 Y-4.665
G0 X8.886 Y-3.386
G0 X-13.318 Y-2.818
G0 X-13.5 Y3
;TYPE:WALL-INNER
G1 F2400 E4.83884
G1 F1800 X-13.5 Y-3 E5.09926
G1 X8.5 Y-3 E6.05416
G1 X8.5 Y3 E6.31459
G1 X-12.968 Y3 E7.2464
G0 F1620 X-13.5 Y3
G0 F7200 X-13.9 Y3.4
G1 F1800 X-13.9 Y-3.4 E7.54155
G1 X8.9 Y-3.4 E8.53117
G1 X8.9 Y3.4 E8.82632
G1 X-13.368 Y3.4 E9.79285
G0 F1620 X-13.9 Y3.4
G0 F7200 X-14 Y3.5
;TYPE:WALL-OUTER
G1 F1800 X-14 Y-3.5 E10.09668
G1 X9 Y-3.5 E11.09499
G1 X9 Y3.5 E11.39882
G1 X-13.468 Y3.5 E12.37403
G0 F1620 X-14 Y3.5
G0 F7200 X-14 Y3.3
G0 X-13.56 Y3.06
G0 X-13.11 Y2.61
;TYPE:SKIN
G1 F1800 X-13.11 Y-2.61 E12.6006
G1 X8.11 Y-2.61 E13.52164
G1 X8.11 Y2.61 E13.74821
G1 X-12.578 Y2.61 E14.64617
G0 F1620 X-13.11 Y2.61
G0 F7200 X-12.929 Y2.344
G1 F1800 X-12.843 Y2.429 E14.65141
G0 F7200 X-12.278 Y2.429
G1 F1800 X-12.929 Y1.778 E14.69138
G0 F7200 X-12.929 Y1.212
G1 F1800 X-11.712 Y2.429 E14.76608
G0 F7200 X-11.146 Y2.429
G1 F1800 X-12.929 Y0.647 E14.87549
G0 F7200 X-12.929 Y0.081
G1 F1800 X-10.581 Y2.429 E15.01962
G0 F7200 X-10.015 Y2.429
G1 F1800 X-12.929 Y-.484 E15.19846
G0 F7200 X-12.929 Y-1.05
G1 F1800 X-9.449 Y2.429 E15.41204
G0 F7200 X-8.884 Y2.429
G1 F1800 X-12.929 Y-1.615 E15.66031
G0 F7200 X-12.929 Y-2.181
G1 F1800 X-8.318 Y2.429 E15.94332
G0 F7200 X-7.752 Y2.429
G1 F1800 X-12.611 Y-2.429 E16.24155
G0 F7200 X-12.046 Y-2.429
G1 F1800 X-7.187 Y2.429 E16.53978
G0 F7200 X-6.621 Y2.429
G1 F1800 X-11.48 Y-2.429 E16.83801
G0 F7200 X-10.914 Y-2.429
G1 F1800 X-6.055 Y2.429 E17.13624
G0 F7200 X-5.489 Y2.429
G1 F1800 X-10.349 Y-2.429 E17.4345
G0 F7200 X-9.783 Y-2.429
G1 F1800 X-4.924 Y2.429 E17.73273
G0 F7200 X-4.358 Y2.429
G1 F1800 X-9.217 Y-2.429 E18.03096
G0 F7200 X-8.652 Y-2.429
G1 F1800 X-3.792 Y2.429 E18.32922
G0 F7200 X-3.227 Y2.429
G1 F1800 X-8.086 Y-2.429 E18.62745
G0 F7200 X-7.52 Y-2.429
G1 F1800 X-2.661 Y2.429 E18.92568
G0 F7200 X-2.095 Y2.429
G1 F1800 X-6.955 Y-2.429 E19.22394
G0 F7200 X-6.389 Y-2.429
G1 F1800 X-1.53 Y2.429 E19.52217
G0 F7200 X-.964 Y2.429
G1 F1800 X-5.823 Y-2.429 E19.8204
G0 F7200 X-5.258 Y-2.429
G1 F1800 X-.398 Y2.429 E20.11866
G0 F7200 X0.166 Y2.429
G1 F1800 X-4.692 Y-2.429 E20.41686
G0 F7200 X-4.126 Y-2.429
G1 F1800 X0.732 Y2.429 E20.71506
G0 F7200 X1.298 Y2.429
G1 F1800 X-3.56 Y-2.429 E21.01326
G0 F7200 X-2.995 Y-2.429
G1 F1800 X1.863 Y2.429 E21.31146
G0 F7200 X2.429 Y2.429
G1 F1800 X-2.429 Y-2.429 E21.60966
G0 F7200 X-1.863 Y-2.429
G1 F1800 X2.995 Y2.429 E21.90786
G0 F7200 X3.56 Y2.429
G1 F1800 X-1.298 Y-2.429 E22.20606
G0 F7200 X-.732 Y-2.429
G1 F1800 X4.126 Y2.429 E22.50426
G0 F7200 X4.692 Y2.429
G1 F1800 X-.166 Y-2.429 E22.80246
G0 F7200 X0.398 Y-2.429
G1 F1800 X5.258 Y2.429 E23.10072
G0 F7200 X5.823 Y2.429
G1 F1800 X0.964 Y-2.429 E23.39895
G0 F7200 X1.53 Y-2.429
G1 F1800 X6.389 Y2.429 E23.69718
G0 F7200 X6.955 Y2.429
G1 F1800 X2.095 Y-2.429 E23.99544
G0 F7200 X2.661 Y-2.429
G1 F1800 X7.52 Y2.429 E24.29367
G0 F7200 X7.929 Y2.272
G1 F1800 X3.227 Y-2.429 E24.58226
G0 F7200 X3.792 Y-2.429
G1 F1800 X7.929 Y1.706 E24.83615
G0 F7200 X7.929 Y1.141
G1 F1800 X4.358 Y-2.429 E25.05531
G0 F7200 X4.924 Y-2.429
G1 F1800 X7.929 Y0.575 E25.23974
G0 F7200 X7.929 Y0.009
G1 F1800 X5.489 Y-2.429 E25.38945
G0 F7200 X6.055 Y-2.429
G1 F1800 X7.929 Y-.555 E25.50449
G0 F7200 X7.929 Y-1.121
G1 F1800 X6.621 Y-2.429 E25.58478
G0 F7200 X7.187 Y-2.429
G1 F1800 X7.929 Y-1.687 E25.63032
G0 F7200 X7.929 Y-2.252
G1 F1800 X7.752 Y-2.429 E25.64119
G0 F7200 X7.752 Y-3
G1 F2400 E22.14119
;MESH:NONMESH
G0 F600 X7.752 Y-3 Z0.6
G0 F7200 X-13.318 Y-2.818
G0 X-13.5 Y3
;TIME_ELAPSED:23.877588

;LAYER:1
M140 S70
M106 S255
;TYPE:WALL-INNER
;MESH:temp_tower.stl
G1 F2400 E25.64119
G1 F2100 X-13.5 Y-3 E25.90161
G1 X8.5 Y-3 E26.85651
G1 X8.5 Y3 E27.11694
G1 X-12.968 Y3 E28.04875
G0 F1890 X-13.5 Y3
G0 F7200 X-13.9 Y3.4
G1 F2100 X-13.9 Y-3.4 E28.3439
G1 X8.9 Y-3.4 E29.33352
G1 X8.9 Y3.4 E29.62867
G1 X-13.368 Y3.4 E30.5952
G0 F1890 X-13.9 Y3.4
G0 F7200 X-14 Y3.5
;TYPE:WALL-OUTER
G1 F2100 X-14 Y-3.5 E30.89903
G1 X9 Y-3.5 E31.89733
G1 X9 Y3.5 E32.20117
G1 X-13.468 Y3.5 E33.17638
G0 F1890 X-14 Y3.5
G0 F7200 X-14 Y3.3
G0 X-13.56 Y3.06
G0 X-13.11 Y2.61
;TYPE:SKIN
G1 F1575 X-13.11 Y-2.61 E33.40295
G1 X8.11 Y-2.61 E34.32399
G1 X8.11 Y2.61 E34.55056
G1 X-12.578 Y2.61 E35.44851
G0 F1417.5 X-13.11 Y2.61
G0 F7200 X-13.39 Y2.61
G0 X-13.39 Y-2.344
G0 X-12.929 Y-2.344
G1 F1575 X-12.843 Y-2.43 E35.45379
G0 F7200 X-12.277 Y-2.43
G1 F1575 X-12.929 Y-1.778 E35.49382
G0 F7200 X-12.929 Y-1.212
G1 F1575 X-11.711 Y-2.43 E35.56858
G0 F7200 X-11.146 Y-2.43
G1 F1575 X-12.929 Y-.647 E35.67803
G0 F7200 X-12.929 Y-0.081
G1 F1575 X-10.58 Y-2.43 E35.82222
G0 F7200 X-10.014 Y-2.43
G1 F1575 X-12.929 Y0.484 E36.00112
G0 F7200 X-12.929 Y1.05
G1 F1575 X-9.449 Y-2.43 E36.21473
G0 F7200 X-8.883 Y-2.43
G1 F1575 X-12.929 Y1.615 E36.46306
G0 F7200 X-12.929 Y2.181
G1 F1575 X-8.317 Y-2.43 E36.74612
G0 F7200 X-7.752 Y-2.43
G1 F1575 X-12.612 Y2.43 E37.04445
G0 F7200 X-12.046 Y2.43
G1 F1575 X-7.186 Y-2.43 E37.34277
G0 F7200 X-6.62 Y-2.43
G1 F1575 X-11.481 Y2.43 E37.64112
G0 F7200 X-10.915 Y2.43
G1 F1575 X-6.054 Y-2.43 E37.93948
G0 F7200 X-5.489 Y-2.43
G1 F1575 X-10.349 Y2.43 E38.2378
G0 F7200 X-9.784 Y2.43
G1 F1575 X-4.923 Y-2.43 E38.53615
G0 F7200 X-4.357 Y-2.43
G1 F1575 X-9.218 Y2.43 E38.8345
G0 F7200 X-8.652 Y2.43
G1 F1575 X-3.792 Y-2.43 E39.13283
G0 F7200 X-3.226 Y-2.43
G1 F1575 X-8.087 Y2.43 E39.43118
G0 F7200 X-7.521 Y2.43
G1 F1575 X-2.66 Y-2.43 E39.72953
G0 F7200 X-2.095 Y-2.43
G1 F1575 X-6.955 Y2.43 E40.02785
G0 F7200 X-6.39 Y2.43
G1 F1575 X-1.529 Y-2.43 E40.32621
G0 F7200 X-.963 Y-2.43
G1 F1575 X-5.824 Y2.43 E40.62456
G0 F7200 X-5.258 Y2.43
G1 F1575 X-.398 Y-2.43 E40.92288
G0 F7200 X0.167 Y-2.43
G1 F1575 X-4.693 Y2.43 E41.22121
G0 F7200 X-4.127 Y2.43
G1 F1575 X0.733 Y-2.43 E41.51953
G0 F7200 X1.298 Y-2.43
G1 F1575 X-3.561 Y2.43 E41.81782
G0 F7200 X-2.996 Y2.43
G1 F1575 X1.864 Y-2.43 E42.11614
G0 F7200 X2.43 Y-2.43
G1 F1575 X-2.43 Y2.43 E42.41446
G0 F7200 X-1.864 Y2.43
G1 F1575 X2.996 Y-2.43 E42.71279
G0 F7200 X3.561 Y-2.43
G1 F1575 X-1.298 Y2.43 E43.01108
G0 F7200 X-.733 Y2.43
G1 F1575 X4.127 Y-2.43 E43.3094
G0 F7200 X4.693 Y-2.43
G1 F1575 X-.167 Y2.43 E43.60772
G0 F7200 X0.398 Y2.43
G1 F1575 X5.258 Y-2.43 E43.90605
G0 F7200 X5.824 Y-2.43
G1 F1575 X0.963 Y2.43 E44.2044
G0 F7200 X1.529 Y2.43
G1 F1575 X6.39 Y-2.43 E44.50275
G0 F7200 X6.955 Y-2.43
G1 F1575 X2.095 Y2.43 E44.80107
G0 F7200 X2.66 Y2.43
G1 F1575 X7.521 Y-2.43 E45.09943
G0 F7200 X7.929 Y-2.272
G1 F1575 X3.226 Y2.43 E45.38808
G0 F7200 X3.792 Y2.43
G1 F1575 X7.929 Y-1.706 E45.64199
G0 F7200 X7.929 Y-1.141
G1 F1575 X4.357 Y2.43 E45.86122
G0 F7200 X4.923 Y2.43
G1 F1575 X7.929 Y-.575 E46.04571
G0 F7200 X7.929 Y-0.009
G1 F1575 X5.489 Y2.43 E46.19545
G0 F7200 X6.054 Y2.43
G1 F1575 X7.929 Y0.555 E46.31055
G0 F7200 X7.929 Y1.121
G1 F1575 X6.62 Y2.43 E46.3909
G0 F7200 X7.186 Y2.43
G1 F1575 X7.929 Y1.687 E46.43651
G0 F7200 X7.929 Y2.252
G1 F1575 X7.752 Y2.43 E46.4474
G0 F7200 X7.752 Y3
G1 F2400 E42.9474
;MESH:NONMESH
G0 F600 X7.752 Y3 Z0.9
G0 F7200 X-13.5 Y3
;TIME_ELAPSED:42.170602

;LAYER:2
;TYPE:WALL-INNER
;MESH:temp_tower.stl
G1 F2400 E46.4474
G1 X-13.5 Y-3 E46.70783
G1 X8.5 Y-3 E47.66273
G1 X8.5 Y3 E47.92315
G1 X-12.968 Y3 E48.85496
G0 F2160 X-13.5 Y3
G0 F7200 X-13.9 Y3.4
G1 F2400 X-13.9 Y-3.4 E49.15011
G1 X8.9 Y-3.4 E50.13973
G1 X8.9 Y3.4 E50.43488
G1 X-13.368 Y3.4 E51.40142
G0 F2160 X-13.9 Y3.4
G0 F7200 X-14 Y3.5
;TYPE:WALL-OUTER
G1 F2400 X-14 Y-3.5 E51.70525
G1 X9 Y-3.5 E52.70355
G1 X9 Y3.5 E53.00738
G1 X-13.468 Y3.5 E53.98259
G0 F2160 X-14 Y3.5
G0 F7200 X-14 Y3.3
G0 X-13.56 Y3.06
G0 X-13.11 Y2.61
;TYPE:SKIN
G1 F1350 X-13.11 Y-2.61 E54.20916
G1 X8.11 Y-2.61 E55.13021
G1 X8.11 Y2.61 E55.35678
G1 X-12.578 Y2.61 E56.25473
G0 F1215 X-13.11 Y2.61
G0 F7200 X-12.929 Y2.344
G1 F1350 X-12.843 Y2.429 E56.25998
G0 F7200 X-12.278 Y2.429
G1 F1350 X-12.929 Y1.778 E56.29994
G0 F7200 X-12.929 Y1.212
G1 F1350 X-11.712 Y2.429 E56.37464
G0 F7200 X-11.146 Y2.429
G1 F1350 X-12.929 Y0.647 E56.48406
G0 F7200 X-12.929 Y0.081
G1 F1350 X-10.581 Y2.429 E56.62819
G0 F7200 X-10.015 Y2.429
G1 F1350 X-12.929 Y-.484 E56.80703
G0 F7200 X-12.929 Y-1.05
G1 F1350 X-9.449 Y2.429 E57.02061
G0 F7200 X-8.884 Y2.429
G1 F1350 X-12.929 Y-1.615 E57.26887
G0 F7200 X-12.929 Y-2.181
G1 F1350 X-8.318 Y2.429 E57.55188
G0 F7200 X-7.752 Y2.429
G1 F1350 X-12.611 Y-2.429 E57.85011
G0 F7200 X-12.046 Y-2.429
G1 F1350 X-7.187 Y2.429 E58.14834
G0 F7200 X-6.621 Y2.429
G1 F1350 X-11.48 Y-2.429 E58.44657
G0 F7200 X-10.914 Y-2.429
G1 F1350 X-6.055 Y2.429 E58.7448
G0 F7200 X-5.489 Y2.429
G1 F1350 X-10.349 Y-2.429 E59.04306
G0 F7200 X-9.783 Y-2.429
G1 F1350 X-4.924 Y2.429 E59.34129
G0 F7200 X-4.358 Y2.429
G1 F1350 X-9.217 Y-2.429 E59.63952
G0 F7200 X-8.652 Y-2.429
G1 F1350 X-3.792 Y2.429 E59.93778
G0 F7200 X-3.227 Y2.429
G1 F1350 X-8.086 Y-2.429 E60.23601
G0 F7200 X-7.52 Y-2.429
G1 F1350 X-2.661 Y2.429 E60.53424
G0 F7200 X-2.095 Y2.429
G1 F1350 X-6.955 Y-2.429 E60.8325
G0 F7200 X-6.389 Y-2.429
G1 F1350 X-1.53 Y2.429 E61.13074
G0 F7200 X-.964 Y2.429
G1 F1350 X-5.823 Y-2.429 E61.42897
G0 F7200 X-5.258 Y-2.429
G1 F1350 X-.398 Y2.429 E61.72723
G0 F7200 X0.166 Y2.429
G1 F1350 X-4.692 Y-2.429 E62.02543
G0 F7200 X-4.126 Y-2.429
G1 F1350 X0.732 Y2.429 E62.32363
G0 F7200 X1.298 Y2.429
G1 F1350 X-3.56 Y-2.429 E62.62183
G0 F7200 X-2.995 Y-2.429
G1 F1350 X1.863 Y2.429 E62.92002
G0 F7200 X2.429 Y2.429
G1 F1350 X-2.429 Y-2.429 E63.21822
G0 F7200 X-1.863 Y-2.429
G1 F1350 X2.995 Y2.429 E63.51642
G0 F7200 X3.56 Y2.429
G1 F1350 X-1.298 Y-2.429 E63.81462
G0 F7200 X-.732 Y-2.429
G1 F1350 X4.126 Y2.429 E64.11282
G0 F7200 X4.692 Y2.429
G1 F1350 X-.166 Y-2.429 E64.41102
G0 F7200 X0.398 Y-2.429
G1 F1350 X5.258 Y2.429 E64.70928
G0 F7200 X5.823 Y2.429
G1 F1350 X0.964 Y-2.429 E65.00751
G0 F7200 X1.53 Y-2.429
G1 F1350 X6.389 Y2.429 E65.30574
G0 F7200 X6.955 Y2.429
G1 F1350 X2.095 Y-2.429 E65.60401
G0 F7200 X2.661 Y-2.429
G1 F1350 X7.52 Y2.429 E65.90224
G0 F7200 X7.929 Y2.272
G1 F1350 X3.227 Y-2.429 E66.19083
G0 F7200 X3.792 Y-2.429
G1 F1350 X7.929 Y1.706 E66.44471
G0 F7200 X7.929 Y1.141
G1 F1350 X4.358 Y-2.429 E66.66388
G0 F7200 X4.924 Y-2.429
G1 F1350 X7.929 Y0.575 E66.8483
G0 F7200 X7.929 Y0.009
G1 F1350 X5.489 Y-2.429 E66.99802
G0 F7200 X6.055 Y-2.429
G1 F1350 X7.929 Y-.555 E67.11305
G0 F7200 X7.929 Y-1.121
G1 F1350 X6.621 Y-2.429 E67.19334
G0 F7200 X7.187 Y-2.429
G1 F1350 X7.929 Y-1.687 E67.23889
G0 F7200 X7.929 Y-2.252
G1 F1350 X7.752 Y-2.429 E67.24975
G0 F7200 X7.752 Y-3
;MESH:NONMESH
G0 F600 X7.752 Y-3 Z1.2
G0 F7200 X8.83 Y3.33
G0 X8.9 Y3.6
;TIME_ELAPSED:61.514328

;LAYER:3
;TYPE:WALL-INNER
;MESH:temp_tower.stl
G1 F2400 X16.1 Y3.6 E67.56226
G1 X16.1 Y-3.6 E67.87477
G1 X8.9 Y-3.6 E68.18729
G1 X8.9 Y3.068 E68.47671
G0 F2160 X8.9 Y3.6
G0 F7200 X9 Y3.5
;TYPE:WALL-OUTER
G1 F2400 X16 Y3.5 E68.78054
G1 X16 Y-3.5 E69.08437
G1 X9 Y-3.5 E69.3882
G1 X9 Y2.968 E69.66894
G0 F2160 X9 Y3.5
G0 F7200 X9.2 Y3.5
G0 X9.2 Y3.94
G1 F2400 E66.16894
G0 F7200 X9.2 Y3.8
G0 X8.31 Y3.796
G0 X8.1 Y4.4
;TYPE:WALL-INNER
G1 F2400 E69.66894
G1 X8.1 Y-4.391 E70.05051
G1 X16.701 Y-4.4 E70.42383
G1 X16.9 Y-4.4 E70.43247
G1 X16.9 Y-4.201 E70.43806
G1 X16.9 Y4.4 E70.81138
G1 X8.632 Y4.4 E71.17025
G0 F2160 X8.1 Y4.4
G0 F7200 X8 Y4.5
;TYPE:WALL-OUTER
G1 F2400 X8 Y-4.491 E71.5605
G1 X16.8 Y-4.5 E71.94246
G1 X17 Y-4.5 E71.95114
G1 X17 Y-4.3 E71.95676
G1 X17 Y4.5 E72.33872
G1 X8.532 Y4.5 E72.70627
G0 F2160 X8 Y4.5
G0 F7200 X8 Y4.3
G0 X8.44 Y4.06
G1 F2400 E69.20627
G0 F7200 X8.3 Y4.06
G0 X8.22 Y-3.67
G0 X6.835 Y-3.67
G0 X-11.835 Y-3.67
G0 X-13.12 Y-3.67
G0 X-13.9 Y-3.6
;TYPE:WALL-INNER
G1 F2400 E72.70627
G1 X-21.1 Y-3.6 E73.01878
G1 X-21.1 Y3.4 E73.32261
G1 X-21.892 Y3.4 E73.35699
G1 X-21.9 Y-4.201 E73.68691
G1 X-21.9 Y-4.4 E73.69554
G1 X-21.701 Y-4.4 E73.70113
G1 X-13.1 Y-4.4 E74.07445
G1 X-13.1 Y3.4 E74.41301
G1 X-13.9 Y3.4 E74.44773
G1 X-13.9 Y-3.068 E74.72847
G0 F2160 X-13.9 Y-3.6
G0 F7200 X-14 Y-3.5
;TYPE:WALL-OUTER
G1 F2400 X-21 Y-3.5 E75.0323
G1 X-21 Y3.5 E75.33614
G1 X-21.992 Y3.5 E75.37919
G1 X-22 Y-4.3 E75.71775
G1 X-22 Y-4.5 E75.72643
G1 X-21.8 Y-4.5 E75.73205
G1 X-13 Y-4.5 E76.11401
G1 X-13 Y3.5 E76.46124
G1 X-14 Y3.5 E76.50465
G1 X-14 Y-2.968 E76.78539
G0 F2160 X-14 Y-3.5
G0 F7200 X-14.2 Y-3.5
G0 X-14.2 Y-3.94
G1 F2400 E73.28539
;MESH:NONMESH
G0 F600 X-14.2 Y-3.94 Z1.5
G0 F7200 X-14.2 Y-3.71
G0 X-13.718 Y3.218
G0 X-13.12 Y2.36
G0 X-11.835 Y2.36
G0 X6.835 Y2.36
G0 X8.22 Y2.36
G0 X8.488 Y2.36
;TIME_ELAPSED:68.455439

;LAYER:4
;TYPE:WALL-INNER
;MESH:temp_tower.stl
G1 F2400 E76.78539
G1 X8.494 Y-4 E77.06144
G1 X8.5 Y-4 E77.0617
G1 X8.488 Y2.36 E77.06378
G0 F7200 X8.7 Y3.6
G0 X8.9 Y3.6
G1 F2400 X16.1 Y3.6 E77.37629
G1 X16.1 Y-3.6 E77.6888
G1 X8.9 Y-3.6 E78.00131
G1 X8.9 Y3.068 E78.29074
G0 F2160 X8.9 Y3.6
G0 F7200 X9 Y3.5
;TYPE:WALL-OUTER
G1 F2400 X16 Y3.5 E78.59457
G1 X16 Y-3.5 E78.8984
G1 X9 Y-3.5 E79.20223
G1 X9 Y2.968 E79.48297
G0 F2160 X9 Y3.5
G0 F7200 X9.2 Y3.5
G0 X9.2 Y3.94
G0 X8.3 Y4.057
G0 X8.1 Y4.057
;TYPE:WALL-INNER
G1 F2400 X8.088 Y2.36 E79.55663
G1 X8.094 Y-4.4 E79.85004
G1 X16.9 Y-4.4 E80.23226
G1 X16.9 Y4.4 E80.61422
G1 X8.289 Y4.4 E80.98798
G0 F2160 X8.1 Y4.4
G0 X8.1 Y4.057
G0 F7200 X8 Y4.057
;TYPE:WALL-OUTER
G1 F2400 X7.988 Y2.36 E81.06164
G1 X7.989 Y-3.994 E81.33743
G1 X7.995 Y-4.5 E81.35939
G1 X17 Y-4.5 E81.75025
G1 X17 Y4.5 E82.14089
G1 X8.089 Y4.5 E82.52767
G0 F2160 X8 Y4.5
G0 X8 Y4.057
G0 F7200 X7.999 Y3.857
G0 X8.439 Y3.854
G0 X8.518 Y3.982
G1 F2400 E79.02767
G0 F7200 X8.208 Y2.36
G0 X6.824 Y2.37
G0 X-11.835 Y2.36
G0 X-13.12 Y2.36
G0 X-13.282 Y3.218
G0 X-13.83 Y-3.67
G0 X-13.9 Y-3.6
;TYPE:WALL-INNER
G1 F2400 E82.52767
G1 X-21.1 Y-3.6 E82.84018
G1 X-21.1 Y3.4 E83.14401
G1 X-21.9 Y3.4 E83.17874
G1 X-21.9 Y-4.4 E83.51729
G1 X-13.1 Y-4.4 E83.89925
G1 X-13.1 Y3.4 E84.23781
G1 X-13.9 Y3.4 E84.27253
G1 X-13.9 Y-3.068 E84.55327
G0 F2160 X-13.9 Y-3.6
G0 F7200 X-14 Y-3.5
;TYPE:WALL-OUTER
G1 F2400 X-21 Y-3.5 E84.8571
G1 X-21 Y3.5 E85.16093
G1 X-22 Y3.5 E85.20434
